;FLAVOR:Marlin
;TIME:21652
;Filament used: 26.3838m
;Layer height: 0.2
;MINX:44.3
;MINY:51.8
;MINZ:0.3
;MAXX:155.7
;MAXY:148.2
;MAXZ:44.9
;Generated with Cura_SteamEngine 4.1.0
M140 S60
M105
M190 S60
M104 S190
M105
M109 S190
M82 ;absolute extrusion mode
G21 ;metric values
G90 ;absolute positioning
M82 ;set extruder to absolute mode
M107 ;start with the fan off
G28 X0 Y0 ;move X/Y to min endstops
G28 Z0 ;move Z to min endstops
G1 Z15.0 F9000 ;move the platform down 15mm
G92 E0 ;zero the extruded length
G1 F200 E3 ;extrude 3mm of feed stock
G92 E0 ;zero the extruded length again
G1 F9000
;Put printing message on LCD screen
M117 Printing...
G92 E0
G92 E0
G1 F1500 E-6.5
;LAYER_COUNT:224
;LAYER:0
M107
G0 F3600 X45.289 Y52.704 Z0.3
;TYPE:SKIRT
G1 F1500 E0
G1 F1800 X45.68 Y52.383 E0.02524
G1 X46.117 Y52.128 E0.05048
G1 X46.588 Y51.944 E0.07571
G1 X47.082 Y51.838 E0.10092
G1 X47.419 Y51.81 E0.11779
G1 X47.74 Y51.801 E0.13381
G1 X47.83 Y51.8 E0.1383
G1 X151.839 Y51.8 E5.32733
G1 X152.537 Y51.81 E5.36216
G1 X153.04 Y51.857 E5.38736
G1 X153.53 Y51.983 E5.4126
G1 X153.994 Y52.185 E5.43785
G1 X154.42 Y52.457 E5.46306
G1 X154.798 Y52.792 E5.48826
G1 X155.118 Y53.183 E5.51347
G1 X155.373 Y53.62 E5.53871
G1 X155.556 Y54.091 E5.56392
G1 X155.663 Y54.585 E5.58914
G1 X155.69 Y54.92 E5.60591
G1 X155.699 Y55.24 E5.62188
G1 X155.7 Y55.33 E5.62637
G1 X155.7 Y144.304 E10.0653
G1 X155.691 Y145.031 E10.10157
G1 X155.645 Y145.534 E10.12677
G1 X155.52 Y146.024 E10.152
G1 X155.319 Y146.488 E10.17723
G1 X155.048 Y146.915 E10.20246
G1 X154.713 Y147.294 E10.2277
G1 X154.323 Y147.615 E10.2529
G1 X153.887 Y147.871 E10.27812
G1 X153.416 Y148.054 E10.30333
G1 X152.922 Y148.162 E10.32856
G1 X152.581 Y148.19 E10.34563
G1 X152.26 Y148.199 E10.36165
G1 X152.17 Y148.2 E10.36614
G1 X48.166 Y148.2 E15.55492
G1 X47.468 Y148.191 E15.58975
G1 X46.964 Y148.144 E15.615
G1 X46.474 Y148.019 E15.64023
G1 X46.01 Y147.818 E15.66546
G1 X45.584 Y147.547 E15.69065
G1 X45.205 Y147.212 E15.71588
G1 X44.884 Y146.821 E15.74112
G1 X44.629 Y146.385 E15.76632
G1 X44.445 Y145.914 E15.79155
G1 X44.338 Y145.42 E15.81677
G1 X44.31 Y145.077 E15.83393
G1 X44.301 Y144.744 E15.85055
G1 X44.3 Y144.658 E15.85484
G1 X44.3 Y55.631 E20.29642
G1 X44.309 Y54.966 E20.3296
G1 X44.356 Y54.462 E20.35485
G1 X44.482 Y53.973 E20.38005
G1 X44.683 Y53.509 E20.40527
G1 X44.954 Y53.082 E20.43051
G1 X45.289 Y52.704 E20.4557
G1 F1500 E13.9557
;MESH:CA_hop1.stl
G0 F3600 X48.114 Y54.335
G0 X48.114 Y55.614
G0 X48.5 Y56
;TYPE:WALL-INNER
G1 F1500 E20.4557
G1 F1800 X151.5 Y56 E25.5944
G1 X151.5 Y144 E29.98473
G1 X48.5 Y144 E35.12342
G1 X48.5 Y56 E39.51376
G0 F3600 X48.1 Y55.6
G1 F1800 X151.9 Y55.6 E44.69237
G1 X151.9 Y144.4 E49.12262
G1 X48.1 Y144.4 E54.30122
G1 X48.1 Y55.6 E58.73147
G0 F3600 X47.7 Y55.2
;TYPE:WALL-OUTER
G1 F1800 X152.3 Y55.2 E63.94998
G1 X152.3 Y144.8 E68.42015
G1 X47.7 Y144.8 E73.63866
G1 X47.7 Y55.2 E78.10882
G0 F3600 X47.9 Y55.2
G0 X48.17 Y55.67
G0 X48.89 Y56.39
;TYPE:SKIN
G1 F1800 X151.11 Y56.39 E83.2086
G1 X151.11 Y143.61 E87.56002
G1 X48.89 Y143.61 E92.6598
G1 X48.89 Y56.39 E97.01122
G0 F3600 X49.525 Y143.429
G1 F1800 X49.069 Y142.973 E97.0434
G0 F3600 X49.069 Y142.407
G1 F1800 X50.091 Y143.429 E97.1155
G0 F3600 X50.657 Y143.429
G1 F1800 X49.069 Y141.842 E97.22751
G0 F3600 X49.069 Y141.276
G1 F1800 X51.222 Y143.429 E97.37942
G0 F3600 X51.788 Y143.429
G1 F1800 X49.069 Y140.71 E97.57126
G0 F3600 X49.069 Y140.145
G1 F1800 X52.354 Y143.429 E97.803
G0 F3600 X52.919 Y143.429
G1 F1800 X49.069 Y139.579 E98.07463
G0 F3600 X49.069 Y139.013
G1 F1800 X53.485 Y143.429 E98.38621
G0 F3600 X54.051 Y143.429
G1 F1800 X49.069 Y138.447 E98.73771
G0 F3600 X49.069 Y137.882
G1 F1800 X54.616 Y143.429 E99.12908
G0 F3600 X55.182 Y143.429
G1 F1800 X49.069 Y137.316 E99.56039
G0 F3600 X49.069 Y136.75
G1 F1800 X55.748 Y143.429 E100.03163
G0 F3600 X56.313 Y143.429
G1 F1800 X49.069 Y136.185 E100.54273
G0 F3600 X49.069 Y135.619
G1 F1800 X56.879 Y143.429 E101.09377
G0 F3600 X57.445 Y143.429
G1 F1800 X49.069 Y135.053 E101.68474
G0 F3600 X49.069 Y134.488
G1 F1800 X58.011 Y143.429 E102.31561
G0 F3600 X58.576 Y143.429
G1 F1800 X49.069 Y133.922 E102.98638
G0 F3600 X49.069 Y133.356
G1 F1800 X59.142 Y143.429 E103.69709
G0 F3600 X59.708 Y143.429
G1 F1800 X49.069 Y132.791 E104.44769
G0 F3600 X49.069 Y132.225
G1 F1800 X60.273 Y143.429 E105.23819
G0 F3600 X60.839 Y143.429
G1 F1800 X49.069 Y131.659 E106.06863
G0 F3600 X49.069 Y131.094
G1 F1800 X61.405 Y143.429 E106.93897
G0 F3600 X61.97 Y143.429
G1 F1800 X49.069 Y130.528 E107.8492
G0 F3600 X49.069 Y129.962
G1 F1800 X62.536 Y143.429 E108.79937
G0 F3600 X63.102 Y143.429
G1 F1800 X49.069 Y129.397 E109.78944
G0 F3600 X49.069 Y128.831
G1 F1800 X63.667 Y143.429 E110.81941
G0 F3600 X64.233 Y143.429
G1 F1800 X49.069 Y128.265 E111.88931
G0 F3600 X49.069 Y127.699
G1 F1800 X64.799 Y143.429 E112.99915
G0 F3600 X65.364 Y143.429
G1 F1800 X49.069 Y127.134 E114.14885
G0 F3600 X49.069 Y126.568
G1 F1800 X65.93 Y143.429 E115.33848
G0 F3600 X66.496 Y143.429
G1 F1800 X49.069 Y126.002 E116.56805
G0 F3600 X49.069 Y125.437
G1 F1800 X67.062 Y143.429 E117.83752
G0 F3600 X67.627 Y143.429
G1 F1800 X49.069 Y124.871 E119.14689
G0 F3600 X49.069 Y124.305
G1 F1800 X68.193 Y143.429 E120.49619
G0 F3600 X68.759 Y143.429
G1 F1800 X49.069 Y123.74 E121.88539
G0 F3600 X49.069 Y123.174
G1 F1800 X69.324 Y143.429 E123.31449
G0 F3600 X69.89 Y143.429
G1 F1800 X49.069 Y122.608 E124.78352
G0 F3600 X49.069 Y122.043
G1 F1800 X70.456 Y143.429 E126.29246
G0 F3600 X71.021 Y143.429
G1 F1800 X49.069 Y121.477 E127.84129
G0 F3600 X49.069 Y120.911
G1 F1800 X71.587 Y143.429 E129.43005
G0 F3600 X72.153 Y143.429
G1 F1800 X49.069 Y120.346 E131.05872
G0 F3600 X49.069 Y119.78
G1 F1800 X72.718 Y143.429 E132.72728
G0 F3600 X73.284 Y143.429
G1 F1800 X49.069 Y119.214 E134.43578
G0 F3600 X49.069 Y118.648
G1 F1800 X73.85 Y143.429 E136.18422
G0 F3600 X74.415 Y143.429
G1 F1800 X49.069 Y118.083 E137.97251
G0 F3600 X49.069 Y117.517
G1 F1800 X74.981 Y143.429 E139.80075
G0 F3600 X75.547 Y143.429
G1 F1800 X49.069 Y116.951 E141.66891
G0 F3600 X49.069 Y116.386
G1 F1800 X76.112 Y143.429 E143.57694
G0 F3600 X76.678 Y143.429
G1 F1800 X49.069 Y115.82 E145.5249
G0 F3600 X49.069 Y115.254
G1 F1800 X77.244 Y143.429 E147.5128
G0 F3600 X77.81 Y143.429
G1 F1800 X49.069 Y114.689 E149.5406
G0 F3600 X49.069 Y114.123
G1 F1800 X78.375 Y143.429 E151.6083
G0 F3600 X78.941 Y143.429
G1 F1800 X49.069 Y113.557 E153.71593
G0 F3600 X49.069 Y112.992
G1 F1800 X79.507 Y143.429 E155.86346
G0 F3600 X80.072 Y143.429
G1 F1800 X49.069 Y112.426 E158.05089
G0 F3600 X49.069 Y111.86
G1 F1800 X80.638 Y143.429 E160.27825
G0 F3600 X81.204 Y143.429
G1 F1800 X49.069 Y111.295 E162.54551
G0 F3600 X49.069 Y110.729
G1 F1800 X81.769 Y143.429 E164.85268
G0 F3600 X82.335 Y143.429
G1 F1800 X49.069 Y110.163 E167.19977
G0 F3600 X49.069 Y109.598
G1 F1800 X82.901 Y143.429 E169.58677
G0 F3600 X83.466 Y143.429
G1 F1800 X49.069 Y109.032 E172.01366
G0 F3600 X49.069 Y108.466
G1 F1800 X84.032 Y143.429 E174.48049
G0 F3600 X84.598 Y143.429
G1 F1800 X49.069 Y107.9 E176.98725
G0 F3600 X49.069 Y107.335
G1 F1800 X85.163 Y143.429 E179.53388
G0 F3600 X85.729 Y143.429
G1 F1800 X49.069 Y106.769 E182.12044
G0 F3600 X49.069 Y106.203
G1 F1800 X86.295 Y143.429 E184.74693
G0 F3600 X86.86 Y143.429
G1 F1800 X49.069 Y105.638 E187.41329
G0 F3600 X49.069 Y105.072
G1 F1800 X87.426 Y143.429 E190.11959
G0 F3600 X87.992 Y143.429
G1 F1800 X49.069 Y104.506 E192.86582
G0 F3600 X49.069 Y103.941
G1 F1800 X88.558 Y143.429 E195.65194
G0 F3600 X89.123 Y143.429
G1 F1800 X49.069 Y103.375 E198.47797
G0 F3600 X49.069 Y102.809
G1 F1800 X89.689 Y143.429 E201.34393
G0 F3600 X90.255 Y143.429
G1 F1800 X49.069 Y102.244 E204.24979
G0 F3600 X49.069 Y101.678
G1 F1800 X90.82 Y143.429 E207.19555
G0 F3600 X91.386 Y143.429
G1 F1800 X49.069 Y101.112 E210.18124
G0 F3600 X49.069 Y100.547
G1 F1800 X91.952 Y143.429 E213.20683
G0 F3600 X92.517 Y143.429
G1 F1800 X49.069 Y99.981 E216.27232
G0 F3600 X49.069 Y99.415
G1 F1800 X93.083 Y143.429 E219.37775
G0 F3600 X93.649 Y143.429
G1 F1800 X49.069 Y98.849 E222.52311
G0 F3600 X49.069 Y98.284
G1 F1800 X94.214 Y143.429 E225.70833
G0 F3600 X94.78 Y143.429
G1 F1800 X49.069 Y97.718 E228.93349
G0 F3600 X49.069 Y97.152
G1 F1800 X95.346 Y143.429 E232.19858
G0 F3600 X95.911 Y143.429
G1 F1800 X49.069 Y96.587 E235.50354
G0 F3600 X49.069 Y96.021
G1 F1800 X96.477 Y143.429 E238.84843
G0 F3600 X97.043 Y143.429
G1 F1800 X49.069 Y95.455 E242.23325
G0 F3600 X49.069 Y94.89
G1 F1800 X97.609 Y143.429 E245.65798
G0 F3600 X98.174 Y143.429
G1 F1800 X49.069 Y94.324 E249.1226
G0 F3600 X49.069 Y93.758
G1 F1800 X98.74 Y143.429 E252.62716
G0 F3600 X99.306 Y143.429
G1 F1800 X49.069 Y93.193 E256.17161
G0 F3600 X49.069 Y92.627
G1 F1800 X99.871 Y143.429 E259.75597
G0 F3600 X100.437 Y143.429
G1 F1800 X49.069 Y92.061 E263.38026
G0 F3600 X49.069 Y91.496
G1 F1800 X101.003 Y143.429 E267.04445
G0 F3600 X101.568 Y143.429
G1 F1800 X49.069 Y90.93 E270.74854
G0 F3600 X49.069 Y90.364
G1 F1800 X102.134 Y143.429 E274.49256
G0 F3600 X102.7 Y143.429
G1 F1800 X49.069 Y89.799 E278.27648
G0 F3600 X49.069 Y89.233
G1 F1800 X103.265 Y143.429 E282.1003
G0 F3600 X103.831 Y143.429
G1 F1800 X49.069 Y88.667 E285.96405
G0 F3600 X49.069 Y88.101
G1 F1800 X104.397 Y143.429 E289.86774
G0 F3600 X104.962 Y143.429
G1 F1800 X49.069 Y87.536 E293.8113
G0 F3600 X49.069 Y86.97
G1 F1800 X105.528 Y143.429 E297.79478
G0 F3600 X106.094 Y143.429
G1 F1800 X49.069 Y86.404 E301.81821
G0 F3600 X49.069 Y85.839
G1 F1800 X106.659 Y143.429 E305.88149
G0 F3600 X107.225 Y143.429
G1 F1800 X49.069 Y85.273 E309.98471
G0 F3600 X49.069 Y84.707
G1 F1800 X107.791 Y143.429 E314.12787
G0 F3600 X108.357 Y143.429
G1 F1800 X49.069 Y84.142 E318.31092
G0 F3600 X49.069 Y83.576
G1 F1800 X108.922 Y143.429 E322.53387
G0 F3600 X109.488 Y143.429
G1 F1800 X49.069 Y83.01 E326.79676
G0 F3600 X49.069 Y82.445
G1 F1800 X110.054 Y143.429 E331.09954
G0 F3600 X110.619 Y143.429
G1 F1800 X49.069 Y81.879 E335.44223
G0 F3600 X49.069 Y81.313
G1 F1800 X111.185 Y143.429 E339.82485
G0 F3600 X111.751 Y143.429
G1 F1800 X49.069 Y80.748 E344.24737
G0 F3600 X49.069 Y80.182
G1 F1800 X112.316 Y143.429 E348.70978
G0 F3600 X112.882 Y143.429
G1 F1800 X49.069 Y79.616 E353.21214
G0 F3600 X49.069 Y79.051
G1 F1800 X113.448 Y143.429 E357.75439
G0 F3600 X114.013 Y143.429
G1 F1800 X49.069 Y78.485 E362.33654
G0 F3600 X49.069 Y77.919
G1 F1800 X114.579 Y143.429 E366.95862
G0 F3600 X115.145 Y143.429
G1 F1800 X49.069 Y77.353 E371.62064
G0 F3600 X49.069 Y76.788
G1 F1800 X115.71 Y143.429 E376.32252
G0 F3600 X116.276 Y143.429
G1 F1800 X49.069 Y76.222 E381.06434
G0 F3600 X49.069 Y75.656
G1 F1800 X116.842 Y143.429 E385.84609
G0 F3600 X117.408 Y143.429
G1 F1800 X49.069 Y75.091 E390.66774
G0 F3600 X49.069 Y74.525
G1 F1800 X117.973 Y143.429 E395.52929
G0 F3600 X118.539 Y143.429
G1 F1800 X49.069 Y73.959 E400.43077
G0 F3600 X49.069 Y73.394
G1 F1800 X119.105 Y143.429 E405.37216
G0 F3600 X119.67 Y143.429
G1 F1800 X49.069 Y72.828 E410.35344
G0 F3600 X49.069 Y72.262
G1 F1800 X120.236 Y143.429 E415.37466
G0 F3600 X120.802 Y143.429
G1 F1800 X49.069 Y71.697 E420.43577
G0 F3600 X49.069 Y71.131
G1 F1800 X121.367 Y143.429 E425.53678
G0 F3600 X121.933 Y143.429
G1 F1800 X49.069 Y70.565 E430.67773
G0 F3600 X49.069 Y70
G1 F1800 X122.499 Y143.429 E435.85858
G0 F3600 X123.064 Y143.429
G1 F1800 X49.069 Y69.434 E441.07933
G0 F3600 X49.069 Y68.868
G1 F1800 X123.63 Y143.429 E446.34001
G0 F3600 X124.196 Y143.429
G1 F1800 X49.069 Y68.302 E451.64063
G0 F3600 X49.069 Y67.737
G1 F1800 X124.761 Y143.429 E456.9811
G0 F3600 X125.327 Y143.429
G1 F1800 X49.069 Y67.171 E462.36152
G0 F3600 X49.069 Y66.605
G1 F1800 X125.893 Y143.429 E467.78187
G0 F3600 X126.458 Y143.429
G1 F1800 X49.069 Y66.04 E473.24208
G0 F3600 X49.069 Y65.474
G1 F1800 X127.024 Y143.429 E478.74222
G0 F3600 X127.59 Y143.429
G1 F1800 X49.069 Y64.908 E484.28231
G0 F3600 X49.069 Y64.343
G1 F1800 X128.156 Y143.429 E489.86229
G0 F3600 X128.721 Y143.429
G1 F1800 X49.069 Y63.777 E495.48216
G0 F3600 X49.069 Y63.211
G1 F1800 X129.287 Y143.429 E501.14198
G0 F3600 X129.853 Y143.429
G1 F1800 X49.069 Y62.646 E506.84169
G0 F3600 X49.069 Y62.08
G1 F1800 X130.418 Y143.429 E512.5813
G0 F3600 X130.984 Y143.429
G1 F1800 X49.069 Y61.514 E518.36085
G0 F3600 X49.069 Y60.949
G1 F1800 X131.55 Y143.429 E524.18029
G0 F3600 X132.115 Y143.429
G1 F1800 X49.069 Y60.383 E530.03963
G0 F3600 X49.069 Y59.817
G1 F1800 X132.681 Y143.429 E535.93891
G0 F3600 X133.247 Y143.429
G1 F1800 X49.069 Y59.252 E541.87809
G0 F3600 X49.069 Y58.686
G1 F1800 X133.812 Y143.429 E547.85717
G0 F3600 X134.378 Y143.429
G1 F1800 X49.069 Y58.12 E553.87618
G0 F3600 X49.069 Y57.554
G1 F1800 X134.944 Y143.429 E559.93512
G0 F3600 X135.509 Y143.429
G1 F1800 X49.069 Y56.989 E566.03393
G0 F3600 X49.216 Y56.569
G1 F1800 X136.075 Y143.429 E572.16234
G0 F3600 X136.641 Y143.429
G1 F1800 X49.781 Y56.569 E578.29078
G0 F3600 X50.347 Y56.569
G1 F1800 X137.206 Y143.429 E584.41919
G0 F3600 X137.772 Y143.429
G1 F1800 X50.913 Y56.569 E590.54759
G0 F3600 X51.478 Y56.569
G1 F1800 X138.338 Y143.429 E596.67604
G0 F3600 X138.904 Y143.429
G1 F1800 X52.044 Y56.569 E602.80448
G0 F3600 X52.61 Y56.569
G1 F1800 X139.469 Y143.429 E608.93289
G0 F3600 X140.035 Y143.429
G1 F1800 X53.175 Y56.569 E615.06133
G0 F3600 X53.741 Y56.569
G1 F1800 X140.601 Y143.429 E621.18977
G0 F3600 X141.166 Y143.429
G1 F1800 X54.307 Y56.569 E627.31818
G0 F3600 X54.872 Y56.569
G1 F1800 X141.732 Y143.429 E633.44662
G0 F3600 X142.298 Y143.429
G1 F1800 X55.438 Y56.569 E639.57506
G0 F3600 X56.004 Y56.569
G1 F1800 X142.863 Y143.429 E645.70347
G0 F3600 X143.429 Y143.429
G1 F1800 X56.569 Y56.569 E651.83191
G0 F3600 X57.135 Y56.569
G1 F1800 X143.995 Y143.429 E657.96035
G0 F3600 X144.56 Y143.429
G1 F1800 X57.701 Y56.569 E664.08876
G0 F3600 X58.267 Y56.569
G1 F1800 X145.126 Y143.429 E670.21717
G0 F3600 X145.692 Y143.429
G1 F1800 X58.832 Y56.569 E676.34561
G0 F3600 X59.398 Y56.569
G1 F1800 X146.257 Y143.429 E682.47401
G0 F3600 X146.823 Y143.429
G1 F1800 X59.964 Y56.569 E688.60242
G0 F3600 X60.529 Y56.569
G1 F1800 X147.389 Y143.429 E694.73086
G0 F3600 X147.955 Y143.429
G1 F1800 X61.095 Y56.569 E700.85931
G0 F3600 X61.661 Y56.569
G1 F1800 X148.52 Y143.429 E706.98771
G0 F3600 X149.086 Y143.429
G1 F1800 X62.226 Y56.569 E713.11615
G0 F3600 X62.792 Y56.569
G1 F1800 X149.652 Y143.429 E719.2446
G0 F3600 X150.217 Y143.429
G1 F1800 X63.358 Y56.569 E725.373
G0 F3600 X63.923 Y56.569
G1 F1800 X150.783 Y143.429 E731.50145
G0 F3600 X150.929 Y143.009
G1 F1800 X64.489 Y56.569 E737.60025
G0 F3600 X65.055 Y56.569
G1 F1800 X150.929 Y142.443 E743.65913
G0 F3600 X150.929 Y141.878
G1 F1800 X65.62 Y56.569 E749.67814
G0 F3600 X66.186 Y56.569
G1 F1800 X150.929 Y141.312 E755.65722
G0 F3600 X150.929 Y140.746
G1 F1800 X66.752 Y56.569 E761.59636
G0 F3600 X67.317 Y56.569
G1 F1800 X150.929 Y140.181 E767.49564
G0 F3600 X150.929 Y139.615
G1 F1800 X67.883 Y56.569 E773.35498
G0 F3600 X68.449 Y56.569
G1 F1800 X150.929 Y139.049 E779.17439
G0 F3600 X150.929 Y138.484
G1 F1800 X69.015 Y56.569 E784.9539
G0 F3600 X69.58 Y56.569
G1 F1800 X150.929 Y137.918 E790.69351
G0 F3600 X150.929 Y137.352
G1 F1800 X70.146 Y56.569 E796.39319
G0 F3600 X70.712 Y56.569
G1 F1800 X150.929 Y136.786 E802.05293
G0 F3600 X150.929 Y136.221
G1 F1800 X71.277 Y56.569 E807.67281
G0 F3600 X71.843 Y56.569
G1 F1800 X150.929 Y135.655 E813.25275
G0 F3600 X150.929 Y135.089
G1 F1800 X72.409 Y56.569 E818.79276
G0 F3600 X72.974 Y56.569
G1 F1800 X150.929 Y134.524 E824.29291
G0 F3600 X150.929 Y133.958
G1 F1800 X73.54 Y56.569 E829.75312
G0 F3600 X74.106 Y56.569
G1 F1800 X150.929 Y133.392 E835.1734
G0 F3600 X150.929 Y132.827
G1 F1800 X74.671 Y56.569 E840.55381
G0 F3600 X75.237 Y56.569
G1 F1800 X150.929 Y132.261 E845.89429
G0 F3600 X150.929 Y131.695
G1 F1800 X75.803 Y56.569 E851.19484
G0 F3600 X76.368 Y56.569
G1 F1800 X150.929 Y131.13 E856.45552
G0 F3600 X150.929 Y130.564
G1 F1800 X76.934 Y56.569 E861.67627
G0 F3600 X77.5 Y56.569
G1 F1800 X150.929 Y129.998 E866.85708
G0 F3600 X150.929 Y129.433
G1 F1800 X78.066 Y56.569 E871.99799
G0 F3600 X78.631 Y56.569
G1 F1800 X150.929 Y128.867 E877.09901
G0 F3600 X150.929 Y128.301
