;FLAVOR:Marlin
;TIME:21915
;Filament used: 26.7772m
;Layer height: 0.2
;MINX:39.7
;MINY:47.2
;MINZ:0.3
;MAXX:160.3
;MAXY:152.8
;MAXZ:44.9
;Generated with Cura_SteamEngine 4.1.0
M140 S60
M105
M190 S60
M104 S190
M105
M109 S190
M82 ;absolute extrusion mode
G21 ;metric values
G90 ;absolute positioning
M82 ;set extruder to absolute mode
M107 ;start with the fan off
G28 X0 Y0 ;move X/Y to min endstops
G28 Z0 ;move Z to min endstops
G1 Z15.0 F9000 ;move the platform down 15mm
G92 E0 ;zero the extruded length
G1 F200 E3 ;extrude 3mm of feed stock
G92 E0 ;zero the extruded length again
G1 F9000
;Put printing message on LCD screen
M117 Printing...
G92 E0
G92 E0
G1 F1500 E-6.5
;LAYER_COUNT:224
;LAYER:0
M107
G0 F3600 X42.688 Y48.955 Z0.3
;TYPE:SKIRT
G1 F1500 E0
G1 F1800 X43.324 Y48.488 E0.03937
G1 X44.004 Y48.087 E0.07875
G1 X44.722 Y47.757 E0.11817
G1 X45.469 Y47.502 E0.15755
G1 X46.238 Y47.323 E0.19694
G1 X47.022 Y47.223 E0.23638
G1 X47.617 Y47.2 E0.26608
G1 X152.383 Y47.2 E5.49288
G1 X153.172 Y47.24 E5.53229
G1 X153.952 Y47.359 E5.57166
G1 X154.717 Y47.557 E5.61108
G1 X155.457 Y47.831 E5.65045
G1 X156.166 Y48.179 E5.68985
G1 X156.837 Y48.597 E5.72929
G1 X157.461 Y49.08 E5.76866
G1 X158.034 Y49.623 E5.80805
G1 X158.549 Y50.222 E5.84746
G1 X159 Y50.87 E5.88684
G1 X159.384 Y51.561 E5.92628
G1 X159.696 Y52.286 E5.96566
G1 X159.933 Y53.039 E6.00505
G1 X160.092 Y53.813 E6.04447
G1 X160.183 Y54.99 E6.10336
G1 X160.3 Y144.873 E10.58765
G1 X160.261 Y145.662 E10.62706
G1 X160.143 Y146.442 E10.66642
G1 X159.946 Y147.207 E10.70583
G1 X159.673 Y147.948 E10.74523
G1 X159.326 Y148.658 E10.78465
G1 X158.909 Y149.328 E10.82402
G1 X158.427 Y149.954 E10.86344
G1 X158.015 Y150.398 E10.89366
G1 X157.898 Y150.515 E10.90191
G1 X157.312 Y151.045 E10.94133
G1 X156.676 Y151.512 E10.9807
G1 X155.996 Y151.913 E11.02008
G1 X155.278 Y152.243 E11.05951
G1 X154.531 Y152.498 E11.09889
G1 X153.762 Y152.677 E11.13828
G1 X152.978 Y152.777 E11.17771
G1 X152.383 Y152.8 E11.20742
G1 X47.617 Y152.8 E16.43421
G1 X46.828 Y152.76 E16.47363
G1 X46.048 Y152.641 E16.51299
G1 X45.283 Y152.443 E16.55241
G1 X44.543 Y152.169 E16.59178
G1 X43.834 Y151.821 E16.63119
G1 X43.163 Y151.403 E16.67063
G1 X42.539 Y150.92 E16.70999
G1 X42.102 Y150.515 E16.73972
G1 X41.985 Y150.398 E16.74798
G1 X41.455 Y149.812 E16.78739
G1 X40.988 Y149.176 E16.82676
G1 X40.587 Y148.496 E16.86614
G1 X40.257 Y147.778 E16.90557
G1 X40.002 Y147.031 E16.94495
G1 X39.823 Y146.262 E16.98434
G1 X39.723 Y145.478 E17.02377
G1 X39.7 Y144.883 E17.05348
G1 X39.7 Y55.117 E21.53192
G1 X39.74 Y54.328 E21.57133
G1 X39.859 Y53.548 E21.6107
G1 X40.057 Y52.783 E21.65012
G1 X40.331 Y52.043 E21.68949
G1 X40.679 Y51.334 E21.72889
G1 X41.097 Y50.663 E21.76834
G1 X41.58 Y50.039 E21.8077
G1 X41.985 Y49.602 E21.83743
G1 X42.102 Y49.485 E21.84568
G1 X42.688 Y48.955 E21.8851
G0 F3600 X42.956 Y49.253
G1 F1800 X43.578 Y48.8 E21.92349
G1 X44.243 Y48.414 E21.96185
G1 X44.945 Y48.099 E22.00024
G1 X45.676 Y47.859 E22.03863
G1 X46.427 Y47.696 E22.07697
G1 X47.192 Y47.612 E22.11536
G1 X47.617 Y47.6 E22.13657
G1 X152.383 Y47.6 E27.36337
G1 X153.151 Y47.64 E27.40174
G1 X153.911 Y47.759 E27.44012
G1 X154.654 Y47.957 E27.47848
G1 X155.373 Y48.231 E27.51686
G1 X156.059 Y48.578 E27.55522
G1 X156.706 Y48.994 E27.59359
G1 X157.306 Y49.475 E27.63196
G1 X157.853 Y50.016 E27.67034
G1 X158.341 Y50.611 E27.70873
G1 X158.764 Y51.253 E27.74709
G1 X159.119 Y51.936 E27.78549
G1 X159.4 Y52.651 E27.82382
G1 X159.606 Y53.393 E27.86224
G1 X159.734 Y54.151 E27.90059
G1 X159.783 Y54.99 E27.94252
G1 X159.9 Y144.873 E32.42681
G1 X159.861 Y145.642 E32.46522
G1 X159.743 Y146.402 E32.50359
G1 X159.546 Y147.145 E32.54194
G1 X159.273 Y147.864 E32.58031
G1 X158.927 Y148.551 E32.61869
G1 X158.511 Y149.198 E32.65706
G1 X158.031 Y149.799 E32.69544
G1 X157.733 Y150.116 E32.71714
G1 X157.616 Y150.233 E32.7254
G1 X157.044 Y150.747 E32.76376
G1 X156.422 Y151.2 E32.80215
G1 X155.757 Y151.586 E32.84051
G1 X155.055 Y151.901 E32.8789
G1 X154.324 Y152.141 E32.91729
G1 X153.573 Y152.304 E32.95563
G1 X152.808 Y152.388 E32.99402
G1 X152.383 Y152.4 E33.01523
G1 X47.617 Y152.4 E38.24203
G1 X46.849 Y152.36 E38.2804
G1 X46.089 Y152.241 E38.31878
G1 X45.346 Y152.043 E38.35714
G1 X44.627 Y151.769 E38.39553
G1 X43.941 Y151.422 E38.43388
G1 X43.294 Y151.006 E38.47226
G1 X42.694 Y150.525 E38.51062
G1 X42.384 Y150.233 E38.53187
G1 X42.267 Y150.116 E38.54012
G1 X41.753 Y149.544 E38.57849
G1 X41.3 Y148.922 E38.61688
G1 X40.914 Y148.257 E38.65524
G1 X40.599 Y147.555 E38.69363
G1 X40.359 Y146.824 E38.73201
G1 X40.196 Y146.073 E38.77035
G1 X40.112 Y145.308 E38.80875
G1 X40.1 Y144.883 E38.82996
G1 X40.1 Y55.117 E43.3084
G1 X40.14 Y54.349 E43.34677
G1 X40.259 Y53.589 E43.38515
G1 X40.457 Y52.846 E43.42351
G1 X40.731 Y52.127 E43.4619
G1 X41.078 Y51.441 E43.50025
G1 X41.494 Y50.794 E43.53863
G1 X41.975 Y50.194 E43.57699
G1 X42.267 Y49.884 E43.59824
G1 X42.384 Y49.767 E43.60649
G1 X42.956 Y49.253 E43.64486
G0 F3600 X43.224 Y49.55
G1 F1800 X43.83 Y49.113 E43.68214
G1 X44.48 Y48.742 E43.71947
G1 X45.166 Y48.443 E43.75681
G1 X45.88 Y48.219 E43.79414
G1 X46.613 Y48.072 E43.83144
G1 X47.617 Y48 E43.88166
G1 X152.383 Y48 E49.10846
G1 X153.13 Y48.04 E49.14578
G1 X153.868 Y48.159 E49.18307
G1 X154.59 Y48.357 E49.22042
G1 X155.286 Y48.63 E49.25772
G1 X155.949 Y48.977 E49.29505
G1 X156.572 Y49.392 E49.3324
G1 X157.146 Y49.871 E49.3697
G1 X157.667 Y50.408 E49.40703
G1 X158.126 Y50.998 E49.44432
G1 X158.521 Y51.634 E49.48167
G1 X158.845 Y52.308 E49.51898
G1 X159.095 Y53.013 E49.5563
G1 X159.269 Y53.741 E49.59364
G1 X159.364 Y54.483 E49.63096
G1 X159.383 Y54.991 E49.65633
G1 X159.5 Y144.874 E54.14061
G1 X159.461 Y145.621 E54.17793
G1 X159.342 Y146.36 E54.21527
G1 X159.146 Y147.081 E54.25255
G1 X158.873 Y147.778 E54.2899
G1 X158.528 Y148.442 E54.32723
G1 X158.114 Y149.065 E54.36455
G1 X157.45 Y149.833 E54.4152
G1 X157.333 Y149.95 E54.42345
G1 X156.776 Y150.45 E54.46079
G1 X156.17 Y150.887 E54.49807
G1 X155.52 Y151.258 E54.53541
G1 X154.834 Y151.557 E54.57274
G1 X154.12 Y151.781 E54.61008
G1 X153.387 Y151.928 E54.64737
G1 X152.383 Y152 E54.69759
G1 X47.617 Y152 E59.92439
G1 X46.87 Y151.96 E59.96171
G1 X46.132 Y151.841 E59.99901
G1 X45.41 Y151.643 E60.03636
G1 X44.714 Y151.37 E60.07366
G1 X44.051 Y151.023 E60.11099
G1 X43.428 Y150.608 E60.14833
G1 X42.667 Y149.95 E60.19853
G1 X42.55 Y149.833 E60.20678
G1 X42.05 Y149.276 E60.24412
G1 X41.613 Y148.67 E60.2814
G1 X41.242 Y148.02 E60.31874
G1 X40.943 Y147.334 E60.35607
G1 X40.719 Y146.62 E60.3934
G1 X40.572 Y145.887 E60.4307
G1 X40.5 Y144.883 E60.48092
G1 X40.5 Y55.117 E64.95936
G1 X40.54 Y54.37 E64.99669
G1 X40.659 Y53.632 E65.03398
G1 X40.857 Y52.91 E65.07133
G1 X41.13 Y52.214 E65.10863
G1 X41.477 Y51.551 E65.14596
G1 X41.892 Y50.928 E65.18331
G1 X42.55 Y50.167 E65.2335
G1 X42.667 Y50.05 E65.24176
G1 X43.224 Y49.55 E65.2791
G0 F3600 X43.491 Y49.849
G1 F1800 X44.082 Y49.426 E65.31536
G1 X44.716 Y49.072 E65.35159
G1 X45.385 Y48.789 E65.38783
G1 X46.081 Y48.581 E65.42407
G1 X46.796 Y48.451 E65.46032
G1 X47.617 Y48.4 E65.50136
G1 X152.383 Y48.4 E70.72816
G1 X153.108 Y48.44 E70.76438
G1 X153.825 Y48.559 E70.80064
G1 X154.524 Y48.757 E70.83689
G1 X155.197 Y49.03 E70.87312
G1 X155.836 Y49.375 E70.90935
G1 X156.433 Y49.789 E70.9456
G1 X156.981 Y50.265 E70.98181
G1 X157.474 Y50.799 E71.01807
G1 X157.904 Y51.384 E71.05429
G1 X158.268 Y52.013 E71.09055
G1 X158.561 Y52.678 E71.1268
G1 X158.779 Y53.371 E71.16305
G1 X158.919 Y54.083 E71.19925
G1 X158.983 Y54.991 E71.24466
G1 X159.1 Y144.874 E75.72895
G1 X159.061 Y145.6 E75.76522
G1 X158.942 Y146.316 E75.80143
G1 X158.746 Y147.016 E75.8377
G1 X158.474 Y147.689 E75.87391
G1 X158.129 Y148.329 E75.91019
G1 X157.717 Y148.926 E75.94637
G1 X157.167 Y149.55 E75.98787
G1 X157.05 Y149.667 E75.99613
G1 X156.509 Y150.151 E76.03234
G1 X155.918 Y150.574 E76.0686
G1 X155.284 Y150.928 E76.10483
G1 X154.615 Y151.211 E76.14107
G1 X153.919 Y151.419 E76.17731
G1 X153.204 Y151.549 E76.21357
G1 X152.383 Y151.6 E76.25461
G1 X47.617 Y151.6 E81.4814
G1 X46.892 Y151.56 E81.51763
G1 X46.175 Y151.441 E81.55389
G1 X45.476 Y151.243 E81.59013
G1 X44.803 Y150.97 E81.62637
G1 X44.164 Y150.625 E81.6626
G1 X43.567 Y150.211 E81.69884
G1 X42.95 Y149.667 E81.73988
G1 X42.833 Y149.55 E81.74814
G1 X42.349 Y149.009 E81.78435
G1 X41.926 Y148.418 E81.82061
G1 X41.572 Y147.784 E81.85684
G1 X41.289 Y147.115 E81.89308
G1 X41.081 Y146.419 E81.92932
G1 X40.951 Y145.704 E81.96557
G1 X40.9 Y144.883 E82.00661
G1 X40.9 Y55.117 E86.48506
G1 X40.94 Y54.392 E86.52128
G1 X41.059 Y53.675 E86.55754
G1 X41.257 Y52.976 E86.59379
G1 X41.53 Y52.303 E86.63002
G1 X41.875 Y51.664 E86.66625
G1 X42.289 Y51.067 E86.7025
G1 X42.833 Y50.45 E86.74354
G1 X42.95 Y50.333 E86.75179
G1 X43.491 Y49.849 E86.78801
G0 F3600 X43.758 Y50.147
G1 F1800 X44.333 Y49.741 E86.82312
G1 X44.951 Y49.403 E86.85827
G1 X45.602 Y49.136 E86.89337
G1 X46.28 Y48.946 E86.9285
G1 X46.975 Y48.833 E86.96363
G1 X47.617 Y48.8 E86.9957
G1 X152.383 Y48.8 E92.2225
G1 X153.086 Y48.84 E92.25763
G1 X153.78 Y48.959 E92.29275
G1 X154.455 Y49.157 E92.32785
G1 X155.104 Y49.429 E92.36296
G1 X155.718 Y49.774 E92.39809
G1 X156.289 Y50.185 E92.43319
G1 X156.81 Y50.659 E92.46833
G1 X157.274 Y51.189 E92.50348
G1 X157.674 Y51.768 E92.53859
G1 X158.006 Y52.389 E92.57372
G1 X158.266 Y53.043 E92.60883
G1 X158.45 Y53.723 E92.64398
G1 X158.556 Y54.419 E92.6791
G1 X158.583 Y54.992 E92.70772
G1 X158.7 Y144.875 E97.192
G1 X158.661 Y145.578 E97.22713
G1 X158.542 Y146.272 E97.26226
G1 X158.346 Y146.948 E97.29737
G1 X158.074 Y147.597 E97.33248
G1 X157.731 Y148.212 E97.36761
G1 X157.32 Y148.783 E97.40271
G1 X156.884 Y149.267 E97.43521
G1 X156.767 Y149.384 E97.44347
G1 X156.242 Y149.853 E97.47859
G1 X155.667 Y150.259 E97.51371
G1 X155.049 Y150.597 E97.54885
G1 X154.398 Y150.864 E97.58395
G1 X153.72 Y151.054 E97.61908
G1 X153.025 Y151.167 E97.65421
G1 X152.383 Y151.2 E97.68628
G1 X47.617 Y151.2 E102.91308
G1 X46.914 Y151.16 E102.94821
G1 X46.22 Y151.041 E102.98334
G1 X45.545 Y150.843 E103.01843
G1 X44.896 Y150.571 E103.05354
G1 X44.282 Y150.226 E103.08868
G1 X43.711 Y149.815 E103.12378
G1 X43.233 Y149.384 E103.15589
G1 X43.116 Y149.267 E103.16414
G1 X42.647 Y148.742 E103.19926
G1 X42.241 Y148.167 E103.23438
G1 X41.903 Y147.549 E103.26952
G1 X41.636 Y146.898 E103.30463
G1 X41.446 Y146.22 E103.33976
G1 X41.333 Y145.525 E103.37488
G1 X41.3 Y144.883 E103.40696
G1 X41.3 Y55.117 E107.8854
G1 X41.34 Y54.414 E107.92053
G1 X41.459 Y53.72 E107.95566
G1 X41.657 Y53.045 E107.99075
G1 X41.929 Y52.396 E108.02586
G1 X42.274 Y51.782 E108.061
G1 X42.685 Y51.211 E108.0961
G1 X43.116 Y50.733 E108.12821
G1 X43.233 Y50.616 E108.13646
G1 X43.758 Y50.147 E108.17158
G0 F3600 X44.025 Y50.446
G1 F1800 X44.583 Y50.057 E108.20552
G1 X45.183 Y49.735 E108.23949
G1 X45.817 Y49.486 E108.27347
G1 X46.476 Y49.313 E108.30747
G1 X47.15 Y49.219 E108.34142
G1 X47.617 Y49.2 E108.36474
G1 X152.383 Y49.2 E113.59153
G1 X153.063 Y49.24 E113.62552
G1 X153.733 Y49.359 E113.65947
G1 X154.385 Y49.556 E113.69345
G1 X155.009 Y49.828 E113.72741
G1 X155.597 Y50.172 E113.76139
G1 X156.141 Y50.582 E113.79538
G1 X156.632 Y51.053 E113.82932
G1 X157.066 Y51.578 E113.86331
G1 X157.435 Y52.15 E113.89727
G1 X157.734 Y52.762 E113.93125
G1 X157.959 Y53.404 E113.96519
G1 X158.108 Y54.069 E113.99919
G1 X158.183 Y54.992 E114.04539
G1 X158.3 Y144.875 E118.52967
G1 X158.261 Y145.555 E118.56366
G1 X158.142 Y146.226 E118.59765
G1 X157.946 Y146.878 E118.63162
G1 X157.675 Y147.502 E118.66556
G1 X157.332 Y148.091 E118.69957
G1 X156.923 Y148.635 E118.73352
G1 X156.601 Y148.984 E118.75721
G1 X156.484 Y149.101 E118.76547
G1 X155.975 Y149.554 E118.79946
G1 X155.417 Y149.943 E118.8334
G1 X154.817 Y150.265 E118.86737
G1 X154.183 Y150.514 E118.90135
G1 X153.524 Y150.687 E118.93534
G1 X152.85 Y150.781 E118.96929
G1 X152.383 Y150.8 E118.99261
G1 X47.617 Y150.8 E124.21941
G1 X46.937 Y150.76 E124.25339
G1 X46.267 Y150.641 E124.28734
G1 X45.615 Y150.444 E124.32132
G1 X44.991 Y150.172 E124.35528
G1 X44.403 Y149.828 E124.38927
G1 X43.859 Y149.418 E124.42326
G1 X43.516 Y149.101 E124.44656
G1 X43.399 Y148.984 E124.45481
G1 X42.946 Y148.475 E124.48881
G1 X42.557 Y147.917 E124.52274
G1 X42.235 Y147.317 E124.55672
G1 X41.986 Y146.683 E124.5907
G1 X41.813 Y146.024 E124.62469
G1 X41.719 Y145.35 E124.65864
G1 X41.7 Y144.883 E124.68196
G1 X41.7 Y55.117 E129.1604
G1 X41.74 Y54.437 E129.19439
G1 X41.859 Y53.767 E129.22834
G1 X42.056 Y53.115 E129.26232
G1 X42.328 Y52.491 E129.29628
G1 X42.672 Y51.903 E129.33027
G1 X43.082 Y51.359 E129.36425
G1 X43.399 Y51.016 E129.38755
G1 X43.516 Y50.899 E129.39581
G1 X44.025 Y50.446 E129.4298
G0 F3600 X44.291 Y50.746
G1 F1800 X44.832 Y50.374 E129.46256
G1 X45.414 Y50.07 E129.49532
G1 X46.029 Y49.839 E129.52809
G1 X46.668 Y49.684 E129.5609
G1 X47.617 Y49.6 E129.60843
G1 X152.383 Y49.6 E134.83522
G1 X153.039 Y49.64 E134.86801
G1 X153.685 Y49.759 E134.90078
G1 X154.312 Y49.956 E134.93357
G1 X154.91 Y50.228 E134.96635
G1 X155.471 Y50.57 E134.99913
G1 X155.986 Y50.978 E135.03191
G1 X156.448 Y51.445 E135.06468
G1 X156.849 Y51.965 E135.09744
G1 X157.185 Y52.529 E135.13019
G1 X157.449 Y53.131 E135.16299
G1 X157.639 Y53.76 E135.19577
G1 X157.75 Y54.407 E135.22852
G1 X157.783 Y54.993 E135.2578
G1 X157.9 Y144.876 E139.74209
G1 X157.861 Y145.532 E139.77487
G1 X157.742 Y146.178 E139.80764
G1 X157.546 Y146.805 E139.84042
G1 X157.276 Y147.404 E139.8732
G1 X156.934 Y147.965 E139.90598
G1 X156.318 Y148.701 E139.95386
G1 X156.201 Y148.818 E139.96212
G1 X155.709 Y149.254 E139.99491
G1 X155.168 Y149.626 E140.02767
G1 X154.586 Y149.93 E140.06043
G1 X153.971 Y150.161 E140.0932
G1 X153.332 Y150.316 E140.12601
G1 X152.383 Y150.4 E140.17354
G1 X47.617 Y150.4 E145.40033
G1 X46.961 Y150.36 E145.43312
G1 X46.315 Y150.241 E145.46589
G1 X45.688 Y150.044 E145.49868
G1 X45.09 Y149.772 E145.53146
G1 X44.529 Y149.43 E145.56424
G1 X43.799 Y148.818 E145.61176
G1 X43.682 Y148.701 E145.62002
G1 X43.246 Y148.209 E145.65282
G1 X42.874 Y147.668 E145.68557
G1 X42.57 Y147.086 E145.71833
G1 X42.339 Y146.471 E145.75111
G1 X42.184 Y145.832 E145.78391
G1 X42.1 Y144.883 E145.83144
G1 X42.1 Y55.117 E150.30988
G1 X42.14 Y54.461 E150.34267
G1 X42.259 Y53.815 E150.37544
G1 X42.456 Y53.188 E150.40823
G1 X42.728 Y52.59 E150.44101
G1 X43.07 Y52.029 E150.47379
G1 X43.682 Y51.299 E150.52131
G1 X43.799 Y51.182 E150.52957
G1 X44.291 Y50.746 E150.56237
G0 F3600 X44.556 Y51.047
G1 F1800 X45.079 Y50.692 E150.5939
G1 X45.643 Y50.406 E150.62545
G1 X46.238 Y50.194 E150.65696
G1 X46.856 Y50.058 E150.68853
G1 X47.617 Y50 E150.72661
G1 X152.383 Y50 E155.95341
G1 X153.014 Y50.04 E155.98495
G1 X153.635 Y50.159 E156.0165
G1 X154.235 Y50.356 E156.048
G1 X154.807 Y50.627 E156.07958
G1 X155.339 Y50.967 E156.11108
G1 X155.824 Y51.373 E156.14264
G1 X156.254 Y51.836 E156.17416
G1 X156.623 Y52.35 E156.20573
G1 X156.923 Y52.906 E156.23725
G1 X157.151 Y53.495 E156.26876
G1 X157.303 Y54.109 E156.30031
G1 X157.383 Y54.993 E156.3446
G1 X157.5 Y144.876 E160.82888
G1 X157.461 Y145.507 E160.86042
G1 X157.342 Y146.128 E160.89197
G1 X157.147 Y146.729 E160.92349
G1 X156.876 Y147.301 E160.95507
G1 X156.536 Y147.834 E160.98661
G1 X156.036 Y148.419 E161.025
G1 X155.919 Y148.536 E161.03326
G1 X155.444 Y148.953 E161.06479
G1 X154.921 Y149.308 E161.09633
G1 X154.357 Y149.594 E161.12788
G1 X153.762 Y149.806 E161.15939
G1 X153.144 Y149.942 E161.19096
G1 X152.383 Y150 E161.22904
G1 X47.617 Y150 E166.45583
G1 X46.986 Y149.96 E166.48738
G1 X46.365 Y149.841 E166.51892
G1 X45.765 Y149.644 E166.55043
G1 X45.193 Y149.373 E166.58201
G1 X44.661 Y149.033 E166.61351
G1 X44.081 Y148.536 E166.65161
G1 X43.964 Y148.419 E166.65987
G1 X43.547 Y147.944 E166.6914
G1 X43.192 Y147.421 E166.72294
G1 X42.906 Y146.857 E166.75449
G1 X42.694 Y146.262 E166.786
G1 X42.558 Y145.644 E166.81757
G1 X42.5 Y144.883 E166.85565
G1 X42.5 Y55.117 E171.33409
G1 X42.54 Y54.486 E171.36563
G1 X42.659 Y53.865 E171.39718
G1 X42.856 Y53.265 E171.42869
G1 X43.127 Y52.693 E171.46026
G1 X43.467 Y52.161 E171.49176
G1 X43.964 Y51.581 E171.52987
G1 X44.081 Y51.464 E171.53812
G1 X44.556 Y51.047 E171.56966
G0 F3600 X44.82 Y51.348
