;FLAVOR:Marlin
;TIME:9838
;Filament used: 10.8468m
;Layer height: 0.2
;MINX:39.7
;MINY:51.042
;MINZ:0.3
;MAXX:160.3
;MAXY:148.959
;MAXZ:7.5
;Generated with Cura_SteamEngine 4.1.0
M140 S60
M105
M190 S60
M104 S200
M105
M109 S200
M82 ;absolute extrusion mode
G21 ;metric values
G90 ;absolute positioning
M82 ;set extruder to absolute mode
M107 ;start with the fan off
G28 X0 Y0 ;move X/Y to min endstops
G28 Z0 ;move Z to min endstops
G1 Z15.0 F9000 ;move the platform down 15mm
G92 E0 ;zero the extruded length
G1 F200 E3 ;extrude 3mm of feed stock
G92 E0 ;zero the extruded length again
G1 F9000
;Put printing message on LCD screen
M117 Printing...
G92 E0
G92 E0
G1 F1500 E-6.5
;LAYER_COUNT:37
;LAYER:0
M107
G0 F3600 X42.722 Y52.68 Z0.3
;TYPE:SKIRT
G1 F1500 E0
G1 F1800 X43.37 Y52.229 E0.03939
G1 X44.061 Y51.845 E0.07883
G1 X44.786 Y51.533 E0.11821
G1 X45.539 Y51.296 E0.15759
G1 X46.313 Y51.137 E0.19701
G1 X47.098 Y51.056 E0.23638
G1 X47.499 Y51.046 E0.25639
G1 X69.734 Y51.042 E1.3657
G1 X69.736 Y51.042 E1.3658
G1 X152.501 Y51.057 E5.49497
G1 X153.29 Y51.097 E5.53438
G1 X154.071 Y51.217 E5.5738
G1 X154.835 Y51.415 E5.61318
G1 X155.576 Y51.689 E5.65259
G1 X156.285 Y52.037 E5.692
G1 X156.955 Y52.454 E5.73137
G1 X157.579 Y52.938 E5.77077
G1 X158.152 Y53.482 E5.81018
G1 X158.666 Y54.081 E5.84956
G1 X159.118 Y54.729 E5.88898
G1 X159.501 Y55.419 E5.92835
G1 X159.813 Y56.144 E5.96773
G1 X160.05 Y56.898 E6.00716
G1 X160.209 Y57.671 E6.04653
G1 X160.29 Y58.457 E6.08595
G1 X160.3 Y58.857 E6.10592
G1 X160.3 Y141.143 E10.21118
G1 X160.26 Y141.932 E10.2506
G1 X160.141 Y142.712 E10.28996
G1 X159.943 Y143.477 E10.32938
G1 X159.669 Y144.217 E10.36875
G1 X159.321 Y144.926 E10.40816
G1 X158.903 Y145.597 E10.4476
G1 X158.42 Y146.221 E10.48696
G1 X157.877 Y146.794 E10.52635
G1 X157.278 Y147.309 E10.56576
G1 X156.63 Y147.76 E10.60515
G1 X155.939 Y148.144 E10.64459
G1 X155.214 Y148.456 E10.68396
G1 X154.461 Y148.693 E10.72335
G1 X153.687 Y148.852 E10.76277
G1 X152.902 Y148.933 E10.80214
G1 X152.502 Y148.943 E10.8221
G1 X69.738 Y148.959 E14.95122
G1 X69.734 Y148.959 E14.95142
G1 X47.498 Y148.953 E16.06077
G1 X46.709 Y148.913 E16.10019
G1 X45.929 Y148.793 E16.13956
G1 X45.164 Y148.595 E16.17898
G1 X44.424 Y148.321 E16.21835
G1 X43.715 Y147.973 E16.25776
G1 X43.045 Y147.555 E16.29715
G1 X42.42 Y147.072 E16.33656
G1 X41.848 Y146.528 E16.37594
G1 X41.333 Y145.929 E16.41535
G1 X40.882 Y145.281 E16.45474
G1 X40.498 Y144.591 E16.49414
G1 X40.187 Y143.865 E16.53354
G1 X39.95 Y143.112 E16.57293
G1 X39.791 Y142.338 E16.61235
G1 X39.71 Y141.553 E16.65172
G1 X39.7 Y141.153 E16.67168
G1 X39.7 Y140 E16.72921
G1 X39.74 Y139.211 E16.76862
G1 X39.859 Y138.431 E16.80798
G1 X40.057 Y137.666 E16.84741
G1 X40.331 Y136.926 E16.88678
G1 X40.679 Y136.217 E16.92618
G1 X41.097 Y135.546 E16.96562
G1 X41.58 Y134.922 E17.00499
G1 X42.123 Y134.349 E17.04437
G1 X42.722 Y133.834 E17.08378
G1 X43.37 Y133.383 E17.12317
G1 X44.061 Y132.999 E17.16261
G1 X44.786 Y132.687 E17.20199
G1 X45.539 Y132.45 E17.24137
G1 X46.313 Y132.291 E17.28079
G1 X47.098 Y132.21 E17.32017
G1 X47.5 Y132.2 E17.34023
G1 X59.7 Y132.2 E17.94889
G1 X59.7 Y67.8 E21.16182
G1 X47.5 Y67.8 E21.77048
G1 X46.711 Y67.76 E21.80989
G1 X45.931 Y67.641 E21.84926
G1 X45.166 Y67.443 E21.88868
G1 X44.426 Y67.169 E21.92805
G1 X43.717 Y66.821 E21.96745
G1 X43.046 Y66.403 E22.00689
G1 X42.422 Y65.92 E22.04626
G1 X41.849 Y65.377 E22.08564
G1 X41.334 Y64.778 E22.12506
G1 X40.883 Y64.13 E22.16444
G1 X40.499 Y63.439 E22.20388
G1 X40.187 Y62.714 E22.24326
G1 X39.95 Y61.961 E22.28264
G1 X39.791 Y61.187 E22.32207
G1 X39.71 Y60.402 E22.36144
G1 X39.7 Y60 E22.3815
G1 X39.7 Y58.846 E22.43907
G1 X39.74 Y58.057 E22.47849
G1 X39.859 Y57.277 E22.51785
G1 X40.057 Y56.512 E22.55728
G1 X40.331 Y55.772 E22.59664
G1 X40.679 Y55.063 E22.63605
G1 X41.097 Y54.392 E22.67549
G1 X41.58 Y53.768 E22.71486
G1 X42.123 Y53.195 E22.75424
G1 X42.722 Y52.68 E22.79365
G0 F3600 X43.111 Y52.888
G1 F1800 X43.753 Y52.465 E22.83201
G1 X44.436 Y52.11 E22.87041
G1 X45.151 Y51.829 E22.90874
G1 X45.893 Y51.623 E22.94716
G1 X46.651 Y51.495 E22.98551
G1 X47.499 Y51.446 E23.02789
G1 X69.734 Y51.442 E24.13719
G1 X69.736 Y51.442 E24.13729
G1 X152.501 Y51.457 E28.26646
G1 X153.269 Y51.497 E28.30482
G1 X154.029 Y51.617 E28.34321
G1 X154.773 Y51.815 E28.38162
G1 X155.491 Y52.089 E28.41996
G1 X156.178 Y52.436 E28.45836
G1 X156.824 Y52.852 E28.49669
G1 X157.424 Y53.333 E28.53506
G1 X157.971 Y53.874 E28.57344
G1 X158.459 Y54.469 E28.61183
G1 X158.882 Y55.111 E28.65019
G1 X159.236 Y55.794 E28.68857
G1 X159.518 Y56.51 E28.72696
G1 X159.724 Y57.251 E28.76533
G1 X159.851 Y58.009 E28.80368
G1 X159.9 Y58.857 E28.84606
G1 X159.9 Y141.143 E32.95132
G1 X159.86 Y141.911 E32.98969
G1 X159.741 Y142.671 E33.02807
G1 X159.543 Y143.414 E33.06643
G1 X159.269 Y144.133 E33.10482
G1 X158.922 Y144.819 E33.14317
G1 X158.506 Y145.466 E33.18155
G1 X158.025 Y146.066 E33.21991
G1 X157.484 Y146.613 E33.25829
G1 X156.889 Y147.101 E33.29669
G1 X156.247 Y147.524 E33.33504
G1 X155.564 Y147.879 E33.37345
G1 X154.849 Y148.16 E33.41177
G1 X154.107 Y148.366 E33.45019
G1 X153.349 Y148.494 E33.48854
G1 X152.501 Y148.543 E33.53092
G1 X69.737 Y148.559 E37.66003
G1 X69.734 Y148.559 E37.66018
G1 X47.498 Y148.553 E38.76954
G1 X46.73 Y148.513 E38.80791
G1 X45.97 Y148.393 E38.8463
G1 X45.227 Y148.195 E38.88466
G1 X44.508 Y147.921 E38.92305
G1 X43.822 Y147.574 E38.9614
G1 X43.175 Y147.158 E38.99978
G1 X42.575 Y146.676 E39.03817
G1 X42.029 Y146.135 E39.07652
G1 X41.541 Y145.54 E39.11491
G1 X41.118 Y144.898 E39.15327
G1 X40.763 Y144.215 E39.19167
G1 X40.482 Y143.5 E39.23
G1 X40.276 Y142.758 E39.26842
G1 X40.149 Y142 E39.30676
G1 X40.1 Y141.153 E39.34909
G1 X40.1 Y140 E39.40661
G1 X40.14 Y139.232 E39.44498
G1 X40.259 Y138.472 E39.48336
G1 X40.457 Y137.729 E39.52172
G1 X40.731 Y137.01 E39.56011
G1 X41.078 Y136.324 E39.59846
G1 X41.494 Y135.677 E39.63684
G1 X41.975 Y135.077 E39.6752
G1 X42.516 Y134.53 E39.71359
G1 X43.111 Y134.042 E39.75198
G1 X43.753 Y133.619 E39.79033
G1 X44.436 Y133.264 E39.82874
G1 X45.151 Y132.983 E39.86706
G1 X45.893 Y132.777 E39.90548
G1 X46.651 Y132.649 E39.94384
G1 X47.5 Y132.6 E39.98626
G1 X60.1 Y132.6 E40.61488
G1 X60.1 Y67.4 E43.86772
G1 X47.5 Y67.4 E44.49634
G1 X46.732 Y67.36 E44.5347
G1 X45.972 Y67.241 E44.57308
G1 X45.229 Y67.043 E44.61144
G1 X44.51 Y66.769 E44.64983
G1 X43.824 Y66.422 E44.68819
G1 X43.177 Y66.006 E44.72656
G1 X42.577 Y65.525 E44.76493
G1 X42.03 Y64.984 E44.80331
G1 X41.542 Y64.389 E44.8417
G1 X41.119 Y63.747 E44.88006
G1 X40.764 Y63.064 E44.91846
G1 X40.483 Y62.349 E44.95679
G1 X40.277 Y61.607 E44.99521
G1 X40.149 Y60.849 E45.03356
G1 X40.1 Y60 E45.07599
G1 X40.1 Y58.846 E45.13356
G1 X40.14 Y58.078 E45.17193
G1 X40.259 Y57.318 E45.21031
G1 X40.457 Y56.575 E45.24867
G1 X40.731 Y55.856 E45.28706
G1 X41.078 Y55.17 E45.32541
G1 X41.494 Y54.523 E45.36379
G1 X41.975 Y53.923 E45.40215
G1 X42.516 Y53.376 E45.44053
G1 X43.111 Y52.888 E45.47893
G0 F3600 X43.498 Y53.103
G1 F1800 X44.134 Y52.708 E45.51628
G1 X44.808 Y52.384 E45.55359
G1 X45.513 Y52.134 E45.59091
G1 X46.241 Y51.96 E45.62825
G1 X46.983 Y51.865 E45.66557
G1 X47.499 Y51.846 E45.69133
G1 X69.734 Y51.842 E46.80064
G1 X69.736 Y51.842 E46.80074
G1 X152.501 Y51.857 E50.9299
G1 X153.248 Y51.897 E50.96722
G1 X153.987 Y52.017 E51.00457
G1 X154.708 Y52.214 E51.04186
G1 X155.404 Y52.488 E51.07918
G1 X156.067 Y52.834 E51.11649
G1 X156.69 Y53.249 E51.15384
G1 X157.264 Y53.729 E51.19117
G1 X157.784 Y54.266 E51.22846
G1 X158.244 Y54.856 E51.26579
G1 X158.638 Y55.492 E51.30311
G1 X158.962 Y56.166 E51.34042
G1 X159.212 Y56.871 E51.37774
G1 X159.386 Y57.599 E51.41508
G1 X159.481 Y58.341 E51.4524
G1 X159.5 Y58.857 E51.47816
G1 X159.5 Y141.143 E55.58343
G1 X159.46 Y141.89 E55.62075
G1 X159.341 Y142.628 E55.65805
G1 X159.143 Y143.35 E55.6954
G1 X158.87 Y144.046 E55.7327
G1 X158.523 Y144.709 E55.77003
G1 X158.108 Y145.332 E55.80738
G1 X157.629 Y145.906 E55.84467
G1 X157.092 Y146.427 E55.882
G1 X156.502 Y146.886 E55.9193
G1 X155.866 Y147.281 E55.95665
G1 X155.192 Y147.605 E55.99396
G1 X154.487 Y147.855 E56.03128
G1 X153.759 Y148.029 E56.06862
G1 X153.017 Y148.124 E56.10594
G1 X152.501 Y148.143 E56.1317
G1 X69.737 Y148.159 E60.26081
G1 X69.734 Y148.159 E60.26096
G1 X47.498 Y148.153 E61.37032
G1 X46.751 Y148.113 E61.40764
G1 X46.013 Y147.993 E61.44494
G1 X45.291 Y147.795 E61.4823
G1 X44.595 Y147.522 E61.51959
G1 X43.932 Y147.175 E61.55693
G1 X43.31 Y146.76 E61.59423
G1 X42.735 Y146.281 E61.63157
G1 X42.215 Y145.743 E61.6689
G1 X41.756 Y145.153 E61.70619
G1 X41.361 Y144.517 E61.74354
G1 X41.038 Y143.843 E61.78083
G1 X40.787 Y143.138 E61.81817
G1 X40.614 Y142.41 E61.8555
G1 X40.519 Y141.668 E61.89282
G1 X40.5 Y141.153 E61.91853
G1 X40.5 Y140 E61.97605
G1 X40.54 Y139.253 E62.01338
G1 X40.659 Y138.515 E62.05067
G1 X40.857 Y137.793 E62.08802
G1 X41.13 Y137.097 E62.12532
G1 X41.477 Y136.434 E62.16265
G1 X41.892 Y135.811 E62.2
G1 X42.371 Y135.237 E62.2373
G1 X42.908 Y134.716 E62.27463
G1 X43.498 Y134.257 E62.31192
G1 X44.134 Y133.862 E62.34927
G1 X44.808 Y133.538 E62.38658
G1 X45.513 Y133.288 E62.4239
G1 X46.241 Y133.114 E62.46124
G1 X46.983 Y133.019 E62.49856
G1 X47.5 Y133 E62.52437
G1 X60.5 Y133 E63.17295
G1 X60.5 Y67 E66.4657
G1 X47.5 Y67 E67.11427
G1 X46.753 Y66.96 E67.15159
G1 X46.015 Y66.841 E67.18889
G1 X45.293 Y66.643 E67.22624
G1 X44.597 Y66.37 E67.26354
G1 X43.934 Y66.023 E67.30087
G1 X43.311 Y65.608 E67.33822
G1 X42.737 Y65.129 E67.37552
G1 X42.216 Y64.592 E67.41284
G1 X41.757 Y64.002 E67.45014
G1 X41.362 Y63.366 E67.48749
G1 X41.038 Y62.692 E67.5248
G1 X40.788 Y61.987 E67.56212
G1 X40.614 Y61.259 E67.59946
G1 X40.519 Y60.517 E67.63678
G1 X40.5 Y60 E67.66259
G1 X40.5 Y58.846 E67.72017
G1 X40.54 Y58.099 E67.75749
G1 X40.659 Y57.361 E67.79478
G1 X40.857 Y56.639 E67.83213
G1 X41.13 Y55.943 E67.86943
G1 X41.477 Y55.28 E67.90677
G1 X41.892 Y54.657 E67.94411
G1 X42.371 Y54.083 E67.98141
G1 X42.908 Y53.562 E68.01874
G1 X43.498 Y53.103 E68.05603
G0 F3600 X43.299 Y53.755
G1 F1800 X43.884 Y53.325 E68.09225
G1 X44.513 Y52.961 E68.12851
G1 X45.178 Y52.668 E68.16477
G1 X45.871 Y52.45 E68.20101
G1 X46.583 Y52.31 E68.23721
G1 X47.499 Y52.246 E68.28302
G1 X69.734 Y52.242 E69.39233
G1 X69.736 Y52.242 E69.39243
G1 X152.501 Y52.257 E73.52159
G1 X153.226 Y52.297 E73.55782
G1 X153.943 Y52.417 E73.59409
G1 X154.642 Y52.614 E73.63032
G1 X155.315 Y52.887 E73.66655
G1 X155.954 Y53.233 E73.70281
G1 X156.551 Y53.646 E73.73902
G1 X157.099 Y54.123 E73.77527
G1 X157.591 Y54.657 E73.81149
G1 X158.022 Y55.242 E73.84775
G1 X158.386 Y55.871 E73.884
G1 X158.678 Y56.536 E73.92024
G1 X158.896 Y57.229 E73.95648
G1 X159.036 Y57.941 E73.99268
G1 X159.1 Y58.857 E74.03849
G1 X159.1 Y141.143 E78.14376
G1 X159.06 Y141.868 E78.17998
G1 X158.941 Y142.585 E78.21625
G1 X158.743 Y143.284 E78.25249
G1 X158.47 Y143.957 E78.28872
G1 X158.125 Y144.596 E78.32495
G1 X157.711 Y145.193 E78.3612
G1 X157.235 Y145.741 E78.39741
G1 X156.701 Y146.234 E78.43367
G1 X156.116 Y146.664 E78.46989
G1 X155.487 Y147.028 E78.50615
G1 X154.822 Y147.321 E78.5424
G1 X154.129 Y147.539 E78.57865
G1 X153.417 Y147.679 E78.61485
G1 X152.501 Y147.743 E78.66066
G1 X69.737 Y147.759 E82.78977
G1 X69.734 Y147.759 E82.78992
G1 X47.498 Y147.753 E83.89928
G1 X46.773 Y147.713 E83.93551
G1 X46.057 Y147.593 E83.97173
G1 X45.358 Y147.396 E84.00796
G1 X44.685 Y147.122 E84.04421
G1 X44.046 Y146.777 E84.08044
G1 X43.449 Y146.363 E84.11669
G1 X42.901 Y145.886 E84.15293
G1 X42.408 Y145.352 E84.18919
G1 X41.978 Y144.767 E84.22541
G1 X41.614 Y144.139 E84.26163
G1 X41.321 Y143.474 E84.29788
G1 X41.104 Y142.781 E84.33411
G1 X40.964 Y142.068 E84.37036
G1 X40.9 Y141.153 E84.41612
G1 X40.9 Y140 E84.47365
G1 X40.94 Y139.275 E84.50987
G1 X41.059 Y138.558 E84.54613
G1 X41.257 Y137.859 E84.58238
G1 X41.53 Y137.186 E84.61861
G1 X41.875 Y136.547 E84.65484
G1 X42.289 Y135.95 E84.69109
G1 X42.765 Y135.402 E84.7273
G1 X43.299 Y134.909 E84.76356
G1 X43.884 Y134.479 E84.79978
G1 X44.513 Y134.115 E84.83604
G1 X45.178 Y133.822 E84.87229
G1 X45.871 Y133.604 E84.90854
G1 X46.583 Y133.464 E84.94474
G1 X47.5 Y133.4 E84.9906
G1 X60.9 Y133.4 E85.65913
G1 X60.9 Y66.6 E88.99179
G1 X47.5 Y66.6 E89.66032
G1 X46.775 Y66.56 E89.69655
G1 X46.058 Y66.441 E89.73281
G1 X45.359 Y66.243 E89.76905
G1 X44.686 Y65.97 E89.80529
G1 X44.047 Y65.625 E89.84152
G1 X43.45 Y65.211 E89.87776
G1 X42.902 Y64.735 E89.91398
G1 X42.409 Y64.201 E89.95023
G1 X41.979 Y63.616 E89.98646
G1 X41.615 Y62.987 E90.02271
G1 X41.322 Y62.322 E90.05897
G1 X41.104 Y61.629 E90.09521
G1 X40.964 Y60.917 E90.13141
G1 X40.9 Y60 E90.17727
G1 X40.9 Y58.846 E90.23485
G1 X40.94 Y58.121 E90.27107
G1 X41.059 Y57.404 E90.30733
G1 X41.257 Y56.705 E90.34358
G1 X41.53 Y56.032 E90.37981
G1 X41.875 Y55.393 E90.41604
G1 X42.289 Y54.796 E90.45229
G1 X42.765 Y54.248 E90.4885
G1 X43.299 Y53.755 E90.52476
G0 F3600 X43.689 Y53.955
G1 F1800 X44.268 Y53.555 E90.55987
G1 X44.889 Y53.223 E90.595
G1 X45.543 Y52.963 E90.63011
G1 X46.223 Y52.779 E90.66526
G1 X46.919 Y52.673 E90.70038
G1 X47.499 Y52.646 E90.72935
G1 X69.734 Y52.642 E91.83866
G1 X69.736 Y52.642 E91.83876
G1 X152.501 Y52.657 E95.96792
G1 X153.204 Y52.697 E96.00305
G1 X153.898 Y52.817 E96.03819
G1 X154.573 Y53.014 E96.07327
G1 X155.223 Y53.287 E96.10844
G1 X155.836 Y53.631 E96.14351
G1 X156.407 Y54.043 E96.17864
G1 X156.928 Y54.517 E96.21378
G1 X157.391 Y55.047 E96.24889
G1 X157.792 Y55.626 E96.28403
G1 X158.124 Y56.247 E96.31916
G1 X158.383 Y56.901 E96.35425
G1 X158.567 Y57.581 E96.3894
G1 X158.673 Y58.277 E96.42452
G1 X158.7 Y58.857 E96.45349
G1 X158.7 Y141.143 E100.55876
G1 X158.66 Y141.846 E100.59389
G1 X158.541 Y142.54 E100.62901
G1 X158.343 Y143.215 E100.66411
G1 X158.071 Y143.864 E100.69922
G1 X157.726 Y144.478 E100.73435
G1 X157.315 Y145.049 E100.76945
G1 X156.841 Y145.57 E100.80459
G1 X156.311 Y146.034 E100.83974
G1 X155.732 Y146.434 E100.87485
G1 X155.111 Y146.766 E100.90998
G1 X154.457 Y147.026 E100.94509
G1 X153.777 Y147.21 E100.98024
G1 X153.081 Y147.316 E101.01536
G1 X152.501 Y147.343 E101.04433
G1 X69.737 Y147.359 E105.17344
G1 X69.734 Y147.359 E105.17359
G1 X47.498 Y147.353 E106.28295
G1 X46.795 Y147.313 E106.31808
G1 X46.102 Y147.193 E106.35317
G1 X45.426 Y146.996 E106.38829
G1 X44.777 Y146.723 E106.42342
G1 X44.163 Y146.378 E106.45856
G1 X43.592 Y145.966 E106.49369
G1 X43.072 Y145.492 E106.52879
G1 X42.608 Y144.962 E106.56393
G1 X42.208 Y144.383 E106.59904
G1 X41.876 Y143.763 E106.63413
G1 X41.616 Y143.108 E106.66929
G1 X41.433 Y142.429 E106.70437
G1 X41.327 Y141.733 E106.7395
G1 X41.3 Y141.153 E106.76847
G1 X41.3 Y140 E106.82599
G1 X41.34 Y139.297 E106.86112
G1 X41.459 Y138.603 E106.89625
G1 X41.657 Y137.928 E106.93134
G1 X41.929 Y137.279 E106.96645
G1 X42.274 Y136.665 E107.00159
G1 X42.685 Y136.094 E107.03669
G1 X43.159 Y135.573 E107.07183
G1 X43.689 Y135.109 E107.10697
G1 X44.268 Y134.709 E107.14208
G1 X44.889 Y134.377 E107.17721
G1 X45.543 Y134.117 E107.21232
G1 X46.223 Y133.933 E107.24747
G1 X46.919 Y133.827 E107.28259
G1 X47.5 Y133.8 E107.31161
G1 X61.3 Y133.8 E108.00009
G1 X61.3 Y66.2 E111.37267
G1 X47.5 Y66.2 E112.06116
G1 X46.797 Y66.16 E112.09629
G1 X46.103 Y66.041 E112.13142
G1 X45.428 Y65.843 E112.16651
G1 X44.779 Y65.571 E112.20162
G1 X44.165 Y65.226 E112.23675
G1 X43.594 Y64.815 E112.27185
G1 X43.073 Y64.341 E112.30699
G1 X42.609 Y63.811 E112.34214
G1 X42.209 Y63.232 E112.37725
G1 X41.877 Y62.611 E112.41238
G1 X41.617 Y61.957 E112.44749
G1 X41.433 Y61.277 E112.48264
G1 X41.327 Y60.581 E112.51776
G1 X41.3 Y60 E112.54678
G1 X41.3 Y58.846 E112.60435
G1 X41.34 Y58.143 E112.63948
G1 X41.459 Y57.449 E112.67461
G1 X41.657 Y56.774 E112.7097
G1 X41.929 Y56.125 E112.74481
G1 X42.274 Y55.511 E112.77995
G1 X42.685 Y54.94 E112.81505
G1 X43.159 Y54.419 E112.85019
G1 X43.689 Y53.955 E112.88533
G0 F3600 X44.078 Y54.163
G1 F1800 X44.65 Y53.794 E112.91929
G1 X45.262 Y53.495 E112.95327
G1 X45.904 Y53.27 E112.98721
G1 X46.569 Y53.121 E113.02121
G1 X47.499 Y53.046 E113.06776
G1 X69.734 Y53.042 E114.17707
G1 X69.736 Y53.042 E114.17717
G1 X152.501 Y53.057 E118.30633
G1 X153.181 Y53.097 E118.34032
G1 X153.851 Y53.217 E118.37428
