;FLAVOR:Marlin
;TIME:4908
;Filament used: 5.57022m
;Layer height: 0.2
;MINX:64.7
;MINY:50.2
;MINZ:0.3
;MAXX:135.3
;MAXY:149.8
;MAXZ:4.9
;Generated with Cura_SteamEngine 4.1.0
M140 S60
M105
M190 S60
M104 S200
M105
M109 S200
M82 ;absolute extrusion mode
G21 ;metric values
G90 ;absolute positioning
M82 ;set extruder to absolute mode
M107 ;start with the fan off
G28 X0 Y0 ;move X/Y to min endstops
G28 Z0 ;move Z to min endstops
G1 Z15.0 F9000 ;move the platform down 15mm
G92 E0 ;zero the extruded length
G1 F200 E3 ;extrude 3mm of feed stock
G92 E0 ;zero the extruded length again
G1 F9000
;Put printing message on LCD screen
M117 Printing...
G92 E0
G92 E0
G1 F1500 E-6.5
;LAYER_COUNT:24
;LAYER:0
M107
G0 F3600 X66.58 Y52.922 Z0.3
;TYPE:SKIRT
G1 F1500 E0
G1 F1800 X67.123 Y52.349 E0.03938
G1 X67.722 Y51.834 E0.0788
G1 X68.37 Y51.383 E0.11818
G1 X69.061 Y50.999 E0.15762
G1 X69.786 Y50.687 E0.197
G1 X70.539 Y50.45 E0.23638
G1 X71.313 Y50.291 E0.27581
G1 X72.098 Y50.21 E0.31518
G1 X72.5 Y50.2 E0.33524
G1 X87.5 Y50.2 E1.08359
G1 X88.289 Y50.24 E1.12301
G1 X89.069 Y50.359 E1.16237
G1 X89.834 Y50.557 E1.20179
G1 X90.002 Y50.619 E1.21073
G1 X90.539 Y50.45 E1.23882
G1 X91.313 Y50.291 E1.27824
G1 X92.098 Y50.21 E1.31761
G1 X92.5 Y50.2 E1.33767
G1 X107.5 Y50.2 E2.08602
G1 X108.289 Y50.24 E2.12544
G1 X109.069 Y50.359 E2.1648
G1 X109.834 Y50.557 E2.20423
G1 X110.002 Y50.619 E2.21316
G1 X110.539 Y50.45 E2.24125
G1 X111.313 Y50.291 E2.28067
G1 X112.098 Y50.21 E2.32004
G1 X112.5 Y50.2 E2.3401
G1 X127.5 Y50.2 E3.08845
G1 X128.289 Y50.24 E3.12787
G1 X129.069 Y50.359 E3.16723
G1 X129.834 Y50.557 E3.20666
G1 X130.574 Y50.831 E3.24603
G1 X131.283 Y51.179 E3.28543
G1 X131.954 Y51.597 E3.32487
G1 X132.578 Y52.08 E3.36424
G1 X133.151 Y52.623 E3.40362
G1 X133.666 Y53.222 E3.44303
G1 X134.117 Y53.87 E3.48242
G1 X134.501 Y54.561 E3.52186
G1 X134.813 Y55.286 E3.56124
G1 X135.05 Y56.039 E3.60062
G1 X135.209 Y56.813 E3.64004
G1 X135.29 Y57.598 E3.67941
G1 X135.3 Y58 E3.69948
G1 X135.3 Y142 E7.89025
G1 X135.26 Y142.789 E7.92967
G1 X135.141 Y143.569 E7.96903
G1 X134.943 Y144.334 E8.00846
G1 X134.669 Y145.074 E8.04782
G1 X134.321 Y145.783 E8.08723
G1 X133.903 Y146.454 E8.12667
G1 X133.42 Y147.078 E8.16604
G1 X132.877 Y147.651 E8.20542
G1 X132.278 Y148.166 E8.24483
G1 X131.63 Y148.617 E8.28422
G1 X130.939 Y149.001 E8.32366
G1 X130.214 Y149.313 E8.36304
G1 X129.461 Y149.55 E8.40242
G1 X128.687 Y149.709 E8.44184
G1 X127.902 Y149.79 E8.48121
G1 X127.5 Y149.8 E8.50128
G1 X112.5 Y149.8 E9.24963
G1 X111.711 Y149.76 E9.28904
G1 X110.931 Y149.641 E9.32841
G1 X110.166 Y149.443 E9.36783
G1 X109.998 Y149.381 E9.37677
G1 X109.461 Y149.55 E9.40485
G1 X108.687 Y149.709 E9.44427
G1 X107.902 Y149.79 E9.48364
G1 X107.5 Y149.8 E9.50371
G1 X92.5 Y149.8 E10.25206
G1 X91.711 Y149.76 E10.29147
G1 X90.931 Y149.641 E10.33084
G1 X90.166 Y149.443 E10.37026
G1 X89.998 Y149.381 E10.3792
G1 X89.461 Y149.55 E10.40728
G1 X88.687 Y149.709 E10.4467
G1 X87.902 Y149.79 E10.48608
G1 X87.5 Y149.8 E10.50614
G1 X72.5 Y149.8 E11.25449
G1 X71.711 Y149.76 E11.2939
G1 X70.931 Y149.641 E11.33327
G1 X70.166 Y149.443 E11.37269
G1 X69.426 Y149.169 E11.41206
G1 X68.717 Y148.821 E11.45146
G1 X68.046 Y148.403 E11.49091
G1 X67.422 Y147.92 E11.53027
G1 X66.849 Y147.377 E11.56966
G1 X66.334 Y146.778 E11.60907
G1 X65.883 Y146.13 E11.64846
G1 X65.499 Y145.439 E11.6879
G1 X65.187 Y144.714 E11.72727
G1 X64.95 Y143.961 E11.76666
G1 X64.791 Y143.187 E11.80608
G1 X64.71 Y142.402 E11.84545
G1 X64.7 Y142 E11.86551
G1 X64.7 Y58 E16.05629
G1 X64.74 Y57.211 E16.0957
G1 X64.859 Y56.431 E16.13507
G1 X65.057 Y55.666 E16.17449
G1 X65.331 Y54.926 E16.21386
G1 X65.679 Y54.217 E16.25326
G1 X66.097 Y53.546 E16.2927
G1 X66.58 Y52.922 E16.33207
G0 F3600 X66.975 Y53.077
G1 F1800 X67.516 Y52.53 E16.37045
G1 X68.111 Y52.042 E16.40885
G1 X68.753 Y51.619 E16.4472
G1 X69.436 Y51.264 E16.48561
G1 X70.151 Y50.983 E16.52393
G1 X70.893 Y50.777 E16.56235
G1 X71.651 Y50.649 E16.6007
G1 X72.5 Y50.6 E16.64313
G1 X87.5 Y50.6 E17.39149
G1 X88.268 Y50.64 E17.42985
G1 X89.028 Y50.759 E17.46823
G1 X89.771 Y50.957 E17.50659
G1 X89.998 Y51.043 E17.5187
G1 X90.151 Y50.983 E17.5269
G1 X90.893 Y50.777 E17.56532
G1 X91.651 Y50.649 E17.60367
G1 X92.5 Y50.6 E17.6461
G1 X107.5 Y50.6 E18.39445
G1 X108.268 Y50.64 E18.43282
G1 X109.028 Y50.759 E18.4712
G1 X109.771 Y50.957 E18.50956
G1 X109.998 Y51.043 E18.52167
G1 X110.151 Y50.983 E18.52987
G1 X110.893 Y50.777 E18.56829
G1 X111.651 Y50.649 E18.60664
G1 X112.5 Y50.6 E18.64907
G1 X127.5 Y50.6 E19.39742
G1 X128.268 Y50.64 E19.43579
G1 X129.028 Y50.759 E19.47417
G1 X129.771 Y50.957 E19.51253
G1 X130.49 Y51.231 E19.55092
G1 X131.176 Y51.578 E19.58927
G1 X131.823 Y51.994 E19.62765
G1 X132.423 Y52.475 E19.66601
G1 X132.97 Y53.016 E19.7044
G1 X133.458 Y53.611 E19.74279
G1 X133.881 Y54.253 E19.78115
G1 X134.236 Y54.936 E19.81955
G1 X134.517 Y55.651 E19.85788
G1 X134.723 Y56.393 E19.89629
G1 X134.851 Y57.151 E19.93465
G1 X134.9 Y58 E19.97707
G1 X134.9 Y142 E24.16785
G1 X134.86 Y142.768 E24.20622
G1 X134.741 Y143.528 E24.2446
G1 X134.543 Y144.271 E24.28296
G1 X134.269 Y144.99 E24.32135
G1 X133.922 Y145.676 E24.3597
G1 X133.506 Y146.323 E24.39808
G1 X133.025 Y146.923 E24.43644
G1 X132.484 Y147.47 E24.47482
G1 X131.889 Y147.958 E24.51322
G1 X131.247 Y148.381 E24.55157
G1 X130.564 Y148.736 E24.58998
G1 X129.849 Y149.017 E24.6283
G1 X129.107 Y149.223 E24.66672
G1 X128.349 Y149.351 E24.70507
G1 X127.5 Y149.4 E24.7475
G1 X112.5 Y149.4 E25.49585
G1 X111.732 Y149.36 E25.53422
G1 X110.972 Y149.241 E25.5726
G1 X110.229 Y149.043 E25.61096
G1 X110.002 Y148.957 E25.62307
G1 X109.849 Y149.017 E25.63127
G1 X109.107 Y149.223 E25.66969
G1 X108.349 Y149.351 E25.70804
G1 X107.5 Y149.4 E25.75047
G1 X92.5 Y149.4 E26.49882
G1 X91.732 Y149.36 E26.53719
G1 X90.972 Y149.241 E26.57557
G1 X90.229 Y149.043 E26.61393
G1 X90.002 Y148.957 E26.62604
G1 X89.849 Y149.017 E26.63424
G1 X89.107 Y149.223 E26.67266
G1 X88.349 Y149.351 E26.71101
G1 X87.5 Y149.4 E26.75344
G1 X72.5 Y149.4 E27.50179
G1 X71.732 Y149.36 E27.54016
G1 X70.972 Y149.241 E27.57854
G1 X70.229 Y149.043 E27.6169
G1 X69.51 Y148.769 E27.65529
G1 X68.824 Y148.422 E27.69364
G1 X68.177 Y148.006 E27.73202
G1 X67.577 Y147.525 E27.77038
G1 X67.03 Y146.984 E27.80877
G1 X66.542 Y146.389 E27.84716
G1 X66.119 Y145.747 E27.88551
G1 X65.764 Y145.064 E27.92392
G1 X65.483 Y144.349 E27.96225
G1 X65.277 Y143.607 E28.00066
G1 X65.149 Y142.849 E28.03902
G1 X65.1 Y142 E28.08144
G1 X65.1 Y58 E32.27222
G1 X65.14 Y57.232 E32.31059
G1 X65.259 Y56.472 E32.34897
G1 X65.457 Y55.729 E32.38733
G1 X65.731 Y55.01 E32.42572
G1 X66.078 Y54.324 E32.46407
G1 X66.494 Y53.677 E32.50245
G1 X66.975 Y53.077 E32.54081
G0 F3600 X67.371 Y53.237
G1 F1800 X67.908 Y52.716 E32.57814
G1 X68.498 Y52.257 E32.61543
G1 X69.134 Y51.862 E32.65278
G1 X69.808 Y51.538 E32.69009
G1 X70.513 Y51.288 E32.72741
G1 X71.241 Y51.114 E32.76476
G1 X71.983 Y51.019 E32.80208
G1 X72.5 Y51 E32.82789
G1 X87.5 Y51 E33.57624
G1 X88.247 Y51.04 E33.61356
G1 X88.985 Y51.159 E33.65086
G1 X89.707 Y51.357 E33.68821
G1 X89.997 Y51.471 E33.70375
G1 X90.513 Y51.288 E33.73107
G1 X91.241 Y51.114 E33.76841
G1 X91.983 Y51.019 E33.80573
G1 X92.5 Y51 E33.83154
G1 X107.5 Y51 E34.57989
G1 X108.247 Y51.04 E34.61722
G1 X108.985 Y51.159 E34.65451
G1 X109.707 Y51.357 E34.69186
G1 X109.997 Y51.471 E34.70741
G1 X110.513 Y51.288 E34.73472
G1 X111.241 Y51.114 E34.77206
G1 X111.983 Y51.019 E34.80939
G1 X112.5 Y51 E34.8352
G1 X127.5 Y51 E35.58355
G1 X128.247 Y51.04 E35.62087
G1 X128.985 Y51.159 E35.65816
G1 X129.707 Y51.357 E35.69552
G1 X130.403 Y51.63 E35.73281
G1 X131.066 Y51.977 E35.77015
G1 X131.689 Y52.392 E35.80749
G1 X132.263 Y52.871 E35.84479
G1 X132.784 Y53.408 E35.88212
G1 X133.243 Y53.998 E35.91941
G1 X133.638 Y54.634 E35.95677
G1 X133.962 Y55.308 E35.99408
G1 X134.212 Y56.013 E36.03139
G1 X134.386 Y56.741 E36.06874
G1 X134.481 Y57.483 E36.10606
G1 X134.5 Y58 E36.13187
G1 X134.5 Y142 E40.32265
G1 X134.46 Y142.747 E40.35997
G1 X134.341 Y143.485 E40.39726
G1 X134.143 Y144.207 E40.43461
G1 X133.87 Y144.903 E40.47191
G1 X133.523 Y145.566 E40.50925
G1 X133.108 Y146.189 E40.54659
G1 X132.629 Y146.763 E40.58389
G1 X132.092 Y147.284 E40.62122
G1 X131.502 Y147.743 E40.65851
G1 X130.866 Y148.138 E40.69586
G1 X130.192 Y148.462 E40.73317
G1 X129.487 Y148.712 E40.77049
G1 X128.759 Y148.886 E40.80783
G1 X128.017 Y148.981 E40.84516
G1 X127.5 Y149 E40.87097
G1 X112.5 Y149 E41.61932
G1 X111.753 Y148.96 E41.65664
G1 X111.015 Y148.841 E41.69393
G1 X110.293 Y148.643 E41.73129
G1 X110.003 Y148.529 E41.74683
G1 X109.487 Y148.712 E41.77415
G1 X108.759 Y148.886 E41.81149
G1 X108.017 Y148.981 E41.84881
G1 X107.5 Y149 E41.87462
G1 X92.5 Y149 E42.62297
G1 X91.753 Y148.96 E42.66029
G1 X91.015 Y148.841 E42.69759
G1 X90.293 Y148.643 E42.73494
G1 X90.003 Y148.529 E42.75049
G1 X89.487 Y148.712 E42.7778
G1 X88.759 Y148.886 E42.81514
G1 X88.017 Y148.981 E42.85246
G1 X87.5 Y149 E42.87827
G1 X72.5 Y149 E43.62663
G1 X71.753 Y148.96 E43.66395
G1 X71.015 Y148.841 E43.70124
G1 X70.293 Y148.643 E43.73859
G1 X69.597 Y148.37 E43.77589
G1 X68.934 Y148.023 E43.81323
G1 X68.311 Y147.608 E43.85057
G1 X67.737 Y147.129 E43.88787
G1 X67.216 Y146.592 E43.9252
G1 X66.757 Y146.002 E43.96249
G1 X66.362 Y145.366 E43.99985
G1 X66.038 Y144.692 E44.03715
G1 X65.788 Y143.987 E44.07447
G1 X65.614 Y143.259 E44.11182
G1 X65.519 Y142.517 E44.14914
G1 X65.5 Y142 E44.17495
G1 X65.5 Y58 E48.36572
G1 X65.54 Y57.253 E48.40305
G1 X65.659 Y56.515 E48.44034
G1 X65.857 Y55.793 E48.47769
G1 X66.13 Y55.097 E48.51499
G1 X66.477 Y54.434 E48.55232
G1 X66.892 Y53.811 E48.58967
G1 X67.371 Y53.237 E48.62697
G0 F3600 X67.289 Y53.95
G1 F1800 X67.765 Y53.402 E48.66318
G1 X68.299 Y52.909 E48.69944
G1 X68.884 Y52.479 E48.73566
G1 X69.513 Y52.115 E48.77192
G1 X70.178 Y51.822 E48.80817
G1 X70.871 Y51.604 E48.84442
G1 X71.583 Y51.464 E48.88062
G1 X72.5 Y51.4 E48.92648
G1 X87.5 Y51.4 E49.67483
G1 X88.225 Y51.44 E49.71106
G1 X88.942 Y51.559 E49.74732
G1 X89.641 Y51.757 E49.78357
G1 X89.997 Y51.902 E49.80274
G1 X90.178 Y51.822 E49.81262
G1 X90.871 Y51.604 E49.84886
G1 X91.583 Y51.464 E49.88506
G1 X92.5 Y51.4 E49.93092
G1 X107.5 Y51.4 E50.67928
G1 X108.225 Y51.44 E50.7155
G1 X108.942 Y51.559 E50.75176
G1 X109.641 Y51.757 E50.78801
G1 X109.997 Y51.902 E50.80719
G1 X110.178 Y51.822 E50.81706
G1 X110.871 Y51.604 E50.8533
G1 X111.583 Y51.464 E50.8895
G1 X112.5 Y51.4 E50.93536
G1 X127.5 Y51.4 E51.68372
G1 X128.225 Y51.44 E51.71994
G1 X128.942 Y51.559 E51.7562
G1 X129.641 Y51.757 E51.79245
G1 X130.314 Y52.03 E51.82868
G1 X130.953 Y52.375 E51.86491
G1 X131.55 Y52.789 E51.90116
G1 X132.098 Y53.265 E51.93737
G1 X132.591 Y53.799 E51.97363
G1 X133.021 Y54.384 E52.00985
G1 X133.385 Y55.013 E52.04611
G1 X133.678 Y55.678 E52.08236
G1 X133.896 Y56.371 E52.11861
G1 X134.036 Y57.083 E52.15481
G1 X134.1 Y58 E52.20067
G1 X134.1 Y142 E56.39145
G1 X134.06 Y142.725 E56.42767
G1 X133.941 Y143.442 E56.46393
G1 X133.743 Y144.141 E56.50018
G1 X133.47 Y144.814 E56.53641
G1 X133.125 Y145.453 E56.57264
G1 X132.711 Y146.05 E56.60889
G1 X132.235 Y146.598 E56.6451
G1 X131.701 Y147.091 E56.68136
G1 X131.116 Y147.521 E56.71758
G1 X130.487 Y147.885 E56.75384
G1 X129.822 Y148.178 E56.79009
G1 X129.129 Y148.396 E56.82634
G1 X128.417 Y148.536 E56.86254
G1 X127.5 Y148.6 E56.9084
G1 X112.5 Y148.6 E57.65675
G1 X111.775 Y148.56 E57.69298
G1 X111.058 Y148.441 E57.72924
G1 X110.359 Y148.243 E57.76548
G1 X110.003 Y148.098 E57.78466
G1 X109.822 Y148.178 E57.79453
G1 X109.129 Y148.396 E57.83078
G1 X108.417 Y148.536 E57.86698
G1 X107.5 Y148.6 E57.91284
G1 X92.5 Y148.6 E58.66119
G1 X91.775 Y148.56 E58.69742
G1 X91.058 Y148.441 E58.73368
G1 X90.359 Y148.243 E58.76993
G1 X90.003 Y148.098 E58.7891
G1 X89.822 Y148.178 E58.79898
G1 X89.129 Y148.396 E58.83522
G1 X88.417 Y148.536 E58.87142
G1 X87.5 Y148.6 E58.91728
G1 X72.5 Y148.6 E59.66564
G1 X71.775 Y148.56 E59.70186
G1 X71.058 Y148.441 E59.73812
G1 X70.359 Y148.243 E59.77437
G1 X69.686 Y147.97 E59.8106
G1 X69.047 Y147.625 E59.84683
G1 X68.45 Y147.211 E59.88308
G1 X67.902 Y146.735 E59.91929
G1 X67.409 Y146.201 E59.95555
G1 X66.979 Y145.616 E59.99177
G1 X66.615 Y144.987 E60.02803
G1 X66.322 Y144.322 E60.06428
G1 X66.104 Y143.629 E60.10053
G1 X65.964 Y142.917 E60.13673
G1 X65.9 Y142 E60.18259
G1 X65.9 Y58 E64.37337
G1 X65.94 Y57.275 E64.40959
G1 X66.059 Y56.558 E64.44585
G1 X66.257 Y55.859 E64.4821
G1 X66.53 Y55.186 E64.51833
G1 X66.875 Y54.547 E64.55456
G1 X67.289 Y53.95 E64.59081
G0 F3600 X67.685 Y54.094
G1 F1800 X68.159 Y53.573 E64.62595
G1 X68.689 Y53.109 E64.66109
G1 X69.268 Y52.709 E64.6962
G1 X69.889 Y52.377 E64.73133
G1 X70.543 Y52.117 E64.76644
G1 X71.223 Y51.933 E64.80159
G1 X71.919 Y51.827 E64.83671
G1 X72.5 Y51.8 E64.86573
G1 X87.5 Y51.8 E65.61408
G1 X88.203 Y51.84 E65.64921
G1 X88.897 Y51.959 E65.68434
G1 X89.572 Y52.157 E65.71944
G1 X89.996 Y52.335 E65.74238
G1 X90.543 Y52.117 E65.77175
G1 X91.223 Y51.933 E65.8069
G1 X91.919 Y51.827 E65.84202
G1 X92.5 Y51.8 E65.87104
G1 X107.5 Y51.8 E66.61939
G1 X108.203 Y51.84 E66.65452
G1 X108.897 Y51.959 E66.68965
G1 X109.572 Y52.157 E66.72475
G1 X109.996 Y52.335 E66.74769
G1 X110.543 Y52.117 E66.77707
G1 X111.223 Y51.933 E66.81221
G1 X111.919 Y51.827 E66.84734
G1 X112.5 Y51.8 E66.87635
G1 X127.5 Y51.8 E67.62471
G1 X128.203 Y51.84 E67.65984
G1 X128.897 Y51.959 E67.69497
G1 X129.572 Y52.157 E67.73006
G1 X130.221 Y52.429 E67.76517
G1 X130.835 Y52.774 E67.8003
G1 X131.406 Y53.185 E67.8354
G1 X131.927 Y53.659 E67.87054
G1 X132.391 Y54.189 E67.90569
G1 X132.791 Y54.768 E67.9408
G1 X133.123 Y55.389 E67.97593
G1 X133.383 Y56.043 E68.01104
G1 X133.567 Y56.723 E68.04619
G1 X133.673 Y57.419 E68.08131
G1 X133.7 Y58 E68.11033
G1 X133.7 Y142 E72.3011
G1 X133.66 Y142.703 E72.33623
G1 X133.541 Y143.397 E72.37136
G1 X133.343 Y144.072 E72.40646
G1 X133.071 Y144.721 E72.44157
G1 X132.726 Y145.335 E72.4767
G1 X132.315 Y145.906 E72.5118
G1 X131.841 Y146.427 E72.54694
G1 X131.311 Y146.891 E72.58209
G1 X130.732 Y147.291 E72.6172
G1 X130.111 Y147.623 E72.65233
G1 X129.457 Y147.883 E72.68744
G1 X128.777 Y148.067 E72.72258
G1 X128.081 Y148.173 E72.75771
G1 X127.5 Y148.2 E72.78673
G1 X112.5 Y148.2 E73.53508
G1 X111.797 Y148.16 E73.57021
G1 X111.103 Y148.041 E73.60534
G1 X110.428 Y147.843 E73.64043
G1 X110.004 Y147.665 E73.66337
G1 X109.457 Y147.883 E73.69275
G1 X108.777 Y148.067 E73.7279
G1 X108.081 Y148.173 E73.76302
G1 X107.5 Y148.2 E73.79204
G1 X92.5 Y148.2 E74.54039
G1 X91.797 Y148.16 E74.57552
G1 X91.103 Y148.041 E74.61065
G1 X90.428 Y147.843 E74.64574
G1 X90.004 Y147.665 E74.66869
G1 X89.457 Y147.883 E74.69806
G1 X88.777 Y148.067 E74.73321
G1 X88.081 Y148.173 E74.76833
G1 X87.5 Y148.2 E74.79735
G1 X72.5 Y148.2 E75.5457
G1 X71.797 Y148.16 E75.58083
G1 X71.103 Y148.041 E75.61596
G1 X70.428 Y147.843 E75.65106
G1 X69.779 Y147.571 E75.68616
G1 X69.165 Y147.226 E75.7213
G1 X68.594 Y146.815 E75.7564
G1 X68.073 Y146.341 E75.79154
G1 X67.609 Y145.811 E75.82669
G1 X67.209 Y145.232 E75.86179
G1 X66.877 Y144.611 E75.89693
G1 X66.617 Y143.957 E75.93204
G1 X66.433 Y143.277 E75.96718
G1 X66.327 Y142.581 E76.00231
G1 X66.3 Y142 E76.03133
G1 X66.3 Y58 E80.2221
G1 X66.34 Y57.297 E80.25723
G1 X66.459 Y56.603 E80.29236
G1 X66.657 Y55.928 E80.32746
G1 X66.929 Y55.279 E80.36256
G1 X67.274 Y54.665 E80.3977
G1 X67.685 Y54.094 E80.4328
G0 F3600 X68.082 Y54.242
G1 F1800 X68.553 Y53.751 E80.46674
G1 X69.078 Y53.317 E80.50073
G1 X69.65 Y52.948 E80.53469
G1 X70.262 Y52.649 E80.56867
G1 X70.904 Y52.424 E80.60261
G1 X71.569 Y52.275 E80.63661
G1 X72.5 Y52.2 E80.68321
G1 X87.5 Y52.2 E81.43156
G1 X88.18 Y52.24 E81.46554
G1 X88.85 Y52.359 E81.49949
G1 X89.502 Y52.556 E81.53347
G1 X90.004 Y52.775 E81.5608
G1 X90.262 Y52.649 E81.57512
G1 X90.904 Y52.424 E81.60906
G1 X91.569 Y52.275 E81.64306
G1 X92.5 Y52.2 E81.68966
G1 X107.5 Y52.2 E82.43801
G1 X108.18 Y52.24 E82.472
G1 X108.85 Y52.359 E82.50595
G1 X109.502 Y52.556 E82.53993
G1 X110.004 Y52.775 E82.56725
G1 X110.262 Y52.649 E82.58158
G1 X110.904 Y52.424 E82.61552
G1 X111.569 Y52.275 E82.64952
G1 X112.5 Y52.2 E82.69611
G1 X127.5 Y52.2 E83.44447
G1 X128.18 Y52.24 E83.47845
G1 X128.85 Y52.359 E83.5124
