;FLAVOR:Marlin
;TIME:4323
;Filament used: 4.77469m
;Layer height: 0.2
;MINX:61.3
;MINY:67.3
;MINZ:0.3
;MAXX:118.7
;MAXY:152.7
;MAXZ:4.9
;Generated with Cura_SteamEngine 4.1.0
M140 S60
M105
M190 S60
M104 S190
M105
M109 S190
M82 ;absolute extrusion mode
G21 ;metric values
G90 ;absolute positioning
M82 ;set extruder to absolute mode
M107 ;start with the fan off
G28 X0 Y0 ;move X/Y to min endstops
G28 Z0 ;move Z to min endstops
G1 Z15.0 F9000 ;move the platform down 15mm
G92 E0 ;zero the extruded length
G1 F200 E3 ;extrude 3mm of feed stock
G92 E0 ;zero the extruded length again
G1 F9000
;Put printing message on LCD screen
M117 Printing...
G92 E0
G92 E0
G1 F1500 E-6.5
;LAYER_COUNT:24
;LAYER:0
M107
G0 F3600 X62.289 Y68.204 Z0.3
;TYPE:SKIRT
G1 F1500 E0
G1 F1800 X62.68 Y67.883 E0.02524
G1 X63.117 Y67.628 E0.05048
G1 X63.588 Y67.444 E0.07571
G1 X64.082 Y67.338 E0.10092
G1 X64.419 Y67.31 E0.11779
G1 X64.74 Y67.301 E0.13381
G1 X64.83 Y67.3 E0.1383
G1 X78.809 Y67.3 E0.83571
G1 X79.362 Y67.308 E0.86331
G1 X82.345 Y67.303 E1.01213
G1 X82.791 Y67.3 E1.03438
G1 X96.809 Y67.3 E1.73374
G1 X97.36 Y67.308 E1.76123
G1 X100.806 Y67.3 E1.93315
G1 X114.839 Y67.3 E2.63326
G1 X115.537 Y67.31 E2.66809
G1 X116.04 Y67.357 E2.6933
G1 X116.53 Y67.483 E2.71854
G1 X116.994 Y67.685 E2.74378
G1 X117.42 Y67.957 E2.769
G1 X117.798 Y68.292 E2.7942
G1 X118.118 Y68.683 E2.81941
G1 X118.373 Y69.12 E2.84465
G1 X118.556 Y69.591 E2.86986
G1 X118.663 Y70.085 E2.89508
G1 X118.69 Y70.42 E2.91184
G1 X118.699 Y70.74 E2.92781
G1 X118.7 Y70.83 E2.9323
G1 X118.7 Y148.804 E6.82244
G1 X118.691 Y149.531 E6.85872
G1 X118.645 Y150.034 E6.88392
G1 X118.52 Y150.524 E6.90914
G1 X118.319 Y150.988 E6.93437
G1 X118.048 Y151.415 E6.9596
G1 X117.713 Y151.794 E6.98484
G1 X117.323 Y152.115 E7.01004
G1 X116.887 Y152.371 E7.03526
G1 X116.416 Y152.554 E7.06047
G1 X115.922 Y152.662 E7.0857
G1 X115.581 Y152.69 E7.10277
G1 X115.26 Y152.699 E7.11879
G1 X115.17 Y152.7 E7.12328
G1 X101.191 Y152.7 E7.8207
G1 X100.64 Y152.692 E7.84819
G1 X97.194 Y152.7 E8.02011
G1 X83.191 Y152.7 E8.71873
G1 X82.64 Y152.692 E8.74622
G1 X79.194 Y152.7 E8.91814
G1 X65.166 Y152.7 E9.618
G1 X64.468 Y152.691 E9.65283
G1 X63.964 Y152.644 E9.67808
G1 X63.474 Y152.519 E9.70331
G1 X63.01 Y152.318 E9.72854
G1 X62.584 Y152.047 E9.75373
G1 X62.205 Y151.712 E9.77896
G1 X61.884 Y151.321 E9.8042
G1 X61.629 Y150.885 E9.8294
G1 X61.445 Y150.414 E9.85463
G1 X61.338 Y149.92 E9.87984
G1 X61.31 Y149.577 E9.89701
G1 X61.301 Y149.244 E9.91363
G1 X61.3 Y149.158 E9.91792
G1 X61.3 Y71.131 E13.81071
G1 X61.309 Y70.466 E13.84389
G1 X61.356 Y69.962 E13.86914
G1 X61.482 Y69.473 E13.89433
G1 X61.683 Y69.009 E13.91956
G1 X61.954 Y68.582 E13.94479
G1 X62.289 Y68.204 E13.96999
G1 F1500 E7.46999
;MESH:CA_ThanhNgang.stl(3)
G0 F3600 X65.114 Y69.835
G0 X65.114 Y71.114
G0 X65.5 Y71.5
;TYPE:WALL-INNER
G1 F1500 E13.96999
G1 F1800 X78.5 Y71.5 E14.61856
G1 X78.5 Y148.5 E18.46011
G1 X65.5 Y148.5 E19.10868
G1 X65.5 Y71.5 E22.95023
G0 F3600 X65.1 Y71.1
G1 F1800 X78.9 Y71.1 E23.63871
G1 X78.9 Y148.9 E27.52017
G1 X65.1 Y148.9 E28.20866
G1 X65.1 Y71.1 E32.09011
G0 F3600 X64.7 Y70.7
;TYPE:WALL-OUTER
G1 F1800 X79.3 Y70.7 E32.81851
G1 X79.3 Y149.3 E36.73988
G1 X64.7 Y149.3 E37.46828
G1 X64.7 Y70.7 E41.38965
G0 F3600 X64.9 Y70.7
G0 X65.17 Y71.17
G0 X65.89 Y71.89
;TYPE:SKIN
G1 F1800 X78.11 Y71.89 E41.99931
G1 X78.11 Y148.11 E45.80194
G1 X65.89 Y148.11 E46.4116
G1 X65.89 Y71.89 E50.21423
G0 F3600 X77.727 Y72.07
G1 F1800 X77.93 Y72.273 E50.22855
G0 F3600 X77.93 Y72.839
G1 F1800 X77.161 Y72.07 E50.28281
G0 F3600 X76.595 Y72.07
G1 F1800 X77.93 Y73.404 E50.37696
G0 F3600 X77.93 Y73.97
G1 F1800 X76.03 Y72.07 E50.51102
G0 F3600 X75.464 Y72.07
G1 F1800 X77.93 Y74.536 E50.68501
G0 F3600 X77.93 Y75.101
G1 F1800 X74.898 Y72.07 E50.8989
G0 F3600 X74.333 Y72.07
G1 F1800 X77.93 Y75.667 E51.15268
G0 F3600 X77.93 Y76.233
G1 F1800 X73.767 Y72.07 E51.44641
G0 F3600 X73.201 Y72.07
G1 F1800 X77.93 Y76.798 E51.78003
G0 F3600 X77.93 Y77.364
G1 F1800 X72.636 Y72.07 E52.15355
G0 F3600 X72.07 Y72.07
G1 F1800 X77.93 Y77.93 E52.567
G0 F3600 X77.93 Y78.495
G1 F1800 X71.504 Y72.069 E53.02039
G0 F3600 X70.938 Y72.069
G1 F1800 X77.93 Y79.061 E53.51371
G0 F3600 X77.93 Y79.627
G1 F1800 X70.372 Y72.069 E54.04697
G0 F3600 X69.806 Y72.069
G1 F1800 X77.93 Y80.192 E54.62013
G0 F3600 X77.93 Y80.758
G1 F1800 X69.241 Y72.069 E55.23318
G0 F3600 X68.675 Y72.069
G1 F1800 X77.93 Y81.324 E55.88618
G0 F3600 X77.93 Y81.89
G1 F1800 X68.109 Y72.069 E56.5791
G0 F3600 X67.544 Y72.069
G1 F1800 X77.93 Y82.455 E57.31189
G0 F3600 X77.93 Y83.021
G1 F1800 X66.978 Y72.069 E58.08461
G0 F3600 X66.412 Y72.069
G1 F1800 X77.93 Y83.587 E58.89727
G0 F3600 X77.93 Y84.152
G1 F1800 X66.069 Y72.292 E59.73409
G0 F3600 X66.069 Y72.858
G1 F1800 X77.93 Y84.718 E60.57091
G0 F3600 X77.93 Y85.284
G1 F1800 X66.069 Y73.423 E61.40777
G0 F3600 X66.069 Y73.989
G1 F1800 X77.93 Y85.849 E62.24459
G0 F3600 X77.93 Y86.415
G1 F1800 X66.069 Y74.555 E63.08141
G0 F3600 X66.069 Y75.12
G1 F1800 X77.93 Y86.981 E63.91827
G0 F3600 X77.93 Y87.546
G1 F1800 X66.069 Y75.686 E64.75509
G0 F3600 X66.069 Y76.252
G1 F1800 X77.93 Y88.112 E65.59192
G0 F3600 X77.93 Y88.678
G1 F1800 X66.069 Y76.817 E66.42877
G0 F3600 X66.069 Y77.383
G1 F1800 X77.93 Y89.243 E67.2656
G0 F3600 X77.93 Y89.809
G1 F1800 X66.069 Y77.949 E68.10242
G0 F3600 X66.069 Y78.515
G1 F1800 X77.93 Y90.375 E68.93924
G0 F3600 X77.93 Y90.941
G1 F1800 X66.069 Y79.08 E69.7761
G0 F3600 X66.069 Y79.646
G1 F1800 X77.93 Y91.506 E70.61292
G0 F3600 X77.93 Y92.072
G1 F1800 X66.069 Y80.212 E71.44974
G0 F3600 X66.069 Y80.777
G1 F1800 X77.93 Y92.638 E72.2866
G0 F3600 X77.93 Y93.203
G1 F1800 X66.069 Y81.343 E73.12342
G0 F3600 X66.069 Y81.909
G1 F1800 X77.93 Y93.769 E73.96025
G0 F3600 X77.93 Y94.335
G1 F1800 X66.069 Y82.474 E74.7971
G0 F3600 X66.069 Y83.04
G1 F1800 X77.93 Y94.9 E75.63393
G0 F3600 X77.93 Y95.466
G1 F1800 X66.069 Y83.606 E76.47075
G0 F3600 X66.069 Y84.171
G1 F1800 X77.93 Y96.032 E77.30761
G0 F3600 X77.93 Y96.597
G1 F1800 X66.069 Y84.737 E78.14443
G0 F3600 X66.069 Y85.303
G1 F1800 X77.93 Y97.163 E78.98125
G0 F3600 X77.93 Y97.729
G1 F1800 X66.069 Y85.868 E79.81811
G0 F3600 X66.069 Y86.434
G1 F1800 X77.93 Y98.294 E80.65493
G0 F3600 X77.93 Y98.86
G1 F1800 X66.069 Y87 E81.49175
G0 F3600 X66.069 Y87.565
G1 F1800 X77.93 Y99.426 E82.32861
G0 F3600 X77.93 Y99.991
G1 F1800 X66.069 Y88.131 E83.16543
G0 F3600 X66.069 Y88.697
G1 F1800 X77.93 Y100.557 E84.00226
G0 F3600 X77.93 Y101.123
G1 F1800 X66.069 Y89.263 E84.83908
G0 F3600 X66.069 Y89.828
G1 F1800 X77.93 Y101.689 E85.67594
G0 F3600 X77.93 Y102.254
G1 F1800 X66.069 Y90.394 E86.51276
G0 F3600 X66.069 Y90.96
G1 F1800 X77.93 Y102.82 E87.34958
G0 F3600 X77.93 Y103.386
G1 F1800 X66.069 Y91.525 E88.18644
G0 F3600 X66.069 Y92.091
G1 F1800 X77.93 Y103.951 E89.02326
G0 F3600 X77.93 Y104.517
G1 F1800 X66.069 Y92.657 E89.86008
G0 F3600 X66.069 Y93.222
G1 F1800 X77.93 Y105.083 E90.69694
G0 F3600 X77.93 Y105.648
G1 F1800 X66.069 Y93.788 E91.53376
G0 F3600 X66.069 Y94.354
G1 F1800 X77.93 Y106.214 E92.37058
G0 F3600 X77.93 Y106.78
G1 F1800 X66.069 Y94.919 E93.20744
G0 F3600 X66.069 Y95.485
G1 F1800 X77.93 Y107.345 E94.04426
G0 F3600 X77.93 Y107.911
G1 F1800 X66.069 Y96.051 E94.88109
G0 F3600 X66.069 Y96.616
G1 F1800 X77.93 Y108.477 E95.71794
G0 F3600 X77.93 Y109.042
G1 F1800 X66.069 Y97.182 E96.55477
G0 F3600 X66.069 Y97.748
G1 F1800 X77.93 Y109.608 E97.39159
G0 F3600 X77.93 Y110.174
G1 F1800 X66.069 Y98.314 E98.22841
G0 F3600 X66.069 Y98.879
G1 F1800 X77.93 Y110.739 E99.06523
G0 F3600 X77.93 Y111.305
G1 F1800 X66.069 Y99.445 E99.90206
G0 F3600 X66.069 Y100.011
G1 F1800 X77.93 Y111.871 E100.73888
G0 F3600 X77.93 Y112.437
G1 F1800 X66.069 Y100.576 E101.57574
G0 F3600 X66.069 Y101.142
G1 F1800 X77.93 Y113.002 E102.41256
G0 F3600 X77.93 Y113.568
G1 F1800 X66.069 Y101.708 E103.24938
G0 F3600 X66.069 Y102.273
G1 F1800 X77.93 Y114.134 E104.08624
G0 F3600 X77.93 Y114.699
G1 F1800 X66.069 Y102.839 E104.92306
G0 F3600 X66.069 Y103.405
G1 F1800 X77.93 Y115.265 E105.75988
G0 F3600 X77.93 Y115.831
G1 F1800 X66.069 Y103.97 E106.59674
G0 F3600 X66.069 Y104.536
G1 F1800 X77.93 Y116.396 E107.43356
G0 F3600 X77.93 Y116.962
G1 F1800 X66.069 Y105.102 E108.27039
G0 F3600 X66.069 Y105.667
G1 F1800 X77.93 Y117.528 E109.10724
G0 F3600 X77.93 Y118.093
G1 F1800 X66.069 Y106.233 E109.94407
G0 F3600 X66.069 Y106.799
G1 F1800 X77.93 Y118.659 E110.78089
G0 F3600 X77.93 Y119.225
G1 F1800 X66.069 Y107.364 E111.61775
G0 F3600 X66.069 Y107.93
G1 F1800 X77.93 Y119.79 E112.45457
G0 F3600 X77.93 Y120.356
G1 F1800 X66.069 Y108.496 E113.29139
G0 F3600 X66.069 Y109.062
G1 F1800 X77.93 Y120.922 E114.12821
G0 F3600 X77.93 Y121.488
G1 F1800 X66.069 Y109.627 E114.96507
G0 F3600 X66.069 Y110.193
G1 F1800 X77.93 Y122.053 E115.80189
G0 F3600 X77.93 Y122.619
G1 F1800 X66.069 Y110.759 E116.63871
G0 F3600 X66.069 Y111.324
G1 F1800 X77.93 Y123.185 E117.47557
G0 F3600 X77.93 Y123.75
G1 F1800 X66.069 Y111.89 E118.31239
G0 F3600 X66.069 Y112.456
G1 F1800 X77.93 Y124.316 E119.14922
G0 F3600 X77.93 Y124.882
G1 F1800 X66.069 Y113.021 E119.98607
G0 F3600 X66.069 Y113.587
G1 F1800 X77.93 Y125.447 E120.8229
G0 F3600 X77.93 Y126.013
G1 F1800 X66.069 Y114.153 E121.65972
G0 F3600 X66.069 Y114.718
G1 F1800 X77.93 Y126.579 E122.49658
G0 F3600 X77.93 Y127.144
G1 F1800 X66.069 Y115.284 E123.3334
G0 F3600 X66.069 Y115.85
G1 F1800 X77.93 Y127.71 E124.17022
G0 F3600 X77.93 Y128.276
G1 F1800 X66.069 Y116.415 E125.00708
G0 F3600 X66.069 Y116.981
G1 F1800 X77.93 Y128.841 E125.8439
G0 F3600 X77.93 Y129.407
G1 F1800 X66.069 Y117.547 E126.68072
G0 F3600 X66.069 Y118.112
G1 F1800 X77.93 Y129.973 E127.51758
G0 F3600 X77.93 Y130.538
G1 F1800 X66.069 Y118.678 E128.3544
G0 F3600 X66.069 Y119.244
G1 F1800 X77.93 Y131.104 E129.19123
G0 F3600 X77.93 Y131.67
G1 F1800 X66.069 Y119.81 E130.02805
G0 F3600 X66.069 Y120.375
G1 F1800 X77.93 Y132.236 E130.86491
G0 F3600 X77.93 Y132.801
G1 F1800 X66.069 Y120.941 E131.70173
G0 F3600 X66.069 Y121.507
G1 F1800 X77.93 Y133.367 E132.53855
G0 F3600 X77.93 Y133.933
G1 F1800 X66.069 Y122.072 E133.37541
G0 F3600 X66.069 Y122.638
G1 F1800 X77.93 Y134.498 E134.21223
G0 F3600 X77.93 Y135.064
G1 F1800 X66.069 Y123.204 E135.04905
G0 F3600 X66.069 Y123.769
G1 F1800 X77.93 Y135.63 E135.88591
G0 F3600 X77.93 Y136.195
G1 F1800 X66.069 Y124.335 E136.72273
G0 F3600 X66.069 Y124.901
G1 F1800 X77.93 Y136.761 E137.55956
G0 F3600 X77.93 Y137.327
G1 F1800 X66.069 Y125.466 E138.39641
G0 F3600 X66.069 Y126.032
G1 F1800 X77.93 Y137.892 E139.23324
G0 F3600 X77.93 Y138.458
G1 F1800 X66.069 Y126.598 E140.07006
G0 F3600 X66.069 Y127.163
G1 F1800 X77.93 Y139.024 E140.90692
G0 F3600 X77.93 Y139.589
G1 F1800 X66.069 Y127.729 E141.74374
G0 F3600 X66.069 Y128.295
G1 F1800 X77.93 Y140.155 E142.58056
G0 F3600 X77.93 Y140.721
G1 F1800 X66.069 Y128.861 E143.41738
G0 F3600 X66.069 Y129.426
G1 F1800 X77.93 Y141.287 E144.25424
G0 F3600 X77.93 Y141.852
G1 F1800 X66.069 Y129.992 E145.09106
G0 F3600 X66.069 Y130.558
G1 F1800 X77.93 Y142.418 E145.92788
G0 F3600 X77.93 Y142.984
G1 F1800 X66.069 Y131.123 E146.76474
G0 F3600 X66.069 Y131.689
G1 F1800 X77.93 Y143.549 E147.60156
G0 F3600 X77.93 Y144.115
G1 F1800 X66.069 Y132.255 E148.43839
G0 F3600 X66.069 Y132.82
G1 F1800 X77.93 Y144.681 E149.27524
G0 F3600 X77.93 Y145.246
G1 F1800 X66.069 Y133.386 E150.11207
G0 F3600 X66.069 Y133.952
G1 F1800 X77.93 Y145.812 E150.94889
G0 F3600 X77.93 Y146.378
G1 F1800 X66.069 Y134.517 E151.78575
G0 F3600 X66.069 Y135.083
G1 F1800 X77.93 Y146.943 E152.62257
G0 F3600 X77.93 Y147.509
G1 F1800 X66.069 Y135.649 E153.45939
G0 F3600 X66.069 Y136.214
G1 F1800 X77.783 Y147.928 E154.28588
G0 F3600 X77.218 Y147.928
G1 F1800 X66.069 Y136.78 E155.07246
G0 F3600 X66.069 Y137.346
G1 F1800 X76.652 Y147.928 E155.81912
G0 F3600 X76.086 Y147.928
G1 F1800 X66.069 Y137.911 E156.52587
G0 F3600 X66.069 Y138.477
G1 F1800 X75.521 Y147.928 E157.19272
G0 F3600 X74.955 Y147.928
G1 F1800 X66.069 Y139.043 E157.81964
G0 F3600 X66.069 Y139.609
G1 F1800 X74.389 Y147.928 E158.40663
G0 F3600 X73.824 Y147.928
G1 F1800 X66.069 Y140.174 E158.95375
G0 F3600 X66.069 Y140.74
G1 F1800 X73.258 Y147.928 E159.46094
G0 F3600 X72.692 Y147.928
G1 F1800 X66.069 Y141.306 E159.92819
G0 F3600 X66.069 Y141.871
G1 F1800 X72.127 Y147.928 E160.35558
G0 F3600 X71.561 Y147.928
G1 F1800 X66.069 Y142.437 E160.74304
G0 F3600 X66.069 Y143.003
G1 F1800 X70.995 Y147.928 E161.09056
G0 F3600 X70.429 Y147.928
G1 F1800 X66.069 Y143.568 E161.39818
G0 F3600 X66.069 Y144.134
G1 F1800 X69.864 Y147.928 E161.6659
G0 F3600 X69.298 Y147.928
G1 F1800 X66.069 Y144.7 E161.89369
G0 F3600 X66.069 Y145.265
G1 F1800 X68.732 Y147.928 E162.08158
G0 F3600 X68.167 Y147.928
G1 F1800 X66.069 Y145.831 E162.22957
G0 F3600 X66.069 Y146.397
G1 F1800 X67.601 Y147.928 E162.33762
G0 F3600 X67.035 Y147.928
G1 F1800 X66.069 Y146.962 E162.40578
G0 F3600 X66.069 Y147.528
G1 F1800 X66.47 Y147.928 E162.43404
G1 F1500 E155.93404
;MESH:CA_ThanhNgang.stl
G0 F3600 X78.88 Y148.5
G0 X80.165 Y148.5
G0 X81.835 Y148.5
G0 X83.12 Y148.5
G0 X83.5 Y148.5
;TYPE:WALL-INNER
G1 F1500 E162.43404
G1 F1800 X83.5 Y71.5 E166.27558
G1 X96.5 Y71.5 E166.92416
G1 X96.5 Y148.5 E170.7657
G1 X83.5 Y148.5 E171.41427
G0 F3600 X83.1 Y148.9
G1 F1800 X83.1 Y71.1 E175.29573
G1 X96.9 Y71.1 E175.98422
G1 X96.9 Y148.9 E179.86568
G1 X83.1 Y148.9 E180.55416
G0 F3600 X82.7 Y149.3
;TYPE:WALL-OUTER
G1 F1800 X82.7 Y70.7 E184.47553
G1 X97.3 Y70.7 E185.20393
G1 X97.3 Y149.3 E189.1253
G1 X82.7 Y149.3 E189.85369
G0 F3600 X82.7 Y149.1
G0 X83.17 Y148.83
G0 X83.89 Y148.11
;TYPE:SKIN
G1 F1800 X83.89 Y71.89 E193.65632
G1 X96.11 Y71.89 E194.26598
G1 X96.11 Y148.11 E198.06861
G1 X83.89 Y148.11 E198.67827
G0 F3600 X84.572 Y147.928
G1 F1800 X84.069 Y147.426 E198.71373
G0 F3600 X84.069 Y146.86
G1 F1800 X85.137 Y147.928 E198.78908
G0 F3600 X85.703 Y147.928
G1 F1800 X84.069 Y146.294 E198.90437
G0 F3600 X84.069 Y145.729
G1 F1800 X86.269 Y147.928 E199.05955
G0 F3600 X86.834 Y147.928
G1 F1800 X84.069 Y145.163 E199.25464
G0 F3600 X84.069 Y144.597
G1 F1800 X87.4 Y147.928 E199.48966
G0 F3600 X87.966 Y147.928
G1 F1800 X84.069 Y144.031 E199.76461
G0 F3600 X84.069 Y143.466
G1 F1800 X88.531 Y147.928 E200.07943
G0 F3600 X89.097 Y147.928
G1 F1800 X84.069 Y142.9 E200.43419
G0 F3600 X84.069 Y142.334
G1 F1800 X89.663 Y147.928 E200.82887
G0 F3600 X90.228 Y147.928
G1 F1800 X84.069 Y141.769 E201.26342
G0 F3600 X84.069 Y141.203
G1 F1800 X90.794 Y147.928 E201.73791
G0 F3600 X91.36 Y147.928
G1 F1800 X84.069 Y140.637 E202.25233
G0 F3600 X84.069 Y140.072
G1 F1800 X91.926 Y147.928 E202.80665
G0 F3600 X92.491 Y147.928
G1 F1800 X84.069 Y139.506 E203.40086
G0 F3600 X84.069 Y138.94
G1 F1800 X93.057 Y147.928 E204.03502
G0 F3600 X93.623 Y147.928
G1 F1800 X84.069 Y138.375 E204.70907
G0 F3600 X84.069 Y137.809
G1 F1800 X94.188 Y147.928 E205.42302
G0 F3600 X94.754 Y147.928
G1 F1800 X84.069 Y137.243 E206.1769
G0 F3600 X84.069 Y136.678
G1 F1800 X95.32 Y147.928 E206.97068
G0 F3600 X95.885 Y147.928
G1 F1800 X84.069 Y136.112 E207.80437
G0 F3600 X84.069 Y135.546
G1 F1800 X95.93 Y147.407 E208.64122
G0 F3600 X95.93 Y146.842
G1 F1800 X84.069 Y134.981 E209.47808
G0 F3600 X84.069 Y134.415
G1 F1800 X95.93 Y146.276 E210.31494
G0 F3600 X95.93 Y145.71
G1 F1800 X84.069 Y133.849 E211.1518
G0 F3600 X84.069 Y133.283
G1 F1800 X95.93 Y145.144 E211.98866
G0 F3600 X95.93 Y144.579
G1 F1800 X84.069 Y132.718 E212.82551
G0 F3600 X84.069 Y132.152
G1 F1800 X95.93 Y144.013 E213.66237
G0 F3600 X95.93 Y143.447
G1 F1800 X84.069 Y131.586 E214.49923
G0 F3600 X84.069 Y131.021
G1 F1800 X95.93 Y142.882 E215.33609
G0 F3600 X95.93 Y142.316
G1 F1800 X84.069 Y130.455 E216.17294
G0 F3600 X84.069 Y129.889
G1 F1800 X95.93 Y141.75 E217.0098
G0 F3600 X95.93 Y141.185
G1 F1800 X84.069 Y129.324 E217.84666
G0 F3600 X84.069 Y128.758
G1 F1800 X95.93 Y140.619 E218.68352
G0 F3600 X95.93 Y140.053
G1 F1800 X84.069 Y128.192 E219.52037
G0 F3600 X84.069 Y127.627
G1 F1800 X95.93 Y139.488 E220.35723
G0 F3600 X95.93 Y138.922
G1 F1800 X84.069 Y127.061 E221.19409
G0 F3600 X84.069 Y126.495
G1 F1800 X95.93 Y138.356 E222.03095
G0 F3600 X95.93 Y137.791
G1 F1800 X84.069 Y125.93 E222.8678
G0 F3600 X84.069 Y125.364
