;FLAVOR:Marlin
;TIME:9532
;Filament used: 10.01m
;Layer height: 0.2
;MINX:54.29
;MINY:65.841
;MINZ:0.3
;MAXX:165.7
;MAXY:154.158
;MAXZ:9.9
;Generated with Cura_SteamEngine 4.1.0
M140 S60
M105
M190 S60
M104 S190
M105
M109 S190
M82 ;absolute extrusion mode
G21 ;metric values
G90 ;absolute positioning
M82 ;set extruder to absolute mode
M107 ;start with the fan off
G28 X0 Y0 ;move X/Y to min endstops
G28 Z0 ;move Z to min endstops
G1 Z15.0 F9000 ;move the platform down 15mm
G92 E0 ;zero the extruded length
G1 F200 E3 ;extrude 3mm of feed stock
G92 E0 ;zero the extruded length again
G1 F9000
;Put printing message on LCD screen
M117 Printing...
G92 E0
G92 E0
G1 F1500 E-6.5
;LAYER_COUNT:49
;LAYER:0
M107
G0 F3600 X55.706 Y66.493 Z0.3
;TYPE:SKIRT
G1 F1500 E0
G1 F1800 X56.133 Y66.222 E0.02523
G1 X56.597 Y66.022 E0.05044
G1 X57.087 Y65.898 E0.07566
G1 X57.57 Y65.853 E0.09986
G1 X58.13 Y65.843 E0.1278
G1 X58.187 Y65.842 E0.13064
G1 X68.32 Y65.841 E0.63618
G1 X161.677 Y65.843 E5.29378
G1 X161.723 Y65.843 E5.29608
G1 X162.424 Y65.853 E5.33105
G1 X162.927 Y65.9 E5.35626
G1 X163.417 Y66.026 E5.3815
G1 X163.88 Y66.228 E5.4067
G1 X164.307 Y66.5 E5.43196
G1 X164.62 Y66.77 E5.45258
G1 X164.732 Y66.88 E5.46041
G1 X165.064 Y67.262 E5.48566
G1 X165.331 Y67.691 E5.51087
G1 X165.528 Y68.157 E5.53611
G1 X165.648 Y68.648 E5.56133
G1 X165.689 Y69.103 E5.58412
G1 X165.699 Y69.638 E5.61082
G1 X165.7 Y69.698 E5.61381
G1 X165.7 Y71.839 E5.72063
G1 X165.69 Y72.532 E5.75521
G1 X165.642 Y73.036 E5.78046
G1 X165.481 Y73.623 E5.81083
G1 X165.389 Y73.865 E5.82375
G1 X165.384 Y73.879 E5.82449
G1 X164.387 Y76.467 E5.96285
G1 X163.465 Y79.078 E6.101
G1 X162.638 Y81.651 E6.23584
G1 X161.871 Y84.29 E6.37294
G1 X161.177 Y86.954 E6.51029
G1 X160.563 Y89.62 E6.64678
G1 X160.024 Y92.31 E6.78365
G1 X159.568 Y94.981 E6.91883
G1 X159.181 Y97.691 E7.05541
G1 X158.866 Y100.469 E7.19489
G1 X158.64 Y103.132 E7.32823
G1 X158.484 Y105.88 E7.46555
G1 X158.406 Y108.632 E7.6029
G1 X158.406 Y111.35 E7.7385
G1 X158.484 Y114.102 E7.87585
G1 X158.64 Y116.851 E8.01322
G1 X158.866 Y119.513 E8.14651
G1 X159.182 Y122.294 E8.28614
G1 X159.566 Y124.99 E8.42201
G1 X160.029 Y127.695 E8.55892
G1 X160.561 Y130.346 E8.69382
G1 X161.178 Y133.031 E8.83126
G1 X161.865 Y135.673 E8.96746
G1 X162.634 Y138.318 E9.10488
G1 X163.479 Y140.945 E9.24256
G1 X164.385 Y143.512 E9.37837
G1 X165.475 Y146.351 E9.53009
G1 X165.619 Y146.836 E9.55533
G1 X165.686 Y147.382 E9.58277
G1 X165.698 Y147.714 E9.59934
G1 X165.7 Y147.83 E9.60513
G1 X165.7 Y150.151 E9.72093
G1 X165.69 Y150.876 E9.7571
G1 X165.643 Y151.38 E9.78236
G1 X165.517 Y151.869 E9.80755
G1 X165.316 Y152.333 E9.83278
G1 X165.044 Y152.759 E9.85799
G1 X164.792 Y153.055 E9.87739
G1 X164.68 Y153.171 E9.88543
G1 X164.301 Y153.506 E9.91067
G1 X163.874 Y153.777 E9.9359
G1 X163.41 Y153.977 E9.96111
G1 X162.92 Y154.102 E9.98634
G1 X162.435 Y154.147 E10.01064
G1 X161.878 Y154.157 E10.03843
G1 X161.821 Y154.158 E10.04127
G1 X58.278 Y154.158 E15.20706
G1 X57.577 Y154.148 E15.24203
G1 X57.074 Y154.101 E15.26724
G1 X56.584 Y153.975 E15.29248
G1 X56.121 Y153.773 E15.31768
G1 X55.694 Y153.501 E15.34294
G1 X55.37 Y153.221 E15.3643
G1 X55.257 Y153.109 E15.37224
G1 X54.927 Y152.726 E15.39746
G1 X54.662 Y152.295 E15.4227
G1 X54.468 Y151.829 E15.44789
G1 X54.349 Y151.337 E15.47314
G1 X54.31 Y150.889 E15.49558
G1 X54.3 Y150.289 E15.52551
G1 X54.3 Y71.403 E19.46115
G1 X54.29 Y70.703 E19.49608
G1 X54.29 Y70.614 E19.50052
G1 X54.31 Y69.13 E19.57456
G1 X54.357 Y68.626 E19.59982
G1 X54.482 Y68.137 E19.625
G1 X54.683 Y67.673 E19.65023
G1 X54.955 Y67.246 E19.67548
G1 X55.21 Y66.949 E19.69501
G1 X55.327 Y66.828 E19.70341
G1 X55.706 Y66.493 E19.72865
G0 F3600 X57.704 Y69.242
;TYPE:SUPPORT
G1 F1800 X68.32 Y69.241 E20.25828
G1 X162.3 Y69.243 E24.94696
G1 X162.3 Y70.351 E25.00224
G1 X157.902 Y70.35 E25.22166
G1 X57.7 Y70.364 E30.22076
G1 X57.7 Y69.246 E30.27653
G1 X57.704 Y69.242 E30.27682
G0 F3600 X58.674 Y69.401
G1 F1800 X58.674 Y70.204 E30.31688
G0 F3600 X61.341 Y70.204
G1 F1800 X61.341 Y69.401 E30.35694
G0 F3600 X64.008 Y69.401
G1 F1800 X64.008 Y70.204 E30.397
G0 F3600 X66.675 Y70.203
G1 F1800 X66.675 Y69.401 E30.43701
G0 F3600 X69.342 Y69.402
G1 F1800 X69.342 Y70.203 E30.47697
G0 F3600 X72.009 Y70.203
G1 F1800 X72.009 Y69.402 E30.51694
G0 F3600 X74.676 Y69.402
G1 F1800 X74.676 Y70.202 E30.55685
G0 F3600 X77.343 Y70.202
G1 F1800 X77.343 Y69.402 E30.59676
G0 F3600 X80.01 Y69.402
G1 F1800 X80.01 Y70.201 E30.63662
G0 F3600 X82.677 Y70.201
G1 F1800 X82.677 Y69.402 E30.67649
G0 F3600 X85.344 Y69.402
G1 F1800 X85.344 Y70.201 E30.71635
G0 F3600 X88.011 Y70.2
G1 F1800 X88.011 Y69.402 E30.75616
G0 F3600 X90.678 Y69.402
G1 F1800 X90.678 Y70.2 E30.79597
G0 F3600 X93.345 Y70.2
G1 F1800 X93.345 Y69.402 E30.83579
G0 F3600 X96.012 Y69.402
G1 F1800 X96.012 Y70.199 E30.87555
G0 F3600 X98.679 Y70.199
G1 F1800 X98.679 Y69.402 E30.91531
G0 F3600 X101.346 Y69.402
G1 F1800 X101.346 Y70.198 E30.95502
G0 F3600 X104.013 Y70.198
G1 F1800 X104.013 Y69.402 E30.99474
G0 F3600 X106.68 Y69.402
G1 F1800 X106.68 Y70.198 E31.03445
G0 F3600 X109.347 Y70.197
G1 F1800 X109.347 Y69.402 E31.07411
G0 F3600 X112.014 Y69.402
G1 F1800 X112.014 Y70.197 E31.11377
G0 F3600 X114.681 Y70.197
G1 F1800 X114.681 Y69.402 E31.15344
G0 F3600 X117.348 Y69.403
G1 F1800 X117.348 Y70.196 E31.193
G0 F3600 X120.015 Y70.196
G1 F1800 X120.015 Y69.403 E31.23256
G0 F3600 X122.682 Y69.403
G1 F1800 X122.682 Y70.195 E31.27207
G0 F3600 X125.349 Y70.195
G1 F1800 X125.349 Y69.403 E31.31159
G0 F3600 X128.016 Y69.403
G1 F1800 X128.016 Y70.195 E31.3511
G0 F3600 X130.683 Y70.194
G1 F1800 X130.683 Y69.403 E31.39056
G0 F3600 X133.35 Y69.403
G1 F1800 X133.35 Y70.194 E31.43003
G0 F3600 X136.017 Y70.194
G1 F1800 X136.017 Y69.403 E31.46949
G0 F3600 X138.684 Y69.403
G1 F1800 X138.684 Y70.193 E31.5089
G0 F3600 X141.351 Y70.193
G1 F1800 X141.351 Y69.403 E31.54832
G0 F3600 X144.018 Y69.403
G1 F1800 X144.018 Y70.192 E31.58768
G0 F3600 X146.685 Y70.192
G1 F1800 X146.685 Y69.403 E31.62704
G0 F3600 X149.352 Y69.403
G1 F1800 X149.352 Y70.192 E31.66641
G0 F3600 X152.019 Y70.191
G1 F1800 X152.019 Y69.403 E31.70572
G0 F3600 X154.686 Y69.403
G1 F1800 X154.686 Y70.191 E31.74503
G0 F3600 X157.353 Y70.191
G1 F1800 X157.353 Y69.403 E31.78435
G0 F3600 X160.02 Y69.403
G1 F1800 X160.02 Y70.19 E31.82361
G1 F1500 E25.32361
G0 F3600 X162.657 Y70.686
G0 X163.161 Y148.811
G0 X157.903 Y149.649
G1 F1500 E31.82361
G1 F1800 X162.3 Y149.65 E32.04298
G1 X162.3 Y150.758 E32.09826
G1 X57.7 Y150.758 E37.31677
G1 X57.7 Y149.636 E37.37275
G1 X157.903 Y149.649 E42.3719
G0 F3600 X157.353 Y149.809
G1 F1800 X157.353 Y150.598 E42.41126
G0 F3600 X154.686 Y150.598
G1 F1800 X154.686 Y149.809 E42.45062
G0 F3600 X152.019 Y149.809
G1 F1800 X152.019 Y150.598 E42.48999
G0 F3600 X149.352 Y150.598
G1 F1800 X149.352 Y149.808 E42.5294
G0 F3600 X146.685 Y149.808
G1 F1800 X146.685 Y150.598 E42.56881
G0 F3600 X144.018 Y150.598
G1 F1800 X144.018 Y149.808 E42.60823
G0 F3600 X141.351 Y149.807
G1 F1800 X141.351 Y150.598 E42.64769
G0 F3600 X138.684 Y150.598
G1 F1800 X138.684 Y149.807 E42.68715
G0 F3600 X136.017 Y149.807
G1 F1800 X136.017 Y150.598 E42.72662
G0 F3600 X133.35 Y150.598
G1 F1800 X133.35 Y149.806 E42.76613
G0 F3600 X130.683 Y149.806
G1 F1800 X130.683 Y150.598 E42.80564
G0 F3600 X128.016 Y150.598
G1 F1800 X128.016 Y149.806 E42.84516
G0 F3600 X125.349 Y149.805
G1 F1800 X125.349 Y150.598 E42.88472
G0 F3600 X122.682 Y150.598
G1 F1800 X122.682 Y149.805 E42.92428
G0 F3600 X120.015 Y149.805
G1 F1800 X120.015 Y150.598 E42.96384
G0 F3600 X117.348 Y150.598
G1 F1800 X117.348 Y149.804 E43.00346
G0 F3600 X114.681 Y149.804
G1 F1800 X114.681 Y150.598 E43.04307
G0 F3600 X112.014 Y150.598
G1 F1800 X112.014 Y149.804 E43.08268
G0 F3600 X109.347 Y149.803
G1 F1800 X109.347 Y150.598 E43.12235
G0 F3600 X106.68 Y150.598
G1 F1800 X106.68 Y149.803 E43.16201
G0 F3600 X104.013 Y149.802
G1 F1800 X104.013 Y150.598 E43.20172
G0 F3600 X101.346 Y150.598
G1 F1800 X101.346 Y149.802 E43.24143
G0 F3600 X98.679 Y149.802
G1 F1800 X98.679 Y150.598 E43.28115
G0 F3600 X96.012 Y150.598
G1 F1800 X96.012 Y149.801 E43.32091
G0 F3600 X93.345 Y149.801
G1 F1800 X93.345 Y150.598 E43.36067
G0 F3600 X90.678 Y150.598
G1 F1800 X90.678 Y149.801 E43.40043
G0 F3600 X88.011 Y149.8
G1 F1800 X88.011 Y150.598 E43.44025
G0 F3600 X85.344 Y150.598
G1 F1800 X85.344 Y149.8 E43.48006
G0 F3600 X82.677 Y149.8
G1 F1800 X82.677 Y150.598 E43.51987
G0 F3600 X80.01 Y150.598
G1 F1800 X80.01 Y149.799 E43.55973
G0 F3600 X77.343 Y149.799
G1 F1800 X77.343 Y150.598 E43.59959
G0 F3600 X74.676 Y150.598
G1 F1800 X74.676 Y149.799 E43.63946
G0 F3600 X72.009 Y149.798
G1 F1800 X72.009 Y150.598 E43.67937
G0 F3600 X69.342 Y150.598
G1 F1800 X69.342 Y149.798 E43.71928
G0 F3600 X66.675 Y149.798
G1 F1800 X66.675 Y150.598 E43.75919
G0 F3600 X64.008 Y150.598
G1 F1800 X64.008 Y149.797 E43.79916
G0 F3600 X61.341 Y149.797
G1 F1800 X61.341 Y150.598 E43.83912
G0 F3600 X58.674 Y150.598
G1 F1800 X58.674 Y149.797 E43.87908
G0 F3600 X160.02 Y149.81
G1 F1800 X160.02 Y150.598 E43.91839
G1 F1500 E37.41839
;MESH:CASW3-NapHop.stl
G0 F3600 X160.02 Y148.469
G0 X141.872 Y147.713
G0 X141.5 Y147.658
;TYPE:WALL-INNER
G1 F1500 E43.91839
G1 F1800 X140.265 Y147.658 E43.98001
G1 X58.5 Y147.643 E48.05928
G1 X58.5 Y72.357 E51.81531
G1 X140.264 Y72.341 E55.89454
G1 X141.5 Y72.341 E55.9562
G1 X141.5 Y147.658 E59.71378
G0 F3600 X129.077 Y127.077
G1 F1800 X130.667 Y125.005 E59.84408
G1 X131.668 Y122.589 E59.97455
G1 X132.008 Y120 E60.10483
G1 X131.668 Y117.411 E60.2351
G1 X130.667 Y114.995 E60.36557
G1 X129.077 Y112.923 E60.49587
G1 X127.005 Y111.333 E60.62618
G1 X124.589 Y110.332 E60.75665
G1 X122 Y109.992 E60.88692
G1 X119.411 Y110.332 E61.0172
G1 X116.995 Y111.333 E61.14767
G1 X114.923 Y112.923 E61.27797
G1 X113.333 Y114.995 E61.40827
G1 X112.332 Y117.411 E61.53874
G1 X111.992 Y120 E61.66901
G1 X112.332 Y122.589 E61.79929
G1 X113.333 Y125.005 E61.92976
G1 X114.923 Y127.077 E62.06006
G1 X116.995 Y128.667 E62.19036
G1 X119.411 Y129.668 E62.32083
G1 X122 Y130.008 E62.45111
G1 X124.589 Y129.668 E62.58138
G1 X127.005 Y128.667 E62.71185
G1 X129.077 Y127.077 E62.84216
G0 F3600 X126.822 Y128.352
G0 X124.492 Y129.317
G0 X122 Y129.646
G0 X119.508 Y129.317
G0 X108.667 Y125.005
G1 F1800 X109.668 Y122.589 E62.97263
G1 X110.008 Y120 E63.1029
G1 X109.668 Y117.411 E63.23318
G1 X108.667 Y114.995 E63.36365
G1 X107.077 Y112.923 E63.49395
G1 X105.005 Y111.333 E63.62425
G1 X102.589 Y110.332 E63.75472
G1 X100 Y109.992 E63.88499
G1 X97.411 Y110.332 E64.01527
G1 X94.995 Y111.333 E64.14574
G1 X92.923 Y112.923 E64.27604
G1 X91.333 Y114.995 E64.40634
G1 X90.332 Y117.411 E64.53681
G1 X89.992 Y120 E64.66709
G1 X90.332 Y122.589 E64.79736
G1 X91.333 Y125.005 E64.92783
G1 X92.923 Y127.077 E65.05813
G1 X94.995 Y128.667 E65.18844
G1 X97.411 Y129.668 E65.31891
G1 X100 Y130.008 E65.44918
G1 X102.589 Y129.668 E65.57946
G1 X105.005 Y128.667 E65.70993
G1 X107.077 Y127.077 E65.84023
G1 X108.667 Y125.005 E65.97053
G0 F3600 X106.82 Y126.82
G0 X104.822 Y128.352
G0 X102.492 Y129.317
G0 X100 Y129.646
G0 X97.508 Y129.317
G0 X95.178 Y128.352
G0 X87.668 Y122.589
G1 F1800 X88.008 Y120 E66.1008
G1 X87.668 Y117.411 E66.23108
G1 X86.667 Y114.995 E66.36155
G1 X85.077 Y112.923 E66.49185
G1 X83.005 Y111.333 E66.62215
G1 X80.589 Y110.332 E66.75262
G1 X78 Y109.992 E66.8829
G1 X75.411 Y110.332 E67.01317
G1 X72.995 Y111.333 E67.14364
G1 X70.923 Y112.923 E67.27394
G1 X69.333 Y114.995 E67.40425
G1 X68.332 Y117.411 E67.53472
G1 X67.992 Y120 E67.66499
G1 X68.332 Y122.589 E67.79527
G1 X69.333 Y125.005 E67.92574
G1 X70.923 Y127.077 E68.05604
G1 X72.995 Y128.667 E68.18634
G1 X75.411 Y129.668 E68.31681
G1 X78 Y130.008 E68.44708
G1 X80.589 Y129.668 E68.57736
G1 X83.005 Y128.667 E68.70783
G1 X85.077 Y127.077 E68.83813
G1 X86.667 Y125.005 E68.96843
G1 X87.668 Y122.589 E69.0989
G0 F3600 X87.646 Y120
G0 X87.317 Y117.508
G0 X82.4 Y101
G1 F1800 X82.4 Y93.8 E69.45811
G1 X73.6 Y93.8 E69.89715
G1 X73.6 Y101 E70.25636
G1 X82.4 Y101 E70.69539
G0 F3600 X104.4 Y101
G1 F1800 X104.4 Y93.8 E71.0546
G1 X95.6 Y93.8 E71.49363
G1 X95.6 Y101 E71.85284
G1 X104.4 Y101 E72.29188
G0 F3600 X126.4 Y101
G1 F1800 X126.4 Y93.8 E72.65109
G1 X117.6 Y93.8 E73.09012
G1 X117.6 Y101 E73.44933
G1 X126.4 Y101 E73.88836
G0 F3600 X126 Y100.6
G1 F1800 X126 Y94.2 E74.20766
G1 X118 Y94.2 E74.60678
G1 X118 Y100.6 E74.92608
G1 X126 Y100.6 E75.3252
G0 F3600 X126.07 Y100.67
G0 X124.523 Y110.631
G0 X124.485 Y110.722
G1 F1800 X122 Y110.395 E75.45025
G1 X119.515 Y110.722 E75.57529
G1 X117.197 Y111.682 E75.70046
G1 X115.208 Y113.208 E75.82554
G1 X113.682 Y115.197 E75.95061
G1 X112.722 Y117.515 E76.07578
G1 X112.395 Y120 E76.20083
G1 X112.722 Y122.485 E76.32587
G1 X113.682 Y124.803 E76.45104
G1 X115.208 Y126.792 E76.57611
G1 X117.197 Y128.318 E76.70119
G1 X119.515 Y129.278 E76.82636
G1 X122 Y129.605 E76.9514
G1 X124.485 Y129.278 E77.07645
G1 X126.803 Y128.318 E77.20162
G1 X128.792 Y126.792 E77.32669
G1 X130.318 Y124.803 E77.45176
G1 X131.278 Y122.485 E77.57694
G1 X131.605 Y120 E77.70198
G1 X131.278 Y117.515 E77.82703
G1 X130.318 Y115.197 E77.9522
G1 X128.792 Y113.208 E78.07727
G1 X126.803 Y111.682 E78.20234
G1 X124.485 Y110.722 E78.32751
G0 F3600 X124.523 Y110.631
G0 X122 Y110.354
G0 X119.508 Y110.683
G0 X108.404 Y115.148
G0 X108.318 Y115.197
G1 F1800 X106.792 Y113.208 E78.45259
G1 X104.803 Y111.682 E78.57766
G1 X102.485 Y110.722 E78.70283
G1 X100 Y110.395 E78.82788
G1 X97.515 Y110.722 E78.95292
G1 X95.197 Y111.682 E79.07809
G1 X93.208 Y113.208 E79.20316
G1 X91.682 Y115.197 E79.32824
G1 X90.722 Y117.515 E79.45341
G1 X90.395 Y120 E79.57845
G1 X90.722 Y122.485 E79.7035
G1 X91.682 Y124.803 E79.82867
G1 X93.208 Y126.792 E79.95374
G1 X95.197 Y128.318 E80.07881
G1 X97.515 Y129.278 E80.20399
G1 X100 Y129.605 E80.32903
G1 X102.485 Y129.278 E80.45408
G1 X104.803 Y128.318 E80.57925
G1 X106.792 Y126.792 E80.70432
G1 X108.318 Y124.803 E80.82939
G1 X109.278 Y122.485 E80.95456
G1 X109.605 Y120 E81.07961
G1 X109.278 Y117.515 E81.20466
G1 X108.318 Y115.197 E81.32983
G0 F3600 X108.404 Y115.148
G0 X104.07 Y100.67
G0 X104 Y100.6
G1 F1800 X104 Y94.2 E81.64912
G1 X96 Y94.2 E82.04825
G1 X96 Y100.6 E82.36754
G1 X104 Y100.6 E82.76666
G0 F3600 X104.07 Y100.67
G0 X82.07 Y100.67
G0 X82 Y100.6
G1 F1800 X82 Y94.2 E83.08596
G1 X74 Y94.2 E83.48508
G1 X74 Y100.6 E83.80438
G1 X82 Y100.6 E84.2035
G0 F3600 X82.07 Y100.67
G0 X87.37 Y117.478
G0 X87.278 Y117.515
G1 F1800 X86.318 Y115.197 E84.32867
G1 X84.792 Y113.208 E84.45375
G1 X82.803 Y111.682 E84.57882
G1 X80.485 Y110.722 E84.70399
G1 X78 Y110.395 E84.82903
G1 X75.515 Y110.722 E84.95408
G1 X73.197 Y111.682 E85.07925
G1 X71.208 Y113.208 E85.20432
G1 X69.682 Y115.197 E85.3294
G1 X68.722 Y117.515 E85.45457
G1 X68.395 Y120 E85.57961
G1 X68.722 Y122.485 E85.70466
G1 X69.682 Y124.803 E85.82983
G1 X71.208 Y126.792 E85.9549
G1 X73.197 Y128.318 E86.07997
G1 X75.515 Y129.278 E86.20515
G1 X78 Y129.605 E86.33019
G1 X80.485 Y129.278 E86.45524
G1 X82.803 Y128.318 E86.58041
G1 X84.792 Y126.792 E86.70548
G1 X86.318 Y124.803 E86.83055
G1 X87.278 Y122.485 E86.95572
G1 X87.605 Y120 E87.08077
G1 X87.278 Y117.515 E87.20582
G0 F3600 X87.37 Y117.478
G0 X140.264 Y72.041
G0 X140.264 Y71.941
G1 F1800 X141.9 Y71.941 E87.28744
G1 X141.9 Y148.058 E91.08493
G1 X140.265 Y148.058 E91.1665
G1 X58.1 Y148.043 E95.26573
G1 X58.1 Y71.957 E99.06167
G1 X140.264 Y71.941 E103.16085
G0 F3600 X140.264 Y72.041
G0 X142.3 Y72.215
G0 X142.3 Y72.3
;TYPE:WALL-OUTER
G1 F1800 X142.3 Y147.7 E106.92257
G1 X162.3 Y147.7 E107.92038
G1 X162.3 Y148.454 E107.95799
G1 X140.265 Y148.458 E109.05733
G1 X57.7 Y148.443 E113.17651
G1 X57.7 Y71.557 E117.01237
G1 X140.264 Y71.541 E121.1315
G1 X162.3 Y71.547 E122.23088
G1 X162.3 Y72.3 E122.26845
G1 X142.3 Y72.3 E123.26625
G0 F3600 X142.3 Y72.5
G0 X142.3 Y72.215
G0 X125.6 Y94.1
G0 X125.6 Y94.6
G1 F1800 X118.4 Y94.6 E123.62546
G1 X118.4 Y100.2 E123.90485
G1 X125.6 Y100.2 E124.26406
G1 X125.6 Y94.6 E124.54344
G0 F3600 X125.4 Y94.6
G0 X125.4 Y94.1
G0 X126.028 Y100.628
G0 X124.573 Y110.651
G0 X124.381 Y111.112
G1 F1800 X122 Y110.798 E124.66326
G1 X119.619 Y111.112 E124.78308
G1 X117.399 Y112.031 E124.90295
