;FLAVOR:Marlin
;TIME:21495
;Filament used: 25.5075m
;Layer height: 0.2
;MINX:34.3
;MINY:64.3
;MINZ:0.3
;MAXX:145.7
;MAXY:155.7
;MAXZ:44.9
;Generated with Cura_SteamEngine 4.1.0
M140 S60
M105
M190 S60
M104 S190
M105
M109 S190
M82 ;absolute extrusion mode
G21 ;metric values
G90 ;absolute positioning
M82 ;set extruder to absolute mode
M107 ;start with the fan off
G28 X0 Y0 ;move X/Y to min endstops
G28 Z0 ;move Z to min endstops
G1 Z15.0 F9000 ;move the platform down 15mm
G92 E0 ;zero the extruded length
G1 F200 E3 ;extrude 3mm of feed stock
G92 E0 ;zero the extruded length again
G1 F9000
;Put printing message on LCD screen
M117 Printing...
G92 E0
G92 E0
G1 F1500 E-6.5
;LAYER_COUNT:224
;LAYER:0
M107
G0 F3600 X36.117 Y64.628 Z0.3
;TYPE:SKIRT
G1 F1500 E0
G1 F1800 X36.588 Y64.444 E0.02523
G1 X37.082 Y64.338 E0.05043
G1 X37.419 Y64.31 E0.06731
G1 X37.74 Y64.301 E0.08333
G1 X37.83 Y64.3 E0.08782
G1 X141.839 Y64.3 E5.27685
G1 X142.537 Y64.31 E5.31167
G1 X143.04 Y64.357 E5.33688
G1 X143.53 Y64.483 E5.36212
G1 X143.994 Y64.685 E5.38737
G1 X144.42 Y64.957 E5.41258
G1 X144.798 Y65.292 E5.43778
G1 X145.118 Y65.683 E5.46299
G1 X145.373 Y66.12 E5.48823
G1 X145.556 Y66.591 E5.51344
G1 X145.663 Y67.085 E5.53866
G1 X145.69 Y67.42 E5.55543
G1 X145.699 Y67.74 E5.5714
G1 X145.7 Y67.83 E5.57589
G1 X145.7 Y151.804 E9.76537
G1 X145.691 Y152.531 E9.80164
G1 X145.645 Y153.034 E9.82684
G1 X145.52 Y153.524 E9.85207
G1 X145.319 Y153.988 E9.8773
G1 X145.048 Y154.415 E9.90253
G1 X144.713 Y154.794 E9.92776
G1 X144.323 Y155.115 E9.95296
G1 X143.887 Y155.371 E9.97819
G1 X143.416 Y155.554 E10.0034
G1 X142.922 Y155.662 E10.02863
G1 X142.581 Y155.69 E10.0457
G1 X142.26 Y155.699 E10.06172
G1 X142.17 Y155.7 E10.06621
G1 X38.166 Y155.7 E15.25499
G1 X37.468 Y155.691 E15.28981
G1 X36.964 Y155.644 E15.31507
G1 X36.474 Y155.519 E15.3403
G1 X36.01 Y155.318 E15.36552
G1 X35.584 Y155.047 E15.39071
G1 X35.205 Y154.712 E15.41595
G1 X34.884 Y154.321 E15.44119
G1 X34.629 Y153.885 E15.46639
G1 X34.445 Y153.414 E15.49162
G1 X34.338 Y152.92 E15.51683
G1 X34.31 Y152.577 E15.534
G1 X34.301 Y152.244 E15.55062
G1 X34.3 Y152.158 E15.55491
G1 X34.3 Y68.131 E19.74704
G1 X34.309 Y67.466 E19.78022
G1 X34.356 Y66.962 E19.80547
G1 X34.482 Y66.473 E19.83066
G1 X34.683 Y66.009 E19.85589
G1 X34.954 Y65.582 E19.88112
G1 X35.289 Y65.204 E19.90632
G1 X35.68 Y64.883 E19.93156
G1 X36.117 Y64.628 E19.9568
G1 F1500 E13.4568
;MESH:CASW-Hop.stl
G0 F3600 X38.114 Y66.835
G0 X38.114 Y68.114
G0 X38.5 Y68.5
;TYPE:WALL-INNER
G1 F1500 E19.9568
G1 F1800 X141.5 Y68.5 E25.09549
G1 X141.5 Y151.5 E29.23638
G1 X38.5 Y151.5 E34.37507
G1 X38.5 Y68.5 E38.51596
G0 F3600 X38.1 Y68.1
G1 F1800 X141.9 Y68.1 E43.69456
G1 X141.9 Y151.9 E47.87536
G1 X38.1 Y151.9 E53.05396
G1 X38.1 Y68.1 E57.23476
G0 F3600 X37.7 Y67.7
;TYPE:WALL-OUTER
G1 F1800 X142.3 Y67.7 E62.45328
G1 X142.3 Y152.3 E66.67399
G1 X37.7 Y152.3 E71.8925
G1 X37.7 Y67.7 E76.11321
G0 F3600 X37.9 Y67.7
G0 X38.17 Y68.17
G0 X38.89 Y68.89
;TYPE:SKIN
G1 F1800 X141.11 Y68.89 E81.21299
G1 X141.11 Y151.11 E85.31496
G1 X38.89 Y151.11 E90.41474
G1 X38.89 Y68.89 E94.51671
G0 F3600 X39.489 Y150.929
G1 F1800 X39.069 Y150.509 E94.54635
G0 F3600 X39.069 Y149.944
G1 F1800 X40.054 Y150.929 E94.61584
G0 F3600 X40.62 Y150.929
G1 F1800 X39.069 Y149.378 E94.72527
G0 F3600 X39.069 Y148.812
G1 F1800 X41.186 Y150.929 E94.87464
G0 F3600 X41.751 Y150.929
G1 F1800 X39.069 Y148.247 E95.06387
G0 F3600 X39.069 Y147.681
G1 F1800 X42.317 Y150.929 E95.29303
G0 F3600 X42.883 Y150.929
G1 F1800 X39.069 Y147.115 E95.56213
G0 F3600 X39.069 Y146.55
G1 F1800 X43.448 Y150.929 E95.87109
G0 F3600 X44.014 Y150.929
G1 F1800 X39.069 Y145.984 E96.21999
G0 F3600 X39.069 Y145.418
G1 F1800 X44.58 Y150.929 E96.60882
G0 F3600 X45.145 Y150.929
G1 F1800 X39.069 Y144.852 E97.03755
G0 F3600 X39.069 Y144.287
G1 F1800 X45.711 Y150.929 E97.50618
G0 F3600 X46.277 Y150.929
G1 F1800 X39.069 Y143.721 E98.01474
G0 F3600 X39.069 Y143.155
G1 F1800 X46.842 Y150.929 E98.56321
G0 F3600 X47.408 Y150.929
G1 F1800 X39.069 Y142.59 E99.15157
G0 F3600 X39.069 Y142.024
G1 F1800 X47.974 Y150.929 E99.77986
G0 F3600 X48.54 Y150.929
G1 F1800 X39.069 Y141.458 E100.44809
G0 F3600 X39.069 Y140.893
G1 F1800 X49.105 Y150.929 E101.15619
G0 F3600 X49.671 Y150.929
G1 F1800 X39.069 Y140.327 E101.90422
G0 F3600 X39.069 Y139.761
G1 F1800 X50.237 Y150.929 E102.69218
G0 F3600 X50.802 Y150.929
G1 F1800 X39.069 Y139.196 E103.52001
G0 F3600 X39.069 Y138.63
G1 F1800 X51.368 Y150.929 E104.38777
G0 F3600 X51.934 Y150.929
G1 F1800 X39.069 Y138.064 E105.29546
G0 F3600 X39.069 Y137.499
G1 F1800 X52.499 Y150.929 E106.24302
G0 F3600 X53.065 Y150.929
G1 F1800 X39.069 Y136.933 E107.23051
G0 F3600 X39.069 Y136.367
G1 F1800 X53.631 Y150.929 E108.25794
G0 F3600 X54.196 Y150.929
G1 F1800 X39.069 Y135.801 E109.32527
G0 F3600 X39.069 Y135.236
G1 F1800 X54.762 Y150.929 E110.43249
G0 F3600 X55.328 Y150.929
G1 F1800 X39.069 Y134.67 E111.57965
G0 F3600 X39.069 Y134.104
G1 F1800 X55.893 Y150.929 E112.76671
G0 F3600 X56.459 Y150.929
G1 F1800 X39.069 Y133.539 E113.99367
G0 F3600 X39.069 Y132.973
G1 F1800 X57.025 Y150.929 E115.26056
G0 F3600 X57.591 Y150.929
G1 F1800 X39.069 Y132.407 E116.56739
G0 F3600 X39.069 Y131.842
G1 F1800 X58.156 Y150.929 E117.91408
G0 F3600 X58.722 Y150.929
G1 F1800 X39.069 Y131.276 E119.30071
G0 F3600 X39.069 Y130.71
G1 F1800 X59.288 Y150.929 E120.72727
G0 F3600 X59.853 Y150.929
G1 F1800 X39.069 Y130.145 E122.19369
G0 F3600 X39.069 Y129.579
G1 F1800 X60.419 Y150.929 E123.70005
G0 F3600 X60.985 Y150.929
G1 F1800 X39.069 Y129.013 E125.24634
G0 F3600 X39.069 Y128.448
G1 F1800 X61.55 Y150.929 E126.8325
G0 F3600 X62.116 Y150.929
G1 F1800 X39.069 Y127.882 E128.45859
G0 F3600 X39.069 Y127.316
G1 F1800 X62.682 Y150.929 E130.12461
G0 F3600 X63.247 Y150.929
G1 F1800 X39.069 Y126.751 E131.8305
G0 F3600 X39.069 Y126.185
G1 F1800 X63.813 Y150.929 E133.57632
G0 F3600 X64.379 Y150.929
G1 F1800 X39.069 Y125.619 E135.36208
G0 F3600 X39.069 Y125.053
G1 F1800 X64.944 Y150.929 E137.18774
G0 F3600 X65.51 Y150.929
G1 F1800 X39.069 Y124.488 E139.05329
G0 F3600 X39.069 Y123.922
G1 F1800 X66.076 Y150.929 E140.95878
G0 F3600 X66.641 Y150.929
G1 F1800 X39.069 Y123.356 E142.90417
G0 F3600 X39.069 Y122.791
G1 F1800 X67.207 Y150.929 E144.88946
G0 F3600 X67.773 Y150.929
G1 F1800 X39.069 Y122.225 E146.91468
G0 F3600 X39.069 Y121.659
G1 F1800 X68.339 Y150.929 E148.97984
G0 F3600 X68.904 Y150.929
G1 F1800 X39.069 Y121.094 E151.08486
G0 F3600 X39.069 Y120.528
G1 F1800 X69.47 Y150.929 E153.22981
G0 F3600 X70.036 Y150.929
G1 F1800 X39.069 Y119.962 E155.4147
G0 F3600 X39.069 Y119.397
G1 F1800 X70.601 Y150.929 E157.63946
G0 F3600 X71.167 Y150.929
G1 F1800 X39.069 Y118.831 E159.90414
G0 F3600 X39.069 Y118.265
G1 F1800 X71.733 Y150.929 E162.20876
G0 F3600 X72.298 Y150.929
G1 F1800 X39.069 Y117.7 E164.55325
G0 F3600 X39.069 Y117.134
G1 F1800 X72.864 Y150.929 E166.93767
G0 F3600 X73.43 Y150.929
G1 F1800 X39.069 Y116.568 E169.36202
G0 F3600 X39.069 Y116.002
G1 F1800 X73.995 Y150.929 E171.82628
G0 F3600 X74.561 Y150.929
G1 F1800 X39.069 Y115.437 E174.33043
G0 F3600 X39.069 Y114.871
G1 F1800 X75.127 Y150.929 E176.87452
G0 F3600 X75.692 Y150.929
G1 F1800 X39.069 Y114.305 E179.4585
G0 F3600 X39.069 Y113.74
G1 F1800 X76.258 Y150.929 E182.08239
G0 F3600 X76.824 Y150.929
G1 F1800 X39.069 Y113.174 E184.74621
G0 F3600 X39.069 Y112.608
G1 F1800 X77.39 Y150.929 E187.44996
G0 F3600 X77.955 Y150.929
G1 F1800 X39.069 Y112.043 E190.19358
G0 F3600 X39.069 Y111.477
G1 F1800 X78.521 Y150.929 E192.97713
G0 F3600 X79.087 Y150.929
G1 F1800 X39.069 Y110.911 E195.80061
G0 F3600 X39.069 Y110.346
G1 F1800 X79.652 Y150.929 E198.66396
G0 F3600 X80.218 Y150.929
G1 F1800 X39.069 Y109.78 E201.56725
G0 F3600 X39.069 Y109.214
G1 F1800 X80.784 Y150.929 E204.51047
G0 F3600 X81.349 Y150.929
G1 F1800 X39.069 Y108.649 E207.49355
G0 F3600 X39.069 Y108.083
G1 F1800 X81.915 Y150.929 E210.51657
G0 F3600 X82.481 Y150.929
G1 F1800 X39.069 Y107.517 E213.57952
G0 F3600 X39.069 Y106.952
G1 F1800 X83.046 Y150.929 E216.68233
G0 F3600 X83.612 Y150.929
G1 F1800 X39.069 Y106.386 E219.82508
G0 F3600 X39.069 Y105.82
G1 F1800 X84.178 Y150.929 E223.00776
G0 F3600 X84.743 Y150.929
G1 F1800 X39.069 Y105.254 E226.23035
G0 F3600 X39.069 Y104.689
G1 F1800 X85.309 Y150.929 E229.49283
G0 F3600 X85.875 Y150.929
G1 F1800 X39.069 Y104.123 E232.79524
G0 F3600 X39.069 Y103.557
G1 F1800 X86.44 Y150.929 E236.13756
G0 F3600 X87.006 Y150.929
G1 F1800 X39.069 Y102.992 E239.51977
G0 F3600 X39.069 Y102.426
G1 F1800 X87.572 Y150.929 E242.94192
G0 F3600 X88.138 Y150.929
G1 F1800 X39.069 Y101.86 E246.40401
G0 F3600 X39.069 Y101.295
G1 F1800 X88.703 Y150.929 E249.90595
G0 F3600 X89.269 Y150.929
G1 F1800 X39.069 Y100.729 E253.44783
G0 F3600 X39.069 Y100.163
G1 F1800 X89.835 Y150.929 E257.02965
G0 F3600 X90.4 Y150.929
G1 F1800 X39.069 Y99.598 E260.65133
G0 F3600 X39.069 Y99.032
G1 F1800 X90.966 Y150.929 E264.31294
G0 F3600 X91.532 Y150.929
G1 F1800 X39.069 Y98.466 E268.01449
G0 F3600 X39.069 Y97.901
G1 F1800 X92.097 Y150.929 E271.7559
G0 F3600 X92.663 Y150.929
G1 F1800 X39.069 Y97.335 E275.53725
G0 F3600 X39.069 Y96.769
G1 F1800 X93.229 Y150.929 E279.35853
G0 F3600 X93.794 Y150.929
G1 F1800 X39.069 Y96.203 E283.21971
G0 F3600 X39.069 Y95.638
G1 F1800 X94.36 Y150.929 E287.12079
G0 F3600 X94.926 Y150.929
G1 F1800 X39.069 Y95.072 E291.0618
G0 F3600 X39.069 Y94.506
G1 F1800 X95.491 Y150.929 E295.04271
G0 F3600 X96.057 Y150.929
G1 F1800 X39.069 Y93.941 E299.06352
G0 F3600 X39.069 Y93.375
G1 F1800 X96.623 Y150.929 E303.12427
G0 F3600 X97.188 Y150.929
G1 F1800 X39.069 Y92.809 E307.22491
G0 F3600 X39.069 Y92.244
G1 F1800 X97.754 Y150.929 E311.36546
G0 F3600 X98.32 Y150.929
G1 F1800 X39.069 Y91.678 E315.54594
G0 F3600 X39.069 Y91.112
G1 F1800 X98.886 Y150.929 E319.76635
G0 F3600 X99.451 Y150.929
G1 F1800 X39.069 Y90.547 E324.02662
G0 F3600 X39.069 Y89.981
G1 F1800 X100.017 Y150.929 E328.32683
G0 F3600 X100.583 Y150.929
G1 F1800 X39.069 Y89.415 E332.66698
G0 F3600 X39.069 Y88.85
G1 F1800 X101.148 Y150.929 E337.04699
G0 F3600 X101.714 Y150.929
G1 F1800 X39.069 Y88.284 E341.46693
G0 F3600 X39.069 Y87.718
G1 F1800 X102.28 Y150.929 E345.92681
G0 F3600 X102.845 Y150.929
G1 F1800 X39.069 Y87.153 E350.42655
G0 F3600 X39.069 Y86.587
G1 F1800 X103.411 Y150.929 E354.96623
G0 F3600 X103.977 Y150.929
G1 F1800 X39.069 Y86.021 E359.54584
G0 F3600 X39.069 Y85.455
G1 F1800 X104.542 Y150.929 E364.16534
G0 F3600 X105.108 Y150.929
G1 F1800 X39.069 Y84.89 E368.82475
G0 F3600 X39.069 Y84.324
G1 F1800 X105.674 Y150.929 E373.5241
G0 F3600 X106.239 Y150.929
G1 F1800 X39.069 Y83.758 E378.26334
G0 F3600 X39.069 Y83.193
G1 F1800 X106.805 Y150.929 E383.04248
G0 F3600 X107.371 Y150.929
G1 F1800 X39.069 Y82.627 E387.86155
G0 F3600 X39.069 Y82.061
G1 F1800 X107.937 Y150.929 E392.72056
G0 F3600 X108.502 Y150.929
G1 F1800 X39.069 Y81.496 E397.61943
G0 F3600 X39.069 Y80.93
G1 F1800 X109.068 Y150.929 E402.55824
G0 F3600 X109.634 Y150.929
G1 F1800 X39.069 Y80.364 E407.53698
G0 F3600 X39.069 Y79.799
G1 F1800 X110.199 Y150.929 E412.55559
G0 F3600 X110.765 Y150.929
G1 F1800 X39.069 Y79.233 E417.61413
G0 F3600 X39.069 Y78.667
G1 F1800 X111.331 Y150.929 E422.7126
G0 F3600 X111.896 Y150.929
G1 F1800 X39.069 Y78.102 E427.85094
G0 F3600 X39.069 Y77.536
G1 F1800 X112.462 Y150.929 E433.02922
G0 F3600 X113.028 Y150.929
G1 F1800 X39.069 Y76.97 E438.24742
G0 F3600 X39.069 Y76.405
G1 F1800 X113.593 Y150.929 E443.50549
G0 F3600 X114.159 Y150.929
G1 F1800 X39.069 Y75.839 E448.8035
G0 F3600 X39.069 Y75.273
G1 F1800 X114.725 Y150.929 E454.14144
G0 F3600 X115.29 Y150.929
G1 F1800 X39.069 Y74.707 E459.51928
G0 F3600 X39.069 Y74.142
G1 F1800 X115.856 Y150.929 E464.93701
G0 F3600 X116.422 Y150.929
G1 F1800 X39.069 Y73.576 E470.39469
G0 F3600 X39.069 Y73.01
G1 F1800 X116.987 Y150.929 E475.89226
G0 F3600 X117.553 Y150.929
G1 F1800 X39.069 Y72.445 E481.42973
G0 F3600 X39.069 Y71.879
G1 F1800 X118.119 Y150.929 E487.00713
G0 F3600 X118.685 Y150.929
G1 F1800 X39.069 Y71.313 E492.62447
G0 F3600 X39.069 Y70.748
G1 F1800 X119.25 Y150.929 E498.28167
G0 F3600 X119.816 Y150.929
G1 F1800 X39.069 Y70.182 E503.97881
G0 F3600 X39.069 Y69.616
G1 F1800 X120.382 Y150.929 E509.71588
G0 F3600 X120.947 Y150.929
G1 F1800 X39.088 Y69.07 E515.49148
G0 F3600 X39.654 Y69.07
G1 F1800 X121.513 Y150.929 E521.26707
G0 F3600 X122.079 Y150.929
G1 F1800 X40.22 Y69.07 E527.04266
G0 F3600 X40.785 Y69.07
G1 F1800 X122.644 Y150.929 E532.81826
G0 F3600 X123.21 Y150.929
G1 F1800 X41.351 Y69.07 E538.59385
G0 F3600 X41.917 Y69.07
G1 F1800 X123.776 Y150.929 E544.36945
G0 F3600 X124.341 Y150.929
G1 F1800 X42.482 Y69.07 E550.14504
G0 F3600 X43.048 Y69.07
G1 F1800 X124.907 Y150.929 E555.92064
G0 F3600 X125.473 Y150.929
G1 F1800 X43.614 Y69.07 E561.69623
G0 F3600 X44.18 Y69.07
G1 F1800 X126.038 Y150.929 E567.47179
G0 F3600 X126.604 Y150.929
G1 F1800 X44.745 Y69.07 E573.24739
G0 F3600 X45.311 Y69.07
G1 F1800 X127.17 Y150.929 E579.02298
G0 F3600 X127.736 Y150.929
G1 F1800 X45.877 Y69.07 E584.79857
G0 F3600 X46.442 Y69.07
G1 F1800 X128.301 Y150.929 E590.57417
G0 F3600 X128.867 Y150.929
G1 F1800 X47.008 Y69.07 E596.34976
G0 F3600 X47.574 Y69.07
G1 F1800 X129.433 Y150.929 E602.12536
G0 F3600 X129.998 Y150.929
G1 F1800 X48.139 Y69.07 E607.90095
G0 F3600 X48.705 Y69.07
G1 F1800 X130.564 Y150.929 E613.67655
G0 F3600 X131.13 Y150.929
G1 F1800 X49.271 Y69.07 E619.45214
G0 F3600 X49.836 Y69.07
G1 F1800 X131.695 Y150.929 E625.22774
G0 F3600 X132.261 Y150.929
G1 F1800 X50.402 Y69.07 E631.00333
G0 F3600 X50.968 Y69.07
G1 F1800 X132.827 Y150.929 E636.77893
G0 F3600 X133.392 Y150.929
G1 F1800 X51.533 Y69.07 E642.55452
G0 F3600 X52.099 Y69.07
G1 F1800 X133.958 Y150.929 E648.33012
G0 F3600 X134.524 Y150.929
G1 F1800 X52.665 Y69.07 E654.10571
G0 F3600 X53.23 Y69.07
G1 F1800 X135.089 Y150.929 E659.8813
G0 F3600 X135.655 Y150.929
G1 F1800 X53.796 Y69.07 E665.6569
G0 F3600 X54.362 Y69.07
G1 F1800 X136.221 Y150.929 E671.43249
G0 F3600 X136.786 Y150.929
G1 F1800 X54.928 Y69.07 E677.20805
G0 F3600 X55.493 Y69.07
G1 F1800 X137.352 Y150.929 E682.98365
G0 F3600 X137.918 Y150.929
G1 F1800 X56.059 Y69.07 E688.75924
G0 F3600 X56.625 Y69.07
G1 F1800 X138.484 Y150.929 E694.53484
G0 F3600 X139.049 Y150.929
G1 F1800 X57.19 Y69.07 E700.31043
G0 F3600 X57.756 Y69.07
G1 F1800 X139.615 Y150.929 E706.08603
G0 F3600 X140.181 Y150.929
G1 F1800 X58.322 Y69.07 E711.86162
G0 F3600 X58.887 Y69.07
G1 F1800 X140.746 Y150.929 E717.63721
G0 F3600 X140.929 Y150.546
G1 F1800 X59.453 Y69.07 E723.38579
G0 F3600 X60.019 Y69.07
G1 F1800 X140.929 Y149.98 E729.09442
G0 F3600 X140.929 Y149.415
G1 F1800 X60.584 Y69.07 E734.7632
G0 F3600 X61.15 Y69.07
G1 F1800 X140.929 Y148.849 E740.39204
G0 F3600 X140.929 Y148.283
G1 F1800 X61.716 Y69.07 E745.98094
G0 F3600 X62.281 Y69.07
G1 F1800 X140.929 Y147.718 E751.52998
G0 F3600 X140.929 Y147.152
G1 F1800 X62.847 Y69.07 E757.03909
G0 F3600 X63.413 Y69.07
G1 F1800 X140.929 Y146.586 E762.50826
G0 F3600 X140.929 Y146.021
G1 F1800 X63.979 Y69.07 E767.93754
G0 F3600 X64.544 Y69.07
G1 F1800 X140.929 Y145.455 E773.32691
G0 F3600 X140.929 Y144.889
G1 F1800 X65.11 Y69.07 E778.67635
G0 F3600 X65.676 Y69.07
G1 F1800 X140.929 Y144.324 E783.98589
G0 F3600 X140.929 Y143.758
G1 F1800 X66.241 Y69.07 E789.25553
G0 F3600 X66.807 Y69.07
G1 F1800 X140.929 Y143.192 E794.48524
G0 F3600 X140.929 Y142.626
G1 F1800 X67.373 Y69.07 E799.67501
G0 F3600 X67.938 Y69.07
G1 F1800 X140.929 Y142.061 E804.82492
G0 F3600 X140.929 Y141.495
G1 F1800 X68.504 Y69.07 E809.9349
G0 F3600 X69.07 Y69.07
G1 F1800 X140.929 Y140.929 E815.00494
G0 F3600 X140.929 Y140.364
G1 F1800 X69.635 Y69.07 E820.03512
G0 F3600 X70.201 Y69.07
G1 F1800 X140.929 Y139.798 E825.02536
G0 F3600 X140.929 Y139.232
G1 F1800 X70.767 Y69.07 E829.97567
G0 F3600 X71.332 Y69.07
G1 F1800 X140.929 Y138.667 E834.88611
G0 F3600 X140.929 Y138.101
G1 F1800 X71.898 Y69.07 E839.75662
G0 F3600 X72.464 Y69.07
G1 F1800 X140.929 Y137.535 E844.5872
G0 F3600 X140.929 Y136.97
G1 F1800 X73.029 Y69.07 E849.37791
G0 F3600 X73.595 Y69.07
G1 F1800 X140.929 Y136.404 E854.12868
G0 F3600 X140.929 Y135.838
G1 F1800 X74.161 Y69.07 E858.83953
G0 F3600 X74.727 Y69.07
