;FLAVOR:Marlin
;TIME:9747
;Filament used: 10.2709m
;Layer height: 0.2
;MINX:44.29
;MINY:55.841
;MINZ:0.3
;MAXX:155.7
;MAXY:144.158
;MAXZ:9.9
;Generated with Cura_SteamEngine 4.1.0
M140 S60
M105
M190 S60
M104 S200
M105
M109 S200
M82 ;absolute extrusion mode
G21 ;metric values
G90 ;absolute positioning
M82 ;set extruder to absolute mode
M107 ;start with the fan off
G28 X0 Y0 ;move X/Y to min endstops
G28 Z0 ;move Z to min endstops
G1 Z15.0 F9000 ;move the platform down 15mm
G92 E0 ;zero the extruded length
G1 F200 E3 ;extrude 3mm of feed stock
G92 E0 ;zero the extruded length again
G1 F9000
;Put printing message on LCD screen
M117 Printing...
G92 E0
G92 E0
G1 F1500 E-6.5
;LAYER_COUNT:49
;LAYER:0
M107
G0 F3600 X45.706 Y56.493 Z0.3
;TYPE:SKIRT
G1 F1500 E0
G1 F1800 X46.133 Y56.222 E0.02523
G1 X46.597 Y56.022 E0.05044
G1 X47.087 Y55.898 E0.07566
G1 X47.57 Y55.853 E0.09986
G1 X48.13 Y55.843 E0.1278
G1 X48.187 Y55.842 E0.13064
G1 X58.32 Y55.841 E0.63618
G1 X151.677 Y55.843 E5.29378
G1 X151.723 Y55.843 E5.29608
G1 X152.424 Y55.853 E5.33105
G1 X152.927 Y55.9 E5.35626
G1 X153.417 Y56.026 E5.3815
G1 X153.88 Y56.228 E5.4067
G1 X154.307 Y56.5 E5.43196
G1 X154.62 Y56.77 E5.45258
G1 X154.732 Y56.88 E5.46041
G1 X155.064 Y57.262 E5.48566
G1 X155.331 Y57.691 E5.51087
G1 X155.528 Y58.157 E5.53611
G1 X155.648 Y58.648 E5.56133
G1 X155.689 Y59.103 E5.58412
G1 X155.699 Y59.638 E5.61082
G1 X155.7 Y59.698 E5.61381
G1 X155.7 Y61.839 E5.72063
G1 X155.69 Y62.532 E5.75521
G1 X155.642 Y63.036 E5.78046
G1 X155.481 Y63.623 E5.81083
G1 X155.389 Y63.865 E5.82375
G1 X155.384 Y63.879 E5.82449
G1 X154.387 Y66.467 E5.96285
G1 X153.465 Y69.078 E6.101
G1 X152.638 Y71.651 E6.23584
G1 X151.871 Y74.29 E6.37294
G1 X151.177 Y76.954 E6.51029
G1 X150.563 Y79.62 E6.64678
G1 X150.024 Y82.31 E6.78365
G1 X149.568 Y84.981 E6.91883
G1 X149.181 Y87.691 E7.05541
G1 X148.866 Y90.469 E7.19489
G1 X148.64 Y93.132 E7.32823
G1 X148.484 Y95.88 E7.46555
G1 X148.406 Y98.632 E7.6029
G1 X148.406 Y101.35 E7.7385
G1 X148.484 Y104.102 E7.87585
G1 X148.64 Y106.851 E8.01322
G1 X148.866 Y109.513 E8.14651
G1 X149.182 Y112.294 E8.28614
G1 X149.566 Y114.99 E8.42201
G1 X150.029 Y117.695 E8.55892
G1 X150.561 Y120.346 E8.69382
G1 X151.178 Y123.031 E8.83126
G1 X151.865 Y125.673 E8.96746
G1 X152.634 Y128.318 E9.10488
G1 X153.479 Y130.945 E9.24256
G1 X154.385 Y133.512 E9.37837
G1 X155.475 Y136.351 E9.53009
G1 X155.619 Y136.836 E9.55533
G1 X155.686 Y137.382 E9.58277
G1 X155.698 Y137.714 E9.59934
G1 X155.7 Y137.83 E9.60513
G1 X155.7 Y140.151 E9.72093
G1 X155.69 Y140.876 E9.7571
G1 X155.643 Y141.38 E9.78236
G1 X155.517 Y141.869 E9.80755
G1 X155.316 Y142.333 E9.83278
G1 X155.044 Y142.759 E9.85799
G1 X154.792 Y143.055 E9.87739
G1 X154.68 Y143.171 E9.88543
G1 X154.301 Y143.506 E9.91067
G1 X153.874 Y143.777 E9.9359
G1 X153.41 Y143.977 E9.96111
G1 X152.92 Y144.102 E9.98634
G1 X152.435 Y144.147 E10.01064
G1 X151.878 Y144.157 E10.03843
G1 X151.821 Y144.158 E10.04127
G1 X48.278 Y144.158 E15.20706
G1 X47.577 Y144.148 E15.24203
G1 X47.074 Y144.101 E15.26724
G1 X46.584 Y143.975 E15.29248
G1 X46.121 Y143.773 E15.31768
G1 X45.694 Y143.501 E15.34294
G1 X45.37 Y143.221 E15.3643
G1 X45.257 Y143.109 E15.37224
G1 X44.927 Y142.726 E15.39746
G1 X44.662 Y142.295 E15.4227
G1 X44.468 Y141.829 E15.44789
G1 X44.349 Y141.337 E15.47314
G1 X44.31 Y140.889 E15.49558
G1 X44.3 Y140.289 E15.52551
G1 X44.3 Y61.403 E19.46115
G1 X44.29 Y60.703 E19.49608
G1 X44.29 Y60.614 E19.50052
G1 X44.31 Y59.13 E19.57456
G1 X44.357 Y58.626 E19.59982
G1 X44.482 Y58.137 E19.625
G1 X44.683 Y57.673 E19.65023
G1 X44.955 Y57.246 E19.67548
G1 X45.21 Y56.949 E19.69501
G1 X45.327 Y56.828 E19.70341
G1 X45.706 Y56.493 E19.72865
G0 F3600 X47.704 Y59.242
;TYPE:SUPPORT
G1 F1800 X58.32 Y59.241 E20.25828
G1 X152.3 Y59.243 E24.94696
G1 X152.3 Y60.351 E25.00224
G1 X147.902 Y60.35 E25.22166
G1 X47.7 Y60.364 E30.22076
G1 X47.7 Y59.246 E30.27653
G1 X47.704 Y59.242 E30.27682
G0 F3600 X48.006 Y59.401
G1 F1800 X48.006 Y60.204 E30.31688
G0 F3600 X50.673 Y60.204
G1 F1800 X50.673 Y59.401 E30.35694
G0 F3600 X53.34 Y59.401
G1 F1800 X53.34 Y60.204 E30.397
G0 F3600 X56.007 Y60.203
G1 F1800 X56.007 Y59.401 E30.43701
G0 F3600 X58.674 Y59.402
G1 F1800 X58.674 Y60.203 E30.47697
G0 F3600 X61.341 Y60.203
G1 F1800 X61.341 Y59.402 E30.51694
G0 F3600 X64.008 Y59.402
G1 F1800 X64.008 Y60.202 E30.55685
G0 F3600 X66.675 Y60.202
G1 F1800 X66.675 Y59.402 E30.59676
G0 F3600 X69.342 Y59.402
G1 F1800 X69.342 Y60.201 E30.63662
G0 F3600 X72.009 Y60.201
G1 F1800 X72.009 Y59.402 E30.67649
G0 F3600 X74.676 Y59.402
G1 F1800 X74.676 Y60.201 E30.71635
G0 F3600 X77.343 Y60.2
G1 F1800 X77.343 Y59.402 E30.75616
G0 F3600 X80.01 Y59.402
G1 F1800 X80.01 Y60.2 E30.79597
G0 F3600 X82.677 Y60.2
G1 F1800 X82.677 Y59.402 E30.83579
G0 F3600 X85.344 Y59.402
G1 F1800 X85.344 Y60.199 E30.87555
G0 F3600 X88.011 Y60.199
G1 F1800 X88.011 Y59.402 E30.91531
G0 F3600 X90.678 Y59.402
G1 F1800 X90.678 Y60.199 E30.95507
G0 F3600 X93.345 Y60.198
G1 F1800 X93.345 Y59.402 E30.99479
G0 F3600 X96.012 Y59.402
G1 F1800 X96.012 Y60.198 E31.0345
G0 F3600 X98.679 Y60.197
G1 F1800 X98.679 Y59.402 E31.07416
G0 F3600 X101.346 Y59.402
G1 F1800 X101.346 Y60.197 E31.11382
G0 F3600 X104.013 Y60.197
G1 F1800 X104.013 Y59.402 E31.15349
G0 F3600 X106.68 Y59.403
G1 F1800 X106.68 Y60.196 E31.19305
G0 F3600 X109.347 Y60.196
G1 F1800 X109.347 Y59.403 E31.23261
G0 F3600 X112.014 Y59.403
G1 F1800 X112.014 Y60.196 E31.27217
G0 F3600 X114.681 Y60.195
G1 F1800 X114.681 Y59.403 E31.31169
G0 F3600 X117.348 Y59.403
G1 F1800 X117.348 Y60.195 E31.3512
G0 F3600 X120.015 Y60.194
G1 F1800 X120.015 Y59.403 E31.39066
G0 F3600 X122.682 Y59.403
G1 F1800 X122.682 Y60.194 E31.43013
G0 F3600 X125.349 Y60.194
G1 F1800 X125.349 Y59.403 E31.46959
G0 F3600 X128.016 Y59.403
G1 F1800 X128.016 Y60.193 E31.509
G0 F3600 X130.683 Y60.193
G1 F1800 X130.683 Y59.403 E31.54842
G0 F3600 X133.35 Y59.403
G1 F1800 X133.35 Y60.193 E31.58783
G0 F3600 X136.017 Y60.192
G1 F1800 X136.017 Y59.403 E31.62719
G0 F3600 X138.684 Y59.403
G1 F1800 X138.684 Y60.192 E31.66656
G0 F3600 X141.351 Y60.191
G1 F1800 X141.351 Y59.403 E31.70587
G0 F3600 X144.018 Y59.403
G1 F1800 X144.018 Y60.191 E31.74518
G0 F3600 X146.685 Y60.191
G1 F1800 X146.685 Y59.403 E31.7845
G0 F3600 X149.352 Y59.403
G1 F1800 X149.352 Y60.19 E31.82376
G0 F3600 X152.019 Y60.19
G1 F1800 X152.019 Y59.403 E31.86302
G1 F1500 E25.36302
G0 F3600 X153.161 Y61.19
G0 X153.161 Y138.811
G0 X152.3 Y139.65
G1 F1500 E31.86302
G1 F1800 X152.3 Y140.758 E31.9183
G1 X47.7 Y140.758 E37.13682
G1 X47.7 Y139.636 E37.19279
G1 X147.903 Y139.649 E42.19194
G1 X152.3 Y139.65 E42.41131
G0 F3600 X152.019 Y139.81
G1 F1800 X152.019 Y140.598 E42.45062
G0 F3600 X149.352 Y140.598
G1 F1800 X149.352 Y139.81 E42.48994
G0 F3600 X146.685 Y139.809
G1 F1800 X146.685 Y140.598 E42.5293
G0 F3600 X144.018 Y140.598
G1 F1800 X144.018 Y139.809 E42.56866
G0 F3600 X141.351 Y139.809
G1 F1800 X141.351 Y140.598 E42.60803
G0 F3600 X138.684 Y140.598
G1 F1800 X138.684 Y139.808 E42.64744
G0 F3600 X136.017 Y139.808
G1 F1800 X136.017 Y140.598 E42.68685
G0 F3600 X133.35 Y140.598
G1 F1800 X133.35 Y139.808 E42.72627
G0 F3600 X130.683 Y139.807
G1 F1800 X130.683 Y140.598 E42.76573
G0 F3600 X128.016 Y140.598
G1 F1800 X128.016 Y139.807 E42.80519
G0 F3600 X125.349 Y139.807
G1 F1800 X125.349 Y140.598 E42.84466
G0 F3600 X122.682 Y140.598
G1 F1800 X122.682 Y139.806 E42.88417
G0 F3600 X120.015 Y139.806
G1 F1800 X120.015 Y140.598 E42.92368
G0 F3600 X117.348 Y140.598
G1 F1800 X117.348 Y139.806 E42.9632
G0 F3600 X114.681 Y139.805
G1 F1800 X114.681 Y140.598 E43.00276
G0 F3600 X112.014 Y140.598
G1 F1800 X112.014 Y139.805 E43.04232
G0 F3600 X109.347 Y139.804
G1 F1800 X109.347 Y140.598 E43.08193
G0 F3600 X106.68 Y140.598
G1 F1800 X106.68 Y139.804 E43.12155
G0 F3600 X104.013 Y139.804
G1 F1800 X104.013 Y140.598 E43.16116
G0 F3600 X101.346 Y140.598
G1 F1800 X101.346 Y139.803 E43.20082
G0 F3600 X98.679 Y139.803
G1 F1800 X98.679 Y140.598 E43.24049
G0 F3600 X96.012 Y140.598
G1 F1800 X96.012 Y139.803 E43.28015
G0 F3600 X93.345 Y139.802
G1 F1800 X93.345 Y140.598 E43.31986
G0 F3600 X90.678 Y140.598
G1 F1800 X90.678 Y139.802 E43.35957
G0 F3600 X88.011 Y139.802
G1 F1800 X88.011 Y140.598 E43.39929
G0 F3600 X85.344 Y140.598
G1 F1800 X85.344 Y139.801 E43.43905
G0 F3600 X82.677 Y139.801
G1 F1800 X82.677 Y140.598 E43.47881
G0 F3600 X80.01 Y140.598
G1 F1800 X80.01 Y139.801 E43.51857
G0 F3600 X77.343 Y139.8
G1 F1800 X77.343 Y140.598 E43.55839
G0 F3600 X74.676 Y140.598
G1 F1800 X74.676 Y139.8 E43.5982
G0 F3600 X72.009 Y139.8
G1 F1800 X72.009 Y140.598 E43.63801
G0 F3600 X69.342 Y140.598
G1 F1800 X69.342 Y139.799 E43.67787
G0 F3600 X66.675 Y139.799
G1 F1800 X66.675 Y140.598 E43.71773
G0 F3600 X64.008 Y140.598
G1 F1800 X64.008 Y139.799 E43.7576
G0 F3600 X61.341 Y139.798
G1 F1800 X61.341 Y140.598 E43.79751
G0 F3600 X58.674 Y140.598
G1 F1800 X58.674 Y139.798 E43.83742
G0 F3600 X56.007 Y139.798
G1 F1800 X56.007 Y140.598 E43.87733
G0 F3600 X53.34 Y140.598
G1 F1800 X53.34 Y139.797 E43.9173
G0 F3600 X50.673 Y139.797
G1 F1800 X50.673 Y140.598 E43.95726
G0 F3600 X48.006 Y140.598
G1 F1800 X48.006 Y139.797 E43.99722
G1 F1500 E37.49722
;MESH:CASW2-NapHop.stl
G0 F3600 X48.114 Y138.029
G0 X48.5 Y137.643
;TYPE:WALL-INNER
G1 F1500 E43.99722
G1 F1800 X48.5 Y62.357 E47.75325
G1 X130.264 Y62.341 E51.83248
G1 X131.5 Y62.341 E51.89414
G1 X131.5 Y137.658 E55.65172
G1 X130.265 Y137.658 E55.71334
G1 X48.5 Y137.643 E59.79261
G0 F3600 X64.995 Y106.167
G1 F1800 X67.411 Y107.168 E59.92308
G1 X70 Y107.508 E60.05335
G1 X72.589 Y107.168 E60.18363
G1 X75.005 Y106.167 E60.3141
G1 X77.077 Y104.577 E60.4444
G1 X78.667 Y102.505 E60.5747
G1 X79.668 Y100.089 E60.70517
G1 X80.008 Y97.5 E60.83545
G1 X79.668 Y94.911 E60.96572
G1 X78.667 Y92.495 E61.09619
G1 X77.077 Y90.423 E61.22649
G1 X75.005 Y88.833 E61.35679
G1 X72.589 Y87.832 E61.48727
G1 X70 Y87.492 E61.61754
G1 X67.411 Y87.832 E61.74782
G1 X64.995 Y88.833 E61.87829
G1 X62.923 Y90.423 E62.00859
G1 X61.333 Y92.495 E62.13889
G1 X60.332 Y94.911 E62.26936
G1 X59.992 Y97.5 E62.39963
G1 X60.332 Y100.089 E62.52991
G1 X61.333 Y102.505 E62.66038
G1 X62.923 Y104.577 E62.79068
G1 X64.995 Y106.167 E62.92098
G0 F3600 X63.18 Y104.32
G0 X61.648 Y102.322
G0 X60.683 Y99.992
G0 X60.354 Y97.5
G0 X60.683 Y95.008
G0 X65.6 Y81
G1 F1800 X74.4 Y81 E63.36002
G1 X74.4 Y73.8 E63.71922
G1 X65.6 Y73.8 E64.15826
G1 X65.6 Y81 E64.51747
G0 F3600 X105.6 Y81
G1 F1800 X114.4 Y81 E64.9565
G1 X114.4 Y73.8 E65.31571
G1 X105.6 Y73.8 E65.75475
G1 X105.6 Y81 E66.11395
G0 F3600 X100.683 Y95.008
G0 X100.354 Y97.5
G0 X100.65 Y99.742
G0 X101.333 Y102.505
G1 F1800 X102.923 Y104.577 E66.24426
G1 X104.995 Y106.167 E66.37456
G1 X107.411 Y107.168 E66.50503
G1 X110 Y107.508 E66.6353
G1 X112.589 Y107.168 E66.76558
G1 X115.005 Y106.167 E66.89605
G1 X117.077 Y104.577 E67.02635
G1 X118.667 Y102.505 E67.15665
G1 X119.668 Y100.089 E67.28712
G1 X120.008 Y97.5 E67.4174
G1 X119.668 Y94.911 E67.54767
G1 X118.667 Y92.495 E67.67814
G1 X117.077 Y90.423 E67.80844
G1 X115.005 Y88.833 E67.93874
G1 X112.589 Y87.832 E68.06921
G1 X110 Y87.492 E68.19949
G1 X107.411 Y87.832 E68.32976
G1 X104.995 Y88.833 E68.46024
G1 X102.923 Y90.423 E68.59054
G1 X101.333 Y92.495 E68.72084
G1 X100.332 Y94.911 E68.85131
G1 X99.992 Y97.5 E68.98158
G1 X100.332 Y100.089 E69.11186
G1 X101.333 Y102.505 E69.24233
G0 F3600 X101.682 Y102.303
G1 F1800 X103.208 Y104.292 E69.3674
G1 X105.197 Y105.818 E69.49247
G1 X107.515 Y106.778 E69.61764
G1 X110 Y107.105 E69.74269
G1 X112.485 Y106.778 E69.86774
G1 X114.803 Y105.818 E69.99291
G1 X116.792 Y104.292 E70.11798
G1 X118.318 Y102.303 E70.24305
G1 X119.278 Y99.985 E70.36822
G1 X119.605 Y97.5 E70.49327
G1 X119.278 Y95.015 E70.61831
G1 X118.318 Y92.697 E70.74349
G1 X116.792 Y90.708 E70.86856
G1 X114.803 Y89.182 E70.99363
G1 X112.485 Y88.222 E71.1188
G1 X110 Y87.895 E71.24385
G1 X107.515 Y88.222 E71.36889
G1 X105.197 Y89.182 E71.49406
G1 X103.208 Y90.708 E71.61914
G1 X101.682 Y92.697 E71.74421
G1 X100.722 Y95.015 E71.86938
G1 X100.395 Y97.5 E71.99443
G1 X100.722 Y99.985 E72.11947
G1 X101.682 Y102.303 E72.24464
G0 F3600 X101.596 Y102.352
G0 X100.683 Y99.992
G0 X100.354 Y97.5
G0 X100.683 Y95.008
G0 X105.93 Y80.67
G0 X106 Y80.6
G1 F1800 X114 Y80.6 E72.64376
G1 X114 Y74.2 E72.96306
G1 X106 Y74.2 E73.36218
G1 X106 Y80.6 E73.68148
G0 F3600 X105.93 Y80.67
G0 X74.07 Y80.67
G0 X74 Y80.6
G1 F1800 X74 Y74.2 E74.00078
G1 X66 Y74.2 E74.3999
G1 X66 Y80.6 E74.7192
G1 X74 Y80.6 E75.11832
G0 F3600 X74.07 Y80.67
G0 X79.317 Y95.008
G0 X79.646 Y97.5
G0 X79.369 Y100.023
G0 X79.278 Y99.985
G1 F1800 X79.605 Y97.5 E75.24336
G1 X79.278 Y95.015 E75.36841
G1 X78.318 Y92.697 E75.49358
G1 X76.792 Y90.708 E75.61865
G1 X74.803 Y89.182 E75.74372
G1 X72.485 Y88.222 E75.8689
G1 X70 Y87.895 E75.99394
G1 X67.515 Y88.222 E76.11899
G1 X65.197 Y89.182 E76.24416
G1 X63.208 Y90.708 E76.36923
G1 X61.682 Y92.697 E76.4943
G1 X60.722 Y95.015 E76.61947
G1 X60.395 Y97.5 E76.74452
G1 X60.722 Y99.985 E76.86957
G1 X61.682 Y102.303 E76.99474
G1 X63.208 Y104.292 E77.11981
G1 X65.197 Y105.818 E77.24488
G1 X67.515 Y106.778 E77.37005
G1 X70 Y107.105 E77.4951
G1 X72.485 Y106.778 E77.62014
G1 X74.803 Y105.818 E77.74532
G1 X76.792 Y104.292 E77.87039
G1 X78.318 Y102.303 E77.99546
G1 X79.278 Y99.985 E78.12063
G0 F3600 X79.369 Y100.023
G0 X130.265 Y137.958
G0 X130.265 Y138.058
G1 F1800 X48.1 Y138.043 E82.21986
G1 X48.1 Y61.957 E86.01581
G1 X130.264 Y61.941 E90.11498
G1 X131.9 Y61.941 E90.1966
G1 X131.9 Y138.058 E93.9941
G1 X130.265 Y138.058 E94.07567
G0 F3600 X130.265 Y137.958
G0 X132.3 Y137.785
G0 X132.3 Y137.7
;TYPE:WALL-OUTER
G1 F1800 X152.3 Y137.7 E95.07347
G1 X152.3 Y138.454 E95.11109
G1 X130.265 Y138.458 E96.21042
G1 X47.7 Y138.443 E100.3296
G1 X47.7 Y61.557 E104.16546
G1 X130.264 Y61.541 E108.2846
G1 X152.3 Y61.547 E109.38398
G1 X152.3 Y62.3 E109.42154
G1 X132.3 Y62.3 E110.41935
G1 X132.3 Y137.7 E114.18107
G0 F3600 X132.5 Y137.7
G0 X132.5 Y137.785
G0 X114.904 Y105.866
G0 X114.601 Y105.469
G1 F1800 X116.507 Y104.007 E114.30091
G1 X117.969 Y102.101 E114.42076
G1 X118.888 Y99.881 E114.54063
G1 X119.202 Y97.5 E114.66044
G1 X118.888 Y95.119 E114.78026
G1 X117.969 Y92.899 E114.90013
G1 X116.507 Y90.993 E115.01998
G1 X114.601 Y89.531 E115.13982
G1 X112.381 Y88.612 E115.25969
G1 X110 Y88.298 E115.37951
G1 X107.619 Y88.612 E115.49932
G1 X105.399 Y89.531 E115.6192
G1 X103.493 Y90.993 E115.73904
G1 X102.031 Y92.899 E115.85888
G1 X101.112 Y95.119 E115.97875
G1 X100.798 Y97.5 E116.09857
G1 X101.112 Y99.881 E116.21839
G1 X102.031 Y102.101 E116.33826
G1 X103.493 Y104.007 E116.4581
G1 X105.399 Y105.469 E116.57795
G1 X107.619 Y106.388 E116.69782
G1 X110 Y106.702 E116.81763
G1 X112.381 Y106.388 E116.93745
G1 X114.601 Y105.469 E117.05732
G0 F3600 X114.759 Y105.348
G0 X115.062 Y105.745
G0 X116.82 Y104.32
G0 X118.352 Y102.322
G0 X119.317 Y99.992
G0 X119.646 Y97.5
G0 X119.317 Y95.008
G0 X114.1 Y80.2
G0 X113.6 Y80.2
G1 F1800 X113.6 Y74.6 E117.33671
G1 X106.4 Y74.6 E117.69592
G1 X106.4 Y80.2 E117.9753
G1 X113.6 Y80.2 E118.33451
G0 F3600 X113.6 Y80
G0 X114.1 Y80
G0 X107.503 Y80.628
G0 X74.1 Y80.2
G0 X73.6 Y80.2
G1 F1800 X73.6 Y74.6 E118.6139
G1 X66.4 Y74.6 E118.97311
G1 X66.4 Y80.2 E119.25249
G1 X73.6 Y80.2 E119.6117
G0 F3600 X73.6 Y80
G0 X74.1 Y80
G0 X79.317 Y95.008
G0 X79.646 Y97.5
G0 X79.317 Y99.992
G0 X78.365 Y102.404
G0 X77.969 Y102.101
G1 F1800 X78.888 Y99.881 E119.73157
G1 X79.202 Y97.5 E119.85139
G1 X78.888 Y95.119 E119.97121
G1 X77.969 Y92.899 E120.09108
G1 X76.507 Y90.993 E120.21092
G1 X74.601 Y89.531 E120.33076
G1 X72.381 Y88.612 E120.45063
G1 X70 Y88.298 E120.57045
G1 X67.619 Y88.612 E120.69027
G1 X65.399 Y89.531 E120.81014
G1 X63.493 Y90.993 E120.92998
G1 X62.031 Y92.899 E121.04983
G1 X61.112 Y95.119 E121.1697
G1 X60.798 Y97.5 E121.28951
G1 X61.112 Y99.881 E121.40933
G1 X62.031 Y102.101 E121.5292
G1 X63.493 Y104.007 E121.64905
G1 X65.399 Y105.469 E121.76889
G1 X67.619 Y106.388 E121.88876
G1 X70 Y106.702 E122.00858
G1 X72.381 Y106.388 E122.12839
G1 X74.601 Y105.469 E122.24827
G1 X76.507 Y104.007 E122.36811
G1 X77.969 Y102.101 E122.48795
G0 F3600 X78.045 Y101.917
G0 X78.506 Y102.109
G0 X79.008 Y102.702
;TYPE:SKIN
